(Exported by FreeCAD)
(Post Processor: linuxcnc_post)
(Output Time:2019-04-23 17:39:36.488976)
(begin preamble)
G17 G54 G40 G49 G80 G90
G21
(begin operation: T3: 063 End Mill)
(machine: not set, mm/min)
(T3: 063 End Mill)
M6 T1
M3 S24000
G4 P10
(finish operation: T3: 063 End Mill)
(begin operation: Drilling)
(machine: not set, mm/min)
(inactive operation)
(finish operation: Drilling)
(begin operation: Pocket_Shape)
(machine: not set, mm/min)
(Pocket_Shape)
G0 Z16.000
G0 X5.640 Y0.640
G0 Z14.000
G1 X5.640 Y0.640 Z10.500 F120.000
G2 X5.095 Y-0.901 Z10.500 I-0.640 J-0.640 F180.000
G2 X4.905 Y0.901 Z10.500 I-0.095 J0.901 F180.000
G2 X5.640 Y0.640 Z10.500 I0.095 J-0.901 F180.000
G1 X5.640 Y0.640 Z10.000 F120.000
G2 X5.095 Y-0.901 Z10.000 I-0.640 J-0.640 F180.000
G2 X4.905 Y0.901 Z10.000 I-0.095 J0.901 F180.000
G2 X5.640 Y0.640 Z10.000 I0.095 J-0.901 F180.000
G1 X5.640 Y0.640 Z9.500 F120.000
G2 X5.095 Y-0.901 Z9.500 I-0.640 J-0.640 F180.000
G2 X4.905 Y0.901 Z9.500 I-0.095 J0.901 F180.000
G2 X5.640 Y0.640 Z9.500 I0.095 J-0.901 F180.000
G1 X5.640 Y0.640 Z9.000 F120.000
G2 X5.095 Y-0.901 Z9.000 I-0.640 J-0.640 F180.000
G2 X4.905 Y0.901 Z9.000 I-0.095 J0.901 F180.000
G2 X5.640 Y0.640 Z9.000 I0.095 J-0.901 F180.000
G1 X5.640 Y0.640 Z8.500 F120.000
G2 X5.095 Y-0.901 Z8.500 I-0.640 J-0.640 F180.000
G2 X4.905 Y0.901 Z8.500 I-0.095 J0.901 F180.000
G2 X5.640 Y0.640 Z8.500 I0.095 J-0.901 F180.000
G0 Z16.000
G0 X-4.289 Y0.711
G0 Z14.000
G1 X-4.289 Y0.711 Z10.500 F120.000
G2 X-3.994 Y0.000 Z10.500 I-0.711 J-0.711 F180.000
G2 X-6.006 Y0.000 Z10.500 I-1.006 J0.000 F180.000
G2 X-4.289 Y0.711 Z10.500 I1.006 J-0.000 F180.000
G1 X-4.289 Y0.711 Z10.000 F120.000
G2 X-3.994 Y0.000 Z10.000 I-0.711 J-0.711 F180.000
G2 X-6.006 Y0.000 Z10.000 I-1.006 J0.000 F180.000
G2 X-4.289 Y0.711 Z10.000 I1.006 J-0.000 F180.000
G1 X-4.289 Y0.711 Z9.500 F120.000
G2 X-3.994 Y0.000 Z9.500 I-0.711 J-0.711 F180.000
G2 X-6.006 Y0.000 Z9.500 I-1.006 J0.000 F180.000
G2 X-4.289 Y0.711 Z9.500 I1.006 J-0.000 F180.000
G1 X-4.289 Y0.711 Z9.000 F120.000
G2 X-3.994 Y0.000 Z9.000 I-0.711 J-0.711 F180.000
G2 X-6.006 Y0.000 Z9.000 I-1.006 J0.000 F180.000
G2 X-4.289 Y0.711 Z9.000 I1.006 J-0.000 F180.000
G1 X-4.289 Y0.711 Z8.500 F120.000
G2 X-3.994 Y0.000 Z8.500 I-0.711 J-0.711 F180.000
G2 X-6.006 Y0.000 Z8.500 I-1.006 J0.000 F180.000
G2 X-4.289 Y0.711 Z8.500 I1.006 J-0.000 F180.000
G0 Z16.000
(finish operation: Pocket_Shape)
(begin postamble)
M05
G17 G54 G90 G80 G40
M2
