(Exported by FreeCAD)
(Post Processor: linuxcnc_post)
(Output Time:2019-04-23 16:09:21.274889)
(begin preamble)
G17 G54 G40 G49 G80 G90
G21
(begin operation: T3: 063 End Mill)
(machine: not set, mm/min)
(T3: 063 End Mill)
M6 T1
M3 S24000
G4 P5
(finish operation: T3: 063 End Mill)
(begin operation: Drilling)
(machine: not set, mm/min)
(Drilling)
(Begin Drilling)
G0 Z16.000
G90
G98
G81 X0.000 Y-4.000 Z8.000 F60.000 R10.000
G81 X5.000 Y-7.000 Z8.000 F60.000 R10.000
G81 X10.607 Y-10.607 Z8.000 F60.000 R10.000
G81 X10.000 Y0.000 Z8.000 F60.000 R10.000
G81 X15.000 Y-0.000 Z8.000 F60.000 R10.000
G81 X10.607 Y10.607 Z8.000 F60.000 R10.000
G81 X5.000 Y8.000 Z8.000 F60.000 R10.000
G81 X0.000 Y4.000 Z8.000 F60.000 R10.000
G81 X-5.000 Y8.000 Z8.000 F60.000 R10.000
G81 X-10.607 Y10.607 Z8.000 F60.000 R10.000
G81 X-10.000 Y0.000 Z8.000 F60.000 R10.000
G81 X-15.000 Y0.000 Z8.000 F60.000 R10.000
G81 X-10.607 Y-10.607 Z8.000 F60.000 R10.000
G81 X-5.000 Y-7.000 Z8.000 F60.000 R10.000
G81 X-0.000 Y-15.000 Z8.000 F60.000 R10.000
G81 X0.000 Y15.000 Z8.000 F60.000 R10.000
G80
G0 Z16.000
(finish operation: Drilling)
(begin operation: Pocket_Shape)
(machine: not set, mm/min)
(Pocket_Shape)
G0 Z16.000
G0 X-4.445 Y0.555
G0 Z14.000
G1 X-4.445 Y0.555 Z10.500 F60.000
G2 X-4.215 Y0.000 Z10.500 I-0.555 J-0.555 F180.000
G2 X-5.785 Y0.000 Z10.500 I-0.785 J0.000 F180.000
G2 X-4.445 Y0.555 Z10.500 I0.785 J-0.000 F180.000
G1 X-4.445 Y0.555 Z10.000 F60.000
G2 X-4.215 Y0.000 Z10.000 I-0.555 J-0.555 F180.000
G2 X-5.785 Y0.000 Z10.000 I-0.785 J0.000 F180.000
G2 X-4.445 Y0.555 Z10.000 I0.785 J-0.000 F180.000
G1 X-4.445 Y0.555 Z9.500 F60.000
G2 X-4.215 Y0.000 Z9.500 I-0.555 J-0.555 F180.000
G2 X-5.785 Y0.000 Z9.500 I-0.785 J0.000 F180.000
G2 X-4.445 Y0.555 Z9.500 I0.785 J-0.000 F180.000
G1 X-4.445 Y0.555 Z9.000 F60.000
G2 X-4.215 Y0.000 Z9.000 I-0.555 J-0.555 F180.000
G2 X-5.785 Y0.000 Z9.000 I-0.785 J0.000 F180.000
G2 X-4.445 Y0.555 Z9.000 I0.785 J-0.000 F180.000
G1 X-4.445 Y0.555 Z8.500 F60.000
G2 X-4.215 Y0.000 Z8.500 I-0.555 J-0.555 F180.000
G2 X-5.785 Y0.000 Z8.500 I-0.785 J0.000 F180.000
G2 X-4.445 Y0.555 Z8.500 I0.785 J-0.000 F180.000
G0 Z16.000
G0 X5.555 Y0.555
G0 Z14.000
G1 X5.555 Y0.555 Z10.500 F60.000
G2 X5.000 Y-0.785 Z10.500 I-0.555 J-0.555 F180.000
G2 X5.000 Y0.785 Z10.500 I0.000 J0.785 F180.000
G2 X5.555 Y0.555 Z10.500 I0.000 J-0.785 F180.000
G1 X5.555 Y0.555 Z10.000 F60.000
G2 X5.000 Y-0.785 Z10.000 I-0.555 J-0.555 F180.000
G2 X5.000 Y0.785 Z10.000 I0.000 J0.785 F180.000
G2 X5.555 Y0.555 Z10.000 I0.000 J-0.785 F180.000
G1 X5.555 Y0.555 Z9.500 F60.000
G2 X5.000 Y-0.785 Z9.500 I-0.555 J-0.555 F180.000
G2 X5.000 Y0.785 Z9.500 I0.000 J0.785 F180.000
G2 X5.555 Y0.555 Z9.500 I0.000 J-0.785 F180.000
G1 X5.555 Y0.555 Z9.000 F60.000
G2 X5.000 Y-0.785 Z9.000 I-0.555 J-0.555 F180.000
G2 X5.000 Y0.785 Z9.000 I0.000 J0.785 F180.000
G2 X5.555 Y0.555 Z9.000 I0.000 J-0.785 F180.000
G1 X5.555 Y0.555 Z8.500 F60.000
G2 X5.000 Y-0.785 Z8.500 I-0.555 J-0.555 F180.000
G2 X5.000 Y0.785 Z8.500 I0.000 J0.785 F180.000
G2 X5.555 Y0.555 Z8.500 I0.000 J-0.785 F180.000
G0 Z16.000
(finish operation: Pocket_Shape)
(begin postamble)
M05
G17 G54 G90 G80 G40
M2
