(Exported by FreeCAD)
(Post Processor: linuxcnc_post)
(Output Time:2019-04-23 20:07:46.297948)
(begin preamble)
G17 G54 G40 G49 G80 G90
G21
(begin operation: T3: 063 End Mill)
(machine: not set, mm/min)
(T3: 063 End Mill)
M6 T1
M3 S24000
G4 P10
(finish operation: T3: 063 End Mill)
(begin operation: Pocket_Shape)
(machine: not set, mm/min)
(Pocket_Shape)
G0 Z7.700
G0 X0.534 Y-6.466
G0 Z5.700
G1 X0.534 Y-6.466 Z2.200 F60.000
G2 X0.590 Y-7.471 Z2.200 I-0.534 J-0.534 F180.000
G2 X-0.590 Y-6.529 Z2.200 I-0.590 J0.471 F180.000
G2 X0.534 Y-6.466 Z2.200 I0.590 J-0.471 F180.000
G1 X0.534 Y-6.466 Z1.700 F60.000
G2 X0.590 Y-7.471 Z1.700 I-0.534 J-0.534 F180.000
G2 X-0.590 Y-6.529 Z1.700 I-0.590 J0.471 F180.000
G2 X0.534 Y-6.466 Z1.700 I0.590 J-0.471 F180.000
G1 X0.534 Y-6.466 Z1.200 F60.000
G2 X0.590 Y-7.471 Z1.200 I-0.534 J-0.534 F180.000
G2 X-0.590 Y-6.529 Z1.200 I-0.590 J0.471 F180.000
G2 X0.534 Y-6.466 Z1.200 I0.590 J-0.471 F180.000
G1 X0.534 Y-6.466 Z0.700 F60.000
G2 X0.590 Y-7.471 Z0.700 I-0.534 J-0.534 F180.000
G2 X-0.590 Y-6.529 Z0.700 I-0.590 J0.471 F180.000
G2 X0.534 Y-6.466 Z0.700 I0.590 J-0.471 F180.000
G1 X0.534 Y-6.466 Z0.200 F60.000
G2 X0.590 Y-7.471 Z0.200 I-0.534 J-0.534 F180.000
G2 X-0.590 Y-6.529 Z0.200 I-0.590 J0.471 F180.000
G2 X0.534 Y-6.466 Z0.200 I0.590 J-0.471 F180.000
G1 X0.534 Y-6.466 Z-0.300 F60.000
G2 X0.590 Y-7.471 Z-0.300 I-0.534 J-0.534 F180.000
G2 X-0.590 Y-6.529 Z-0.300 I-0.590 J0.471 F180.000
G2 X0.534 Y-6.466 Z-0.300 I0.590 J-0.471 F180.000
G1 X0.534 Y-6.466 Z-0.800 F60.000
G2 X0.590 Y-7.471 Z-0.800 I-0.534 J-0.534 F180.000
G2 X-0.590 Y-6.529 Z-0.800 I-0.590 J0.471 F180.000
G2 X0.534 Y-6.466 Z-0.800 I0.590 J-0.471 F180.000
G1 X0.534 Y-6.466 Z-1.000 F60.000
G2 X0.590 Y-7.471 Z-1.000 I-0.534 J-0.534 F180.000
G2 X-0.590 Y-6.529 Z-1.000 I-0.590 J0.471 F180.000
G2 X0.534 Y-6.466 Z-1.000 I0.590 J-0.471 F180.000
G0 Z7.700
G0 X0.144 Y0.144
G0 Z5.700
G1 X0.144 Y0.144 Z2.200 F60.000
G2 X0.176 Y-0.102 Z2.200 I-0.144 J-0.144 F180.000
G2 X-0.176 Y0.102 Z2.200 I-0.176 J0.102 F180.000
G2 X0.144 Y0.144 Z2.200 I0.176 J-0.102 F180.000
G1 X0.144 Y0.144 Z1.700 F60.000
G2 X0.176 Y-0.102 Z1.700 I-0.144 J-0.144 F180.000
G2 X-0.176 Y0.102 Z1.700 I-0.176 J0.102 F180.000
G2 X0.144 Y0.144 Z1.700 I0.176 J-0.102 F180.000
G1 X0.144 Y0.144 Z1.200 F60.000
G2 X0.176 Y-0.102 Z1.200 I-0.144 J-0.144 F180.000
G2 X-0.176 Y0.102 Z1.200 I-0.176 J0.102 F180.000
G2 X0.144 Y0.144 Z1.200 I0.176 J-0.102 F180.000
G1 X0.144 Y0.144 Z0.700 F60.000
G2 X0.176 Y-0.102 Z0.700 I-0.144 J-0.144 F180.000
G2 X-0.176 Y0.102 Z0.700 I-0.176 J0.102 F180.000
G2 X0.144 Y0.144 Z0.700 I0.176 J-0.102 F180.000
G1 X0.144 Y0.144 Z0.200 F60.000
G2 X0.176 Y-0.102 Z0.200 I-0.144 J-0.144 F180.000
G2 X-0.176 Y0.102 Z0.200 I-0.176 J0.102 F180.000
G2 X0.144 Y0.144 Z0.200 I0.176 J-0.102 F180.000
G1 X0.144 Y0.144 Z-0.300 F60.000
G2 X0.176 Y-0.102 Z-0.300 I-0.144 J-0.144 F180.000
G2 X-0.176 Y0.102 Z-0.300 I-0.176 J0.102 F180.000
G2 X0.144 Y0.144 Z-0.300 I0.176 J-0.102 F180.000
G1 X0.144 Y0.144 Z-0.800 F60.000
G2 X0.176 Y-0.102 Z-0.800 I-0.144 J-0.144 F180.000
G2 X-0.176 Y0.102 Z-0.800 I-0.176 J0.102 F180.000
G2 X0.144 Y0.144 Z-0.800 I0.176 J-0.102 F180.000
G1 X0.144 Y0.144 Z-1.000 F60.000
G2 X0.176 Y-0.102 Z-1.000 I-0.144 J-0.144 F180.000
G2 X-0.176 Y0.102 Z-1.000 I-0.176 J0.102 F180.000
G2 X0.144 Y0.144 Z-1.000 I0.176 J-0.102 F180.000
G0 Z7.700
G0 X0.534 Y8.534
G0 Z5.700
G1 X0.534 Y8.534 Z2.200 F60.000
G2 X0.590 Y7.529 Z2.200 I-0.534 J-0.534 F180.000
G2 X-0.590 Y8.471 Z2.200 I-0.590 J0.471 F180.000
G2 X0.534 Y8.534 Z2.200 I0.590 J-0.471 F180.000
G1 X0.534 Y8.534 Z1.700 F60.000
G2 X0.590 Y7.529 Z1.700 I-0.534 J-0.534 F180.000
G2 X-0.590 Y8.471 Z1.700 I-0.590 J0.471 F180.000
G2 X0.534 Y8.534 Z1.700 I0.590 J-0.471 F180.000
G1 X0.534 Y8.534 Z1.200 F60.000
G2 X0.590 Y7.529 Z1.200 I-0.534 J-0.534 F180.000
G2 X-0.590 Y8.471 Z1.200 I-0.590 J0.471 F180.000
G2 X0.534 Y8.534 Z1.200 I0.590 J-0.471 F180.000
G1 X0.534 Y8.534 Z0.700 F60.000
G2 X0.590 Y7.529 Z0.700 I-0.534 J-0.534 F180.000
G2 X-0.590 Y8.471 Z0.700 I-0.590 J0.471 F180.000
G2 X0.534 Y8.534 Z0.700 I0.590 J-0.471 F180.000
G1 X0.534 Y8.534 Z0.200 F60.000
G2 X0.590 Y7.529 Z0.200 I-0.534 J-0.534 F180.000
G2 X-0.590 Y8.471 Z0.200 I-0.590 J0.471 F180.000
G2 X0.534 Y8.534 Z0.200 I0.590 J-0.471 F180.000
G1 X0.534 Y8.534 Z-0.300 F60.000
G2 X0.590 Y7.529 Z-0.300 I-0.534 J-0.534 F180.000
G2 X-0.590 Y8.471 Z-0.300 I-0.590 J0.471 F180.000
G2 X0.534 Y8.534 Z-0.300 I0.590 J-0.471 F180.000
G1 X0.534 Y8.534 Z-0.800 F60.000
G2 X0.590 Y7.529 Z-0.800 I-0.534 J-0.534 F180.000
G2 X-0.590 Y8.471 Z-0.800 I-0.590 J0.471 F180.000
G2 X0.534 Y8.534 Z-0.800 I0.590 J-0.471 F180.000
G1 X0.534 Y8.534 Z-1.000 F60.000
G2 X0.590 Y7.529 Z-1.000 I-0.534 J-0.534 F180.000
G2 X-0.590 Y8.471 Z-1.000 I-0.590 J0.471 F180.000
G2 X0.534 Y8.534 Z-1.000 I0.590 J-0.471 F180.000
G0 Z7.700
(finish operation: Pocket_Shape)
(begin operation: Contour001)
(machine: not set, mm/min)
(Contour001)
(Compensated Tool Path. Diameter: 1.58)
G0 Z7.700
G0 X2.675 Y10.681
G0 Z5.700
G1 X2.675 Y10.681 Z2.200 F60.000
G2 X3.290 Y6.142 Z2.200 I-2.676 J-2.673 F180.000
G1 X3.290 Y-5.136 Z2.200 F180.000
G2 X1.260 Y-10.572 Z2.200 I-3.282 J-1.872 F180.000
G2 X-3.290 Y-5.144 Z2.200 I-1.263 J3.563 F180.000
G1 X-3.290 Y6.137 Z2.200 F180.000
G2 X-3.037 Y10.264 Z2.200 I3.267 J1.871 F180.000
G2 X2.675 Y10.681 Z2.200 I3.036 J-2.257 F180.000
G1 X2.675 Y10.681 Z1.700 F60.000
G2 X3.290 Y6.142 Z1.700 I-2.676 J-2.673 F180.000
G1 X3.290 Y-5.136 Z1.700 F180.000
G2 X1.260 Y-10.572 Z1.700 I-3.282 J-1.872 F180.000
G2 X-3.290 Y-5.144 Z1.700 I-1.263 J3.563 F180.000
G1 X-3.290 Y6.137 Z1.700 F180.000
G2 X-3.037 Y10.264 Z1.700 I3.267 J1.871 F180.000
G2 X2.675 Y10.681 Z1.700 I3.036 J-2.257 F180.000
G1 X2.675 Y10.681 Z1.200 F60.000
G2 X3.290 Y6.142 Z1.200 I-2.676 J-2.673 F180.000
G1 X3.290 Y-5.136 Z1.200 F180.000
G2 X1.260 Y-10.572 Z1.200 I-3.282 J-1.872 F180.000
G2 X-3.290 Y-5.144 Z1.200 I-1.263 J3.563 F180.000
G1 X-3.290 Y6.137 Z1.200 F180.000
G2 X-3.037 Y10.264 Z1.200 I3.267 J1.871 F180.000
G2 X2.675 Y10.681 Z1.200 I3.036 J-2.257 F180.000
G1 X2.675 Y10.681 Z0.700 F60.000
G2 X3.290 Y6.142 Z0.700 I-2.676 J-2.673 F180.000
G1 X3.290 Y-5.136 Z0.700 F180.000
G2 X1.260 Y-10.572 Z0.700 I-3.282 J-1.872 F180.000
G2 X-3.290 Y-5.144 Z0.700 I-1.263 J3.563 F180.000
G1 X-3.290 Y6.137 Z0.700 F180.000
G2 X-3.037 Y10.264 Z0.700 I3.267 J1.871 F180.000
G2 X2.675 Y10.681 Z0.700 I3.036 J-2.257 F180.000
G1 X2.675 Y10.681 Z0.200 F60.000
G2 X3.290 Y6.142 Z0.200 I-2.676 J-2.673 F180.000
G1 X3.290 Y-5.136 Z0.200 F180.000
G2 X1.260 Y-10.572 Z0.200 I-3.282 J-1.872 F180.000
G2 X-3.290 Y-5.144 Z0.200 I-1.263 J3.563 F180.000
G1 X-3.290 Y6.137 Z0.200 F180.000
G2 X-3.037 Y10.264 Z0.200 I3.267 J1.871 F180.000
G2 X2.675 Y10.681 Z0.200 I3.036 J-2.257 F180.000
G1 X2.675 Y10.681 Z-0.300 F60.000
G2 X3.290 Y6.142 Z-0.300 I-2.676 J-2.673 F180.000
G1 X3.290 Y-5.136 Z-0.300 F180.000
G2 X1.260 Y-10.572 Z-0.300 I-3.282 J-1.872 F180.000
G2 X-3.290 Y-5.144 Z-0.300 I-1.263 J3.563 F180.000
G1 X-3.290 Y6.137 Z-0.300 F180.000
G2 X-3.037 Y10.264 Z-0.300 I3.267 J1.871 F180.000
G2 X2.675 Y10.681 Z-0.300 I3.036 J-2.257 F180.000
G1 X2.675 Y10.681 Z-0.800 F60.000
G2 X3.290 Y6.142 Z-0.800 I-2.676 J-2.673 F180.000
G1 X3.290 Y-5.136 Z-0.800 F180.000
G2 X1.260 Y-10.572 Z-0.800 I-3.282 J-1.872 F180.000
G2 X-3.290 Y-5.144 Z-0.800 I-1.263 J3.563 F180.000
G1 X-3.290 Y6.137 Z-0.800 F180.000
G2 X-3.037 Y10.264 Z-0.800 I3.267 J1.871 F180.000
G2 X2.675 Y10.681 Z-0.800 I3.036 J-2.257 F180.000
G1 X2.675 Y10.681 Z-1.000 F60.000
G2 X3.290 Y6.142 Z-1.000 I-2.676 J-2.673 F180.000
G1 X3.290 Y-5.136 Z-1.000 F180.000
G2 X1.260 Y-10.572 Z-1.000 I-3.282 J-1.872 F180.000
G2 X-3.290 Y-5.144 Z-1.000 I-1.263 J3.563 F180.000
G1 X-3.290 Y6.137 Z-1.000 F180.000
G2 X-3.037 Y10.264 Z-1.000 I3.267 J1.871 F180.000
G2 X2.675 Y10.681 Z-1.000 I3.036 J-2.257 F180.000
G0 Z7.700
(finish operation: Contour001)
(begin postamble)
M05
G17 G54 G90 G80 G40
M2
