(.../Programs/eagle-7.6.0/ulp/pcb-gcode.ulp)
(Copyright 2005 - 2012 by John Johnson)
(See readme.txt for licensing terms.)
(This file generated from the board:)
(.../arthurdent/eagle/Royer/royer.brd)
(Current profile is .../eagle-7.6.0/ulp/profiles/emc.pp  )
(This file generated 2/10/18 1:49 PM)
(Settings from pcb-machine.h)
(spindle on time = 3.0000)
(  Tool Size)
(0.1778 )
(spindle speed = 24000.0000)
(tool change at 0.0000 0.0000 25.4000 )
(feed rate xy = F800.00 )
(feed rate z  = F254.00 )
(Z Axis Settings)
(  High     Up        Down     Drill)
(2.5400 	2.5400 	-0.1778 	-0.8128 )
(Settings from pcb-defaults.h)
(isolate min = 0.0254)
(isolate max = 0.5080)
(isolate step = 0.1270)
(Generated bottom outlines, bottom drill, )
(Unit of measure: mm)
(Metric Mode)
G21
(Absolute Coordinates)
G90
S24000
G00 Z2.5400 
G00 X0.0000 Y0.0000 
M03
G04 P3.000000
G00 X8.9522 Y8.4622 
G01 Z-0.1778 F254.00 
G01 X13.3356 Y4.0788 F800.00 
G01 X13.5676 Y3.8468 
G01 X13.8213 Y3.6386 
G01 X14.0942 Y3.4562 
G01 X14.3836 Y3.3015 
G01 X14.6868 Y3.1760 
G01 X15.0008 Y3.0807 
G01 X15.3227 Y3.0167 
G01 X15.6493 Y2.9845 
G01 X20.6600 Y2.9845 
G01 X20.8047 Y2.8120 
G01 X21.1254 Y2.4913 
G01 X21.4729 Y2.1998 
G01 X21.8444 Y1.9396 
G01 X22.2373 Y1.7128 
G01 X22.6483 Y1.5211 
G01 X23.0746 Y1.3660 
G01 X23.5127 Y1.2486 
G01 X23.9594 Y1.1698 
G01 X24.4112 Y1.1303 
G01 X24.8648 Y1.1303 
G01 X25.3166 Y1.1698 
G01 X25.7633 Y1.2486 
G01 X26.2014 Y1.3660 
G01 X26.6277 Y1.5211 
G01 X27.0387 Y1.7128 
G01 X27.4316 Y1.9396 
G01 X27.8031 Y2.1998 
G01 X28.1506 Y2.4913 
G01 X28.4713 Y2.8120 
G01 X28.6160 Y2.9845 
G01 X33.8807 Y2.9845 
G01 X34.2073 Y3.0167 
G01 X34.5292 Y3.0807 
G01 X34.8432 Y3.1760 
G01 X35.1464 Y3.3015 
G01 X35.4358 Y3.4562 
G01 X35.7087 Y3.6386 
G01 X35.9624 Y3.8468 
G01 X40.5778 Y8.4622 
G01 X40.7860 Y8.7159 
G01 X40.9684 Y8.9888 
G01 X41.1231 Y9.2782 
G01 X41.2486 Y9.5814 
G01 X41.3439 Y9.8954 
G01 X41.4079 Y10.2173 
G01 X41.4401 Y10.5439 
G01 X41.4401 Y10.8721 
G01 X41.4079 Y11.1987 
G01 X41.3439 Y11.5206 
G01 X41.2486 Y11.8346 
G01 X41.1231 Y12.1378 
G01 X40.9684 Y12.4272 
G01 X40.7860 Y12.7001 
G01 X40.5778 Y12.9538 
G01 X40.3458 Y13.1858 
G01 X40.0921 Y13.3940 
G01 X39.8192 Y13.5764 
G01 X39.5298 Y13.7311 
G01 X39.2266 Y13.8566 
G01 X38.9126 Y13.9519 
G01 X38.5907 Y14.0159 
G01 X38.2641 Y14.0481 
G01 X37.9359 Y14.0481 
G01 X37.6093 Y14.0159 
G01 X37.2874 Y13.9519 
G01 X36.9734 Y13.8566 
G01 X36.6702 Y13.7311 
G01 X36.3808 Y13.5764 
G01 X36.1079 Y13.3940 
G01 X35.8542 Y13.1858 
G01 X32.3331 Y9.6647 
G01 X28.6160 Y9.6647 
G01 X28.4713 Y9.8372 
G01 X28.1506 Y10.1579 
G01 X27.8031 Y10.4494 
G01 X27.4316 Y10.7096 
G01 X27.0387 Y10.9364 
G01 X26.6277 Y11.1281 
G01 X26.2014 Y11.2832 
G01 X25.7633 Y11.4006 
G01 X25.3166 Y11.4794 
G01 X24.8648 Y11.5189 
G01 X24.4112 Y11.5189 
G01 X23.9594 Y11.4794 
G01 X23.5127 Y11.4006 
G01 X23.0746 Y11.2832 
G01 X22.6483 Y11.1281 
G01 X22.2373 Y10.9364 
G01 X21.8444 Y10.7096 
G01 X21.4729 Y10.4494 
G01 X21.1254 Y10.1579 
G01 X20.8047 Y9.8372 
G01 X20.6600 Y9.6647 
G01 X17.1969 Y9.6647 
G01 X13.6758 Y13.1858 
G01 X13.4221 Y13.3940 
G01 X13.1492 Y13.5764 
G01 X12.8598 Y13.7311 
G01 X12.5566 Y13.8566 
G01 X12.2426 Y13.9519 
G01 X11.9207 Y14.0159 
G01 X11.5941 Y14.0481 
G01 X11.2659 Y14.0481 
G01 X10.9393 Y14.0159 
G01 X10.6174 Y13.9519 
G01 X10.3034 Y13.8566 
G01 X10.0002 Y13.7311 
G01 X9.7108 Y13.5764 
G01 X9.4379 Y13.3940 
G01 X9.1842 Y13.1858 
G01 X8.9522 Y12.9538 
G01 X8.7440 Y12.7001 
G01 X8.5616 Y12.4272 
G01 X8.4069 Y12.1378 
G01 X8.2814 Y11.8346 
G01 X8.1861 Y11.5206 
G01 X8.1221 Y11.1987 
G01 X8.0899 Y10.8721 
G01 X8.0899 Y10.5439 
G01 X8.1221 Y10.2173 
G01 X8.1861 Y9.8954 
G01 X8.2814 Y9.5814 
G01 X8.4069 Y9.2782 
G01 X8.5616 Y8.9888 
G01 X8.7440 Y8.7159 
G01 X8.9522 Y8.4622 
G00 Z2.5400 
G00 X9.9554 Y14.3413 
G01 Z-0.1778 F254.00 
G01 X10.0233 Y14.2734 F800.00 
G01 X10.1120 Y14.2367 
G01 X10.5670 Y14.2367 
G01 X10.5989 Y14.2325 
G01 X10.6146 Y14.2367 
G01 X10.6309 Y14.2367 
G01 X10.6606 Y14.2490 
G01 X10.9535 Y14.3275 
G01 X11.9065 Y14.3275 
G01 X12.1994 Y14.2490 
G01 X12.2291 Y14.2367 
G01 X12.2454 Y14.2367 
G01 X12.2610 Y14.2325 
G01 X12.2930 Y14.2367 
G01 X37.2370 Y14.2367 
G01 X37.2689 Y14.2325 
G01 X37.2846 Y14.2367 
G01 X37.3008 Y14.2367 
G01 X37.3306 Y14.2490 
G01 X37.6235 Y14.3275 
G01 X38.5765 Y14.3275 
G01 X38.8694 Y14.2490 
G01 X38.8991 Y14.2367 
G01 X38.9154 Y14.2367 
G01 X38.9310 Y14.2325 
G01 X38.9630 Y14.2367 
G01 X39.4180 Y14.2367 
G01 X39.5067 Y14.2734 
G01 X39.5746 Y14.3413 
G01 X39.6113 Y14.4300 
G01 X39.6113 Y17.0660 
G01 X39.5746 Y17.1547 
G01 X39.5067 Y17.2226 
G01 X33.6818 Y23.0475 
G01 X33.6139 Y23.1154 
G01 X33.5252 Y23.1521 
G01 X33.2676 Y23.1521 
G01 X33.2164 Y23.1309 
G01 X33.1790 Y23.1154 
G01 X33.1111 Y23.0475 
G01 X33.1052 Y23.0333 
G01 X33.0743 Y22.9588 
G01 X33.0743 Y22.8628 
G01 X33.0956 Y22.8116 
G01 X33.1111 Y22.7741 
G01 X33.1790 Y22.7062 
G01 X33.1998 Y22.6854 
G01 X33.2832 Y22.5706 
G01 X33.3363 Y22.4663 
G01 X33.3079 Y22.4663 
G01 X33.2886 Y22.5131 
G01 X33.1927 Y22.6566 
G01 X33.0706 Y22.7787 
G01 X32.9271 Y22.8746 
G01 X32.7676 Y22.9406 
G01 X32.5983 Y22.9743 
G01 X30.9017 Y22.9743 
G01 X30.7324 Y22.9406 
G01 X30.5729 Y22.8746 
G01 X30.4294 Y22.7787 
G01 X30.3073 Y22.6566 
G01 X30.2114 Y22.5131 
G01 X30.1921 Y22.4663 
G01 X30.1637 Y22.4663 
G01 X30.2168 Y22.5706 
G01 X30.3002 Y22.6854 
G01 X30.4006 Y22.7858 
G01 X30.5154 Y22.8692 
G01 X30.6419 Y22.9336 
G01 X30.7637 Y22.9732 
G01 X30.7789 Y22.9732 
G01 X30.7968 Y22.9806 
G01 X30.8160 Y22.9837 
G01 X30.8387 Y22.9976 
G01 X30.8419 Y22.9993 
G01 X30.8675 Y23.0099 
G01 X30.8813 Y23.0237 
G01 X30.8978 Y23.0338 
G01 X30.9149 Y23.0573 
G01 X30.9354 Y23.0778 
G01 X30.9428 Y23.0958 
G01 X30.9543 Y23.1115 
G01 X30.9610 Y23.1397 
G01 X30.9722 Y23.1665 
G01 X30.9722 Y23.1859 
G01 X30.9767 Y23.2048 
G01 X30.9722 Y23.2335 
G01 X30.9722 Y23.2625 
G01 X30.9647 Y23.2804 
G01 X30.9617 Y23.2996 
G01 X30.9465 Y23.3244 
G01 X30.9354 Y23.3512 
G01 X30.9217 Y23.3649 
G01 X30.9116 Y23.3815 
G01 X30.8881 Y23.3985 
G01 X30.8370 Y23.4496 
G01 X30.7483 Y23.4864 
G01 X30.5402 Y23.5726 
G01 X30.4996 Y23.5894 
G01 X30.4515 Y23.6093 
G01 X28.9974 Y23.6093 
G01 X28.9881 Y23.6123 
G01 X28.9497 Y23.6093 
G01 X28.9112 Y23.6093 
G01 X28.9022 Y23.6056 
G01 X28.8924 Y23.6048 
G01 X28.8581 Y23.5873 
G01 X28.8225 Y23.5726 
G01 X28.8156 Y23.5656 
G01 X28.8069 Y23.5612 
G01 X28.7819 Y23.5319 
G01 X28.7546 Y23.5047 
G01 X28.7509 Y23.4956 
G01 X28.7445 Y23.4882 
G01 X28.7326 Y23.4516 
G01 X28.7179 Y23.4160 
G01 X28.7179 Y23.4062 
G01 X28.7149 Y23.3969 
G01 X28.7179 Y23.3585 
G01 X28.7179 Y23.3200 
G01 X28.7216 Y23.3110 
G01 X28.7224 Y23.3012 
G01 X28.7399 Y23.2669 
G01 X28.7546 Y23.2313 
G01 X28.7615 Y23.2244 
G01 X28.7660 Y23.2157 
G01 X28.7953 Y23.1907 
G01 X28.8225 Y23.1634 
G01 X28.8315 Y23.1597 
G01 X28.8390 Y23.1533 
G01 X28.8756 Y23.1414 
G01 X28.9112 Y23.1267 
G01 X29.0172 Y23.0736 
G01 X29.1246 Y22.9955 
G01 X29.2185 Y22.9016 
G01 X29.2966 Y22.7942 
G01 X29.3490 Y22.6913 
G01 X29.3202 Y22.6913 
G01 X29.3002 Y22.7396 
G01 X29.2106 Y22.8736 
G01 X29.0966 Y22.9876 
G01 X28.9626 Y23.0772 
G01 X28.8137 Y23.1389 
G01 X28.6556 Y23.1703 
G01 X28.4944 Y23.1703 
G01 X28.3363 Y23.1389 
G01 X28.1874 Y23.0772 
G01 X28.0534 Y22.9876 
G01 X27.9394 Y22.8736 
G01 X27.8498 Y22.7396 
G01 X27.8298 Y22.6913 
G01 X27.8010 Y22.6913 
G01 X27.8534 Y22.7942 
G01 X27.9314 Y22.9016 
G01 X28.0254 Y22.9955 
G01 X28.1328 Y23.0736 
G01 X28.2370 Y23.1267 
G01 X28.2744 Y23.1414 
G01 X28.3110 Y23.1533 
G01 X28.3184 Y23.1597 
G01 X28.3275 Y23.1634 
G01 X28.3547 Y23.1907 
G01 X28.3840 Y23.2157 
G01 X28.3884 Y23.2244 
G01 X28.3954 Y23.2313 
G01 X28.4101 Y23.2669 
G01 X28.4276 Y23.3012 
G01 X28.4284 Y23.3110 
G01 X28.4321 Y23.3200 
G01 X28.4321 Y23.3585 
G01 X28.4351 Y23.3969 
G01 X28.4321 Y23.4062 
G01 X28.4321 Y23.4160 
G01 X28.4174 Y23.4516 
G01 X28.4055 Y23.4882 
G01 X28.3991 Y23.4956 
G01 X28.3954 Y23.5047 
G01 X28.3681 Y23.5319 
G01 X28.3431 Y23.5612 
G01 X28.3344 Y23.5656 
G01 X28.3275 Y23.5726 
G01 X28.2919 Y23.5873 
G01 X28.2576 Y23.6048 
G01 X28.2478 Y23.6056 
G01 X28.2388 Y23.6093 
G01 X28.2003 Y23.6093 
G01 X28.1619 Y23.6123 
G01 X28.1526 Y23.6093 
G01 X25.8853 Y23.6093 
G01 X25.8848 Y23.6121 
G01 X25.8269 Y23.7519 
G01 X25.7428 Y23.8778 
G01 X25.6358 Y23.9848 
G01 X25.5099 Y24.0689 
G01 X25.3701 Y24.1268 
G01 X25.2217 Y24.1563 
G01 X25.0703 Y24.1563 
G01 X24.9219 Y24.1268 
G01 X24.7821 Y24.0689 
G01 X24.6562 Y23.9848 
G01 X24.5492 Y23.8778 
G01 X24.4651 Y23.7519 
G01 X24.4072 Y23.6121 
G01 X24.4067 Y23.6093 
G01 X22.0124 Y23.6093 
G01 X22.0031 Y23.6123 
G01 X21.9647 Y23.6093 
G01 X21.9262 Y23.6093 
G01 X21.9172 Y23.6056 
G01 X21.9074 Y23.6048 
G01 X21.8731 Y23.5873 
G01 X21.8375 Y23.5726 
G01 X21.8306 Y23.5656 
G01 X21.8219 Y23.5612 
G01 X21.7969 Y23.5319 
G01 X21.7696 Y23.5047 
G01 X21.7659 Y23.4956 
G01 X21.7595 Y23.4882 
G01 X21.7476 Y23.4516 
G01 X21.7329 Y23.4160 
G01 X21.7329 Y23.4062 
G01 X21.7299 Y23.3969 
G01 X21.7329 Y23.3585 
G01 X21.7329 Y23.3200 
G01 X21.7366 Y23.3110 
G01 X21.7374 Y23.3012 
G01 X21.7549 Y23.2669 
G01 X21.7696 Y23.2313 
G01 X21.7766 Y23.2244 
G01 X21.7810 Y23.2157 
G01 X21.8103 Y23.1907 
G01 X21.8375 Y23.1634 
G01 X21.8465 Y23.1597 
G01 X21.8540 Y23.1533 
G01 X21.8906 Y23.1414 
G01 X21.9262 Y23.1267 
G01 X22.0322 Y23.0736 
G01 X22.1396 Y22.9955 
G01 X22.2335 Y22.9016 
G01 X22.3116 Y22.7942 
G01 X22.3640 Y22.6913 
G01 X22.3352 Y22.6913 
G01 X22.3152 Y22.7396 
G01 X22.2256 Y22.8736 
G01 X22.1116 Y22.9876 
G01 X21.9776 Y23.0772 
G01 X21.8287 Y23.1389 
G01 X21.6706 Y23.1703 
G01 X21.5094 Y23.1703 
G01 X21.3513 Y23.1389 
G01 X21.2024 Y23.0772 
G01 X21.0684 Y22.9876 
G01 X20.9544 Y22.8736 
G01 X20.8648 Y22.7396 
G01 X20.8448 Y22.6913 
G01 X20.8160 Y22.6913 
G01 X20.8684 Y22.7942 
G01 X20.9464 Y22.9016 
G01 X21.0404 Y22.9955 
G01 X21.1478 Y23.0736 
G01 X21.2520 Y23.1267 
G01 X21.2894 Y23.1414 
G01 X21.3260 Y23.1533 
G01 X21.3334 Y23.1597 
G01 X21.3425 Y23.1634 
G01 X21.3697 Y23.1907 
G01 X21.3990 Y23.2157 
G01 X21.4034 Y23.2244 
G01 X21.4104 Y23.2313 
G01 X21.4251 Y23.2669 
G01 X21.4426 Y23.3012 
G01 X21.4434 Y23.3110 
G01 X21.4471 Y23.3200 
G01 X21.4471 Y23.3585 
G01 X21.4501 Y23.3969 
G01 X21.4471 Y23.4062 
G01 X21.4471 Y23.4160 
G01 X21.4324 Y23.4516 
G01 X21.4205 Y23.4882 
G01 X21.4141 Y23.4956 
G01 X21.4104 Y23.5047 
G01 X21.3831 Y23.5319 
G01 X21.3581 Y23.5612 
G01 X21.3494 Y23.5656 
G01 X21.3425 Y23.5726 
G01 X21.3069 Y23.5873 
G01 X21.2726 Y23.6048 
G01 X21.2628 Y23.6056 
G01 X21.2538 Y23.6093 
G01 X21.2153 Y23.6093 
G01 X21.1769 Y23.6123 
G01 X21.1676 Y23.6093 
G01 X19.0785 Y23.6093 
G01 X19.0330 Y23.5905 
G01 X18.9898 Y23.5726 
G01 X18.7817 Y23.4864 
G01 X18.6930 Y23.4496 
G01 X18.6419 Y23.3985 
G01 X18.6184 Y23.3815 
G01 X18.6083 Y23.3649 
G01 X18.5946 Y23.3512 
G01 X18.5835 Y23.3244 
G01 X18.5683 Y23.2996 
G01 X18.5653 Y23.2804 
G01 X18.5578 Y23.2625 
G01 X18.5578 Y23.2335 
G01 X18.5533 Y23.2048 
G01 X18.5578 Y23.1859 
G01 X18.5578 Y23.1665 
G01 X18.5690 Y23.1397 
G01 X18.5757 Y23.1115 
G01 X18.5871 Y23.0958 
G01 X18.5946 Y23.0778 
G01 X18.6151 Y23.0573 
G01 X18.6322 Y23.0338 
G01 X18.6487 Y23.0237 
G01 X18.6625 Y23.0099 
G01 X18.6881 Y22.9993 
G01 X18.6913 Y22.9976 
G01 X18.7140 Y22.9837 
G01 X18.7332 Y22.9806 
G01 X18.7511 Y22.9732 
G01 X18.7663 Y22.9732 
G01 X18.8881 Y22.9336 
G01 X19.0146 Y22.8692 
G01 X19.1294 Y22.7858 
G01 X19.2298 Y22.6854 
G01 X19.3132 Y22.5706 
G01 X19.3663 Y22.4663 
G01 X19.3379 Y22.4663 
G01 X19.3186 Y22.5131 
G01 X19.2227 Y22.6566 
G01 X19.1006 Y22.7787 
G01 X18.9571 Y22.8746 
G01 X18.7976 Y22.9406 
G01 X18.6283 Y22.9743 
G01 X16.9317 Y22.9743 
G01 X16.7624 Y22.9406 
G01 X16.6029 Y22.8746 
G01 X16.4594 Y22.7787 
G01 X16.3373 Y22.6566 
G01 X16.2414 Y22.5131 
G01 X16.2221 Y22.4663 
G01 X16.1937 Y22.4663 
G01 X16.2468 Y22.5706 
G01 X16.3302 Y22.6854 
G01 X16.3510 Y22.7062 
G01 X16.4179 Y22.7731 
G01 X16.4338 Y22.8101 
G01 X16.4557 Y22.8628 
G01 X16.4557 Y22.9588 
G01 X16.4257 Y23.0312 
G01 X16.4189 Y23.0475 
G01 X16.3521 Y23.1143 
G01 X16.3150 Y23.1303 
G01 X16.2624 Y23.1521 
G01 X16.0048 Y23.1521 
G01 X15.9161 Y23.1154 
G01 X15.8482 Y23.0475 
G01 X9.9554 Y17.1547 
G01 X9.9187 Y17.0660 
G01 X9.9187 Y14.4300 
G01 X9.9554 Y14.3413 
G00 Z2.5400 
G00 X10.9129 Y15.1026 
G01 Z-0.1778 F254.00 
G01 X10.8246 Y15.1909 F800.00 
G01 X10.7512 Y15.2920 
G01 X10.6994 Y15.3937 
G01 X10.7286 Y15.3937 
G01 X10.7491 Y15.3441 
G01 X10.8332 Y15.2182 
G01 X10.9402 Y15.1112 
G01 X11.0661 Y15.0271 
G01 X11.1157 Y15.0066 
G01 X11.1157 Y14.9773 
G01 X11.0140 Y15.0292 
G01 X10.9129 Y15.1026 
G00 Z2.5400 
G00 X11.7443 Y15.0066 
G01 Z-0.1778 F254.00 
G01 X11.7939 Y15.0271 F800.00 
G01 X11.9198 Y15.1112 
G01 X12.0268 Y15.2182 
G01 X12.1109 Y15.3441 
G01 X12.1314 Y15.3937 
G01 X12.1606 Y15.3937 
G01 X12.1088 Y15.2920 
G01 X12.0354 Y15.1909 
G01 X11.9471 Y15.1026 
G01 X11.8460 Y15.0292 
G01 X11.7443 Y14.9773 
G01 X11.7443 Y15.0066 
G00 Z2.5400 
G00 X11.7443 Y16.4094 
G01 Z-0.1778 F254.00 
G01 X11.7443 Y16.4386 F800.00 
G01 X11.8460 Y16.3868 
G01 X11.9471 Y16.3134 
G01 X12.0354 Y16.2251 
G01 X12.1088 Y16.1240 
G01 X12.1606 Y16.0223 
G01 X12.1314 Y16.0223 
G01 X12.1109 Y16.0719 
G01 X12.0268 Y16.1978 
G01 X11.9198 Y16.3048 
G01 X11.7939 Y16.3889 
G01 X11.7443 Y16.4094 
G00 Z2.5400 
G00 X11.1157 Y16.4094 
G01 Z-0.1778 F254.00 
G01 X11.0661 Y16.3889 F800.00 
G01 X10.9402 Y16.3048 
G01 X10.8332 Y16.1978 
G01 X10.7491 Y16.0719 
G01 X10.7286 Y16.0223 
G01 X10.6994 Y16.0223 
G01 X10.7512 Y16.1240 
G01 X10.8246 Y16.2251 
G01 X10.9129 Y16.3134 
G01 X11.0140 Y16.3868 
G01 X11.1157 Y16.4386 
G01 X11.1157 Y16.4094 
G00 Z2.5400 
G00 X9.8626 Y20.8047 
G01 Z-0.1778 F254.00 
G01 X10.1833 Y21.1254 F800.00 
G01 X10.4748 Y21.4729 
G01 X10.7350 Y21.8444 
G01 X10.9618 Y22.2373 
G01 X11.1397 Y22.6187 
G01 X14.1024 Y22.6187 
G01 X14.3648 Y22.6532 
G01 X14.6205 Y22.7218 
G01 X14.8650 Y22.8231 
G01 X15.0943 Y22.9554 
G01 X15.3043 Y23.1166 
G01 X15.4914 Y23.3037 
G01 X15.5895 Y23.4315 
G01 X17.8750 Y23.4315 
G01 X18.0625 Y23.4612 
G01 X18.2431 Y23.5199 
G01 X18.4123 Y23.6061 
G01 X18.5660 Y23.7177 
G01 X18.6100 Y23.7617 
G01 X18.6283 Y23.7617 
G01 X18.7976 Y23.7954 
G01 X18.9571 Y23.8614 
G01 X19.1006 Y23.9573 
G01 X19.2227 Y24.0794 
G01 X19.3186 Y24.2229 
G01 X19.3846 Y24.3824 
G01 X19.4183 Y24.5517 
G01 X19.4183 Y24.7243 
G01 X19.3846 Y24.8936 
G01 X19.3186 Y25.0531 
G01 X19.2227 Y25.1966 
G01 X19.1006 Y25.3187 
G01 X18.9571 Y25.4146 
G01 X18.7976 Y25.4806 
G01 X18.6283 Y25.5143 
G01 X18.6100 Y25.5143 
G01 X18.5660 Y25.5583 
G01 X18.4123 Y25.6699 
G01 X18.2431 Y25.7561 
G01 X18.0625 Y25.8148 
G01 X17.8750 Y25.8445 
G01 X15.5895 Y25.8445 
G01 X15.4914 Y25.9723 
G01 X15.3043 Y26.1594 
G01 X15.1765 Y26.2575 
G01 X15.1765 Y33.6230 
G01 X15.1468 Y33.8105 
G01 X15.0881 Y33.9911 
G01 X15.0019 Y34.1603 
G01 X14.8903 Y34.3140 
G01 X14.8463 Y34.3580 
G01 X14.8463 Y34.3763 
G01 X14.8126 Y34.5456 
G01 X14.7466 Y34.7051 
G01 X14.6507 Y34.8486 
G01 X14.5286 Y34.9707 
G01 X14.3851 Y35.0666 
G01 X14.2256 Y35.1326 
G01 X14.0563 Y35.1663 
G01 X13.8837 Y35.1663 
G01 X13.7144 Y35.1326 
G01 X13.5549 Y35.0666 
G01 X13.4114 Y34.9707 
G01 X13.2893 Y34.8486 
G01 X13.1934 Y34.7051 
G01 X13.1274 Y34.5456 
G01 X13.0937 Y34.3763 
G01 X13.0937 Y34.3580 
G01 X13.0497 Y34.3140 
G01 X12.9381 Y34.1603 
G01 X12.8519 Y33.9911 
G01 X12.7932 Y33.8105 
G01 X12.7635 Y33.6230 
G01 X12.7635 Y26.6573 
G01 X11.1397 Y26.6573 
G01 X10.9618 Y27.0387 
G01 X10.7350 Y27.4316 
G01 X10.4748 Y27.8031 
G01 X10.1833 Y28.1506 
G01 X9.8626 Y28.4713 
G01 X9.5151 Y28.7628 
G01 X9.1436 Y29.0230 
G01 X8.7507 Y29.2498 
G01 X8.3397 Y29.4415 
G01 X7.9134 Y29.5966 
G01 X7.4753 Y29.7140 
G01 X7.0286 Y29.7928 
G01 X6.5768 Y29.8323 
G01 X6.1232 Y29.8323 
G01 X5.6714 Y29.7928 
G01 X5.2247 Y29.7140 
G01 X4.7866 Y29.5966 
G01 X4.3603 Y29.4415 
G01 X3.9493 Y29.2498 
G01 X3.5564 Y29.0230 
G01 X3.1849 Y28.7628 
G01 X2.8374 Y28.4713 
G01 X2.5167 Y28.1506 
G01 X2.2252 Y27.8031 
G01 X1.9650 Y27.4316 
G01 X1.7382 Y27.0387 
G01 X1.5465 Y26.6277 
G01 X1.3914 Y26.2014 
G01 X1.2740 Y25.7633 
G01 X1.1952 Y25.3166 
G01 X1.1557 Y24.8648 
G01 X1.1557 Y24.4112 
G01 X1.1952 Y23.9594 
G01 X1.2740 Y23.5127 
G01 X1.3914 Y23.0746 
G01 X1.5465 Y22.6483 
G01 X1.7382 Y22.2373 
G01 X1.9650 Y21.8444 
G01 X2.2252 Y21.4729 
G01 X2.5167 Y21.1254 
G01 X2.8374 Y20.8047 
G01 X3.1849 Y20.5132 
G01 X3.5564 Y20.2530 
G01 X3.9493 Y20.0262 
G01 X4.3603 Y19.8345 
G01 X4.7866 Y19.6794 
G01 X5.2247 Y19.5620 
G01 X5.6714 Y19.4832 
G01 X6.1232 Y19.4437 
G01 X6.5768 Y19.4437 
G01 X7.0286 Y19.4832 
G01 X7.4753 Y19.5620 
G01 X7.9134 Y19.6794 
G01 X8.3397 Y19.8345 
G01 X8.7507 Y20.0262 
G01 X9.1436 Y20.2530 
G01 X9.5151 Y20.5132 
G01 X9.8626 Y20.8047 
G00 Z2.5400 
G00 X16.4306 Y21.4102 
G01 Z-0.1778 F254.00 
G01 X16.3302 Y21.5106 F800.00 
G01 X16.2468 Y21.6254 
G01 X16.1937 Y21.7297 
G01 X16.2221 Y21.7297 
G01 X16.2414 Y21.6829 
G01 X16.3373 Y21.5394 
G01 X16.4594 Y21.4173 
G01 X16.6029 Y21.3214 
G01 X16.7624 Y21.2554 
G01 X16.9317 Y21.2217 
G01 X17.4117 Y21.2217 
G01 X17.4117 Y21.1963 
G01 X16.9470 Y21.1963 
G01 X16.8068 Y21.2185 
G01 X16.6719 Y21.2624 
G01 X16.5454 Y21.3268 
G01 X16.4306 Y21.4102 
G00 Z2.5400 
G00 X18.1483 Y21.2217 
G01 Z-0.1778 F254.00 
G01 X18.6283 Y21.2217 F800.00 
G01 X18.7976 Y21.2554 
G01 X18.9571 Y21.3214 
G01 X19.1006 Y21.4173 
G01 X19.2227 Y21.5394 
G01 X19.3186 Y21.6829 
G01 X19.3379 Y21.7297 
G01 X19.3663 Y21.7297 
G01 X19.3132 Y21.6254 
G01 X19.2298 Y21.5106 
G01 X19.1294 Y21.4102 
G01 X19.0146 Y21.3268 
G01 X18.8881 Y21.2624 
G01 X18.7532 Y21.2185 
G01 X18.6130 Y21.1963 
G01 X18.1483 Y21.1963 
G01 X18.1483 Y21.2217 
G00 Z2.5400 
G00 X21.0404 Y21.7084 
G01 Z-0.1778 F254.00 
G01 X20.9464 Y21.8024 F800.00 
G01 X20.8684 Y21.9098 
G01 X20.8160 Y22.0127 
G01 X20.8448 Y22.0127 
G01 X20.8648 Y21.9644 
G01 X20.9544 Y21.8304 
G01 X21.0684 Y21.7164 
G01 X21.2024 Y21.6268 
G01 X21.2507 Y21.6068 
G01 X21.2507 Y21.5780 
G01 X21.1478 Y21.6304 
G01 X21.0404 Y21.7084 
G00 Z2.5400 
G00 X21.9293 Y21.6068 
G01 Z-0.1778 F254.00 
G01 X21.9776 Y21.6268 F800.00 
G01 X22.1116 Y21.7164 
G01 X22.2256 Y21.8304 
G01 X22.3152 Y21.9644 
G01 X22.3352 Y22.0127 
G01 X22.3640 Y22.0127 
G01 X22.3116 Y21.9098 
G01 X22.2335 Y21.8024 
G01 X22.1396 Y21.7084 
G01 X22.0322 Y21.6304 
G01 X21.9293 Y21.5780 
G01 X21.9293 Y21.6068 
G00 Z2.5400 
G00 X24.6289 Y22.7826 
G01 Z-0.1778 F254.00 
G01 X24.5406 Y22.8709 F800.00 
G01 X24.4672 Y22.9720 
G01 X24.4154 Y23.0737 
G01 X24.4446 Y23.0737 
G01 X24.4651 Y23.0241 
G01 X24.5492 Y22.8982 
G01 X24.6562 Y22.7912 
G01 X24.7821 Y22.7071 
G01 X24.8317 Y22.6866 
G01 X24.8317 Y22.6574 
G01 X24.7300 Y22.7092 
G01 X24.6289 Y22.7826 
G00 Z2.5400 
G00 X25.4603 Y22.6866 
G01 Z-0.1778 F254.00 
G01 X25.5099 Y22.7071 F800.00 
G01 X25.6358 Y22.7912 
G01 X25.7428 Y22.8982 
G01 X25.8269 Y23.0241 
G01 X25.8474 Y23.0737 
G01 X25.8766 Y23.0737 
G01 X25.8248 Y22.9720 
G01 X25.7514 Y22.8709 
G01 X25.6631 Y22.7826 
G01 X25.5620 Y22.7092 
G01 X25.4603 Y22.6574 
G01 X25.4603 Y22.6866 
G00 Z2.5400 
G00 X25.4285 Y24.7112 
G01 Z-0.1778 F254.00 
G01 X25.6091 Y24.7699 F800.00 
G01 X25.7783 Y24.8561 
G01 X25.9320 Y24.9677 
G01 X26.0663 Y25.1020 
G01 X26.1779 Y25.2557 
G01 X26.2641 Y25.4249 
G01 X26.3228 Y25.6055 
G01 X26.3525 Y25.7930 
G01 X26.3525 Y31.6865 
G01 X32.8981 Y31.6865 
G01 X32.9743 Y31.5724 
G01 X33.0964 Y31.4503 
G01 X33.2399 Y31.3544 
G01 X33.3994 Y31.2884 
G01 X33.5687 Y31.2547 
G01 X33.7413 Y31.2547 
G01 X33.9106 Y31.2884 
G01 X34.0701 Y31.3544 
G01 X34.2136 Y31.4503 
G01 X34.3357 Y31.5724 
G01 X34.4316 Y31.7159 
G01 X34.4976 Y31.8754 
G01 X34.5313 Y32.0447 
G01 X34.5313 Y32.0630 
G01 X34.5753 Y32.1070 
G01 X34.6869 Y32.2607 
G01 X34.7731 Y32.4299 
G01 X34.8318 Y32.6105 
G01 X34.8615 Y32.7980 
G01 X34.8615 Y32.9880 
G01 X34.8318 Y33.1755 
G01 X34.7731 Y33.3561 
G01 X34.6869 Y33.5253 
G01 X34.5753 Y33.6790 
G01 X34.5313 Y33.7229 
G01 X34.5313 Y33.7413 
G01 X34.4976 Y33.9106 
G01 X34.4316 Y34.0701 
G01 X34.3357 Y34.2136 
G01 X34.2136 Y34.3357 
G01 X34.0701 Y34.4316 
G01 X33.9106 Y34.4976 
G01 X33.7413 Y34.5313 
G01 X33.5687 Y34.5313 
G01 X33.3994 Y34.4976 
G01 X33.2399 Y34.4316 
G01 X33.0964 Y34.3357 
G01 X32.9743 Y34.2136 
G01 X32.8981 Y34.0995 
G01 X17.6447 Y34.0995 
G01 X17.3863 Y34.3580 
G01 X17.3863 Y34.3763 
G01 X17.3526 Y34.5456 
G01 X17.2866 Y34.7051 
G01 X17.1907 Y34.8486 
G01 X17.0686 Y34.9707 
G01 X16.9251 Y35.0666 
G01 X16.7656 Y35.1326 
G01 X16.5963 Y35.1663 
G01 X16.4237 Y35.1663 
G01 X16.2544 Y35.1326 
G01 X16.0949 Y35.0666 
G01 X15.9514 Y34.9707 
G01 X15.8293 Y34.8486 
G01 X15.7334 Y34.7051 
G01 X15.6674 Y34.5456 
G01 X15.6337 Y34.3763 
G01 X15.6337 Y34.3580 
G01 X15.5897 Y34.3140 
G01 X15.4781 Y34.1603 
G01 X15.3919 Y33.9911 
G01 X15.3332 Y33.8105 
G01 X15.3035 Y33.6230 
G01 X15.3035 Y33.4330 
G01 X15.3332 Y33.2455 
G01 X15.3919 Y33.0649 
G01 X15.4781 Y32.8957 
G01 X15.5897 Y32.7420 
G01 X15.6337 Y32.6980 
G01 X15.6337 Y32.6797 
G01 X15.6674 Y32.5104 
G01 X15.7334 Y32.3509 
G01 X15.8293 Y32.2074 
G01 X15.9514 Y32.0853 
G01 X16.0949 Y31.9894 
G01 X16.2544 Y31.9234 
G01 X16.4237 Y31.8897 
G01 X16.4733 Y31.8897 
G01 X16.5127 Y31.8611 
G01 X16.6819 Y31.7749 
G01 X16.8625 Y31.7162 
G01 X17.0500 Y31.6865 
G01 X23.9395 Y31.6865 
G01 X23.9395 Y25.7930 
G01 X23.9692 Y25.6055 
G01 X24.0279 Y25.4249 
G01 X24.1141 Y25.2557 
G01 X24.2257 Y25.1020 
G01 X24.3600 Y24.9677 
G01 X24.5137 Y24.8561 
G01 X24.6829 Y24.7699 
G01 X24.8635 Y24.7112 
G01 X25.0510 Y24.6815 
G01 X25.2410 Y24.6815 
G01 X25.4285 Y24.7112 
G00 Z2.5400 
G00 X30.1117 Y24.7243 
G01 Z-0.1778 F254.00 
G01 X30.1117 Y24.5517 F800.00 
G01 X30.1454 Y24.3824 
G01 X30.2114 Y24.2229 
G01 X30.3073 Y24.0794 
G01 X30.4294 Y23.9573 
G01 X30.5729 Y23.8614 
G01 X30.7324 Y23.7954 
G01 X30.9017 Y23.7617 
G01 X30.9200 Y23.7617 
G01 X30.9640 Y23.7177 
G01 X31.1177 Y23.6061 
G01 X31.2869 Y23.5199 
G01 X31.4675 Y23.4612 
G01 X31.6550 Y23.4315 
G01 X33.9405 Y23.4315 
G01 X34.0386 Y23.3037 
G01 X34.2257 Y23.1166 
G01 X34.4357 Y22.9554 
G01 X34.6650 Y22.8231 
G01 X34.9095 Y22.7218 
G01 X35.1652 Y22.6532 
G01 X35.4276 Y22.6187 
G01 X38.1803 Y22.6187 
G01 X38.3582 Y22.2373 
G01 X38.5850 Y21.8444 
G01 X38.8452 Y21.4729 
G01 X39.1367 Y21.1254 
G01 X39.4574 Y20.8047 
G01 X39.8049 Y20.5132 
G01 X40.1764 Y20.2530 
G01 X40.5693 Y20.0262 
G01 X40.9803 Y19.8345 
G01 X41.4066 Y19.6794 
G01 X41.8447 Y19.5620 
G01 X42.2914 Y19.4832 
G01 X42.7432 Y19.4437 
G01 X43.1968 Y19.4437 
G01 X43.6486 Y19.4832 
G01 X44.0953 Y19.5620 
G01 X44.5334 Y19.6794 
G01 X44.9597 Y19.8345 
G01 X45.3707 Y20.0262 
G01 X45.7636 Y20.2530 
G01 X46.1351 Y20.5132 
G01 X46.4826 Y20.8047 
G01 X46.8033 Y21.1254 
G01 X47.0948 Y21.4729 
G01 X47.3550 Y21.8444 
G01 X47.5818 Y22.2373 
G01 X47.7735 Y22.6483 
G01 X47.9286 Y23.0746 
G01 X48.0460 Y23.5127 
G01 X48.1248 Y23.9594 
G01 X48.1643 Y24.4112 
G01 X48.1643 Y24.8648 
G01 X48.1248 Y25.3166 
G01 X48.0460 Y25.7633 
G01 X47.9286 Y26.2014 
G01 X47.7735 Y26.6277 
G01 X47.5818 Y27.0387 
G01 X47.3550 Y27.4316 
G01 X47.0948 Y27.8031 
G01 X46.8033 Y28.1506 
G01 X46.4826 Y28.4713 
G01 X46.1351 Y28.7628 
G01 X45.7636 Y29.0230 
G01 X45.3707 Y29.2498 
G01 X44.9597 Y29.4415 
G01 X44.5334 Y29.5966 
G01 X44.0953 Y29.7140 
G01 X43.6486 Y29.7928 
G01 X43.1968 Y29.8323 
G01 X42.7432 Y29.8323 
G01 X42.2914 Y29.7928 
G01 X41.8447 Y29.7140 
G01 X41.4066 Y29.5966 
G01 X40.9803 Y29.4415 
G01 X40.5693 Y29.2498 
G01 X40.1764 Y29.0230 
G01 X39.8049 Y28.7628 
G01 X39.4574 Y28.4713 
G01 X39.1367 Y28.1506 
G01 X38.8452 Y27.8031 
G01 X38.5850 Y27.4316 
G01 X38.3582 Y27.0387 
G01 X38.1803 Y26.6573 
G01 X37.4015 Y26.6573 
G01 X37.4015 Y32.9880 
G01 X37.3718 Y33.1755 
G01 X37.3131 Y33.3561 
G01 X37.2269 Y33.5253 
G01 X37.1153 Y33.6790 
G01 X37.0713 Y33.7229 
G01 X37.0713 Y33.7413 
G01 X37.0376 Y33.9106 
G01 X36.9716 Y34.0701 
G01 X36.8757 Y34.2136 
G01 X36.7536 Y34.3357 
G01 X36.6101 Y34.4316 
G01 X36.4506 Y34.4976 
G01 X36.2813 Y34.5313 
G01 X36.1087 Y34.5313 
G01 X35.9394 Y34.4976 
G01 X35.7799 Y34.4316 
G01 X35.6364 Y34.3357 
G01 X35.5143 Y34.2136 
G01 X35.4184 Y34.0701 
G01 X35.3524 Y33.9106 
G01 X35.3187 Y33.7413 
G01 X35.3187 Y33.7229 
G01 X35.2747 Y33.6790 
G01 X35.1631 Y33.5253 
G01 X35.0769 Y33.3561 
G01 X35.0182 Y33.1755 
G01 X34.9885 Y32.9880 
G01 X34.9885 Y26.5754 
G01 X34.9095 Y26.5542 
G01 X34.6650 Y26.4529 
G01 X34.4357 Y26.3206 
G01 X34.2257 Y26.1594 
G01 X34.0386 Y25.9723 
G01 X33.9405 Y25.8445 
G01 X31.6550 Y25.8445 
G01 X31.4675 Y25.8148 
G01 X31.2869 Y25.7561 
G01 X31.1177 Y25.6699 
G01 X30.9640 Y25.5583 
G01 X30.9200 Y25.5143 
G01 X30.9017 Y25.5143 
G01 X30.7324 Y25.4806 
G01 X30.5729 Y25.4146 
G01 X30.4294 Y25.3187 
G01 X30.3073 Y25.1966 
G01 X30.2114 Y25.0531 
G01 X30.1454 Y24.8936 
G01 X30.1117 Y24.7243 
G00 Z2.5400 
G00 X30.3073 Y26.6194 
G01 Z-0.1778 F254.00 
G01 X30.4294 Y26.4973 F800.00 
G01 X30.5729 Y26.4014 
G01 X30.7324 Y26.3354 
G01 X30.9017 Y26.3017 
G01 X30.9200 Y26.3017 
G01 X30.9640 Y26.2577 
G01 X31.1177 Y26.1461 
G01 X31.2869 Y26.0599 
G01 X31.4675 Y26.0012 
G01 X31.6550 Y25.9715 
G01 X31.8450 Y25.9715 
G01 X32.0325 Y26.0012 
G01 X32.2131 Y26.0599 
G01 X32.3823 Y26.1461 
G01 X32.5360 Y26.2577 
G01 X32.5799 Y26.3017 
G01 X32.5983 Y26.3017 
G01 X32.7676 Y26.3354 
G01 X32.9271 Y26.4014 
G01 X33.0706 Y26.4973 
G01 X33.1927 Y26.6194 
G01 X33.2886 Y26.7629 
G01 X33.3546 Y26.9224 
G01 X33.3883 Y27.0917 
G01 X33.3883 Y27.2643 
G01 X33.3546 Y27.4336 
G01 X33.2886 Y27.5931 
G01 X33.1927 Y27.7366 
G01 X33.0706 Y27.8587 
G01 X32.9271 Y27.9546 
G01 X32.7676 Y28.0206 
G01 X32.5983 Y28.0543 
G01 X32.5799 Y28.0543 
G01 X30.3843 Y30.2500 
G01 X30.2500 Y30.3843 
G01 X30.0963 Y30.4959 
G01 X29.9271 Y30.5821 
G01 X29.7465 Y30.6408 
G01 X29.5590 Y30.6705 
G01 X28.4800 Y30.6705 
G01 X28.2925 Y30.6408 
G01 X28.2101 Y30.6140 
G01 X28.1910 Y30.7102 
G01 X28.1315 Y30.8539 
G01 X28.0451 Y30.9831 
G01 X27.9351 Y31.0931 
G01 X27.8059 Y31.1795 
G01 X27.6622 Y31.2390 
G01 X27.5097 Y31.2693 
G01 X27.3543 Y31.2693 
G01 X27.2018 Y31.2390 
G01 X27.0581 Y31.1795 
G01 X26.9289 Y31.0931 
G01 X26.8189 Y30.9831 
G01 X26.7325 Y30.8539 
G01 X26.6730 Y30.7102 
G01 X26.6427 Y30.5577 
G01 X26.6427 Y30.4023 
G01 X26.6730 Y30.2498 
G01 X26.6827 Y30.2264 
G01 X26.6827 Y29.6325 
G01 X26.6791 Y29.6004 
G01 X26.6827 Y29.5589 
G01 X26.6827 Y29.5172 
G01 X26.6890 Y29.4855 
G01 X26.6918 Y29.4533 
G01 X26.7034 Y29.4133 
G01 X26.7115 Y29.3724 
G01 X26.7239 Y29.3426 
G01 X26.7328 Y29.3116 
G01 X26.7520 Y29.2746 
G01 X26.7680 Y29.2361 
G01 X26.7859 Y29.2092 
G01 X26.8008 Y29.1805 
G01 X26.8268 Y29.1480 
G01 X26.8500 Y29.1133 
G01 X26.8728 Y29.0905 
G01 X26.8930 Y29.0653 
G01 X26.9249 Y29.0385 
G01 X26.9543 Y29.0090 
G01 X26.9812 Y28.9910 
G01 X27.0059 Y28.9702 
G01 X27.0424 Y28.9501 
G01 X27.0771 Y28.9270 
G01 X27.1069 Y28.9146 
G01 X27.1352 Y28.8990 
G01 X27.1749 Y28.8864 
G01 X27.2134 Y28.8705 
G01 X27.2451 Y28.8642 
G01 X27.2759 Y28.8544 
G01 X27.3173 Y28.8498 
G01 X27.3582 Y28.8417 
G01 X27.3905 Y28.8417 
G01 X27.5486 Y28.8241 
G01 X27.6547 Y28.6780 
G01 X27.7890 Y28.5437 
G01 X27.9427 Y28.4321 
G01 X28.1119 Y28.3459 
G01 X28.2925 Y28.2872 
G01 X28.4800 Y28.2575 
G01 X28.9642 Y28.2575 
G01 X30.1117 Y27.1100 
G01 X30.1117 Y27.0917 
G01 X30.1454 Y26.9224 
G01 X30.2114 Y26.7629 
G01 X30.3073 Y26.6194 
G00 Z2.5400 
G00 X30.1921 Y21.7297 
G01 Z-0.1778 F254.00 
G01 X30.2114 Y21.6829 F800.00 
G01 X30.3073 Y21.5394 
G01 X30.4294 Y21.4173 
G01 X30.5729 Y21.3214 
G01 X30.7324 Y21.2554 
G01 X30.9017 Y21.2217 
G01 X31.3817 Y21.2217 
G01 X31.3817 Y21.1963 
G01 X30.9170 Y21.1963 
G01 X30.7768 Y21.2185 
G01 X30.6419 Y21.2624 
G01 X30.5154 Y21.3268 
G01 X30.4006 Y21.4102 
G01 X30.3002 Y21.5106 
G01 X30.2168 Y21.6254 
G01 X30.1637 Y21.7297 
G01 X30.1921 Y21.7297 
G00 Z2.5400 
G00 X29.2185 Y21.8024 
G01 Z-0.1778 F254.00 
G01 X29.1246 Y21.7084 F800.00 
G01 X29.0172 Y21.6304 
G01 X28.9143 Y21.5780 
G01 X28.9143 Y21.6068 
G01 X28.9626 Y21.6268 
G01 X29.0966 Y21.7164 
G01 X29.2106 Y21.8304 
G01 X29.3002 Y21.9644 
G01 X29.3202 Y22.0127 
G01 X29.3490 Y22.0127 
G01 X29.2966 Y21.9098 
G01 X29.2185 Y21.8024 
G00 Z2.5400 
G00 X28.2357 Y21.6068 
G01 Z-0.1778 F254.00 
G01 X28.2357 Y21.5780 F800.00 
G01 X28.1328 Y21.6304 
G01 X28.0254 Y21.7084 
G01 X27.9314 Y21.8024 
G01 X27.8534 Y21.9098 
G01 X27.8010 Y22.0127 
G01 X27.8298 Y22.0127 
G01 X27.8498 Y21.9644 
G01 X27.9394 Y21.8304 
G01 X28.0534 Y21.7164 
G01 X28.1874 Y21.6268 
G01 X28.2357 Y21.6068 
G00 Z2.5400 
G00 X32.1183 Y21.2217 
G01 Z-0.1778 F254.00 
G01 X32.5983 Y21.2217 F800.00 
G01 X32.7676 Y21.2554 
G01 X32.9271 Y21.3214 
G01 X33.0706 Y21.4173 
G01 X33.1927 Y21.5394 
G01 X33.2886 Y21.6829 
G01 X33.3079 Y21.7297 
G01 X33.3363 Y21.7297 
G01 X33.2832 Y21.6254 
G01 X33.1998 Y21.5106 
G01 X33.0994 Y21.4102 
G01 X32.9846 Y21.3268 
G01 X32.8581 Y21.2624 
G01 X32.7232 Y21.2185 
G01 X32.5830 Y21.1963 
G01 X32.1183 Y21.1963 
G01 X32.1183 Y21.2217 
G00 Z2.5400 
G00 X37.4946 Y16.2251 
G01 Z-0.1778 F254.00 
G01 X37.5829 Y16.3134 F800.00 
G01 X37.6840 Y16.3868 
G01 X37.7857 Y16.4386 
G01 X37.7857 Y16.4094 
G01 X37.7361 Y16.3889 
G01 X37.6102 Y16.3048 
G01 X37.5032 Y16.1978 
G01 X37.4191 Y16.0719 
G01 X37.3986 Y16.0223 
G01 X37.3693 Y16.0223 
G01 X37.4212 Y16.1240 
G01 X37.4946 Y16.2251 
G00 Z2.5400 
G00 X37.3986 Y15.3937 
G01 Z-0.1778 F254.00 
G01 X37.4191 Y15.3441 F800.00 
G01 X37.5032 Y15.2182 
G01 X37.6102 Y15.1112 
G01 X37.7361 Y15.0271 
G01 X37.7857 Y15.0066 
G01 X37.7857 Y14.9773 
G01 X37.6840 Y15.0292 
G01 X37.5829 Y15.1026 
G01 X37.4946 Y15.1909 
G01 X37.4212 Y15.2920 
G01 X37.3693 Y15.3937 
G01 X37.3986 Y15.3937 
G00 Z2.5400 
G00 X38.4143 Y15.0066 
G01 Z-0.1778 F254.00 
G01 X38.4639 Y15.0271 F800.00 
G01 X38.5898 Y15.1112 
G01 X38.6968 Y15.2182 
G01 X38.7809 Y15.3441 
G01 X38.8014 Y15.3937 
G01 X38.8306 Y15.3937 
G01 X38.7788 Y15.2920 
G01 X38.7054 Y15.1909 
G01 X38.6171 Y15.1026 
G01 X38.5160 Y15.0292 
G01 X38.4143 Y14.9773 
G01 X38.4143 Y15.0066 
G00 Z2.5400 
G00 X38.4143 Y16.4094 
G01 Z-0.1778 F254.00 
G01 X38.4143 Y16.4386 F800.00 
G01 X38.5160 Y16.3868 
G01 X38.6171 Y16.3134 
G01 X38.7054 Y16.2251 
G01 X38.7788 Y16.1240 
G01 X38.8306 Y16.0223 
G01 X38.8014 Y16.0223 
G01 X38.7809 Y16.0719 
G01 X38.6968 Y16.1978 
G01 X38.5898 Y16.3048 
G01 X38.4639 Y16.3889 
G01 X38.4143 Y16.4094 
G00 Z2.5400 
G00 X38.4794 Y31.2884 
G01 Z-0.1778 F254.00 
G01 X38.6487 Y31.2547 F800.00 
G01 X38.8213 Y31.2547 
G01 X38.9906 Y31.2884 
G01 X39.1501 Y31.3544 
G01 X39.2936 Y31.4503 
G01 X39.4157 Y31.5724 
G01 X39.5116 Y31.7159 
G01 X39.5776 Y31.8754 
G01 X39.6113 Y32.0447 
G01 X39.6113 Y36.3224 
G01 X39.6210 Y36.3458 
G01 X39.6513 Y36.4983 
G01 X39.6513 Y36.6537 
G01 X39.6210 Y36.8062 
G01 X39.5615 Y36.9499 
G01 X39.4751 Y37.0791 
G01 X39.3651 Y37.1891 
G01 X39.2359 Y37.2755 
G01 X39.0922 Y37.3350 
G01 X38.9397 Y37.3653 
G01 X38.7843 Y37.3653 
G01 X38.6318 Y37.3350 
G01 X38.4881 Y37.2755 
G01 X38.3588 Y37.1891 
G01 X38.2489 Y37.0791 
G01 X38.1625 Y36.9499 
G01 X38.1030 Y36.8062 
G01 X38.0727 Y36.6537 
G01 X38.0727 Y36.4983 
G01 X38.1030 Y36.3458 
G01 X38.1127 Y36.3224 
G01 X38.1127 Y34.2720 
G01 X38.0543 Y34.2136 
G01 X37.9584 Y34.0701 
G01 X37.8924 Y33.9106 
G01 X37.8587 Y33.7413 
G01 X37.8587 Y32.0447 
G01 X37.8924 Y31.8754 
G01 X37.9584 Y31.7159 
G01 X38.0543 Y31.5724 
G01 X38.1764 Y31.4503 
G01 X38.3199 Y31.3544 
G01 X38.4794 Y31.2884 
G00 Z2.5400 
G00 X23.4731 Y30.9831 
G01 Z-0.1778 F254.00 
G01 X23.3631 Y31.0931 F800.00 
G01 X23.2339 Y31.1795 
G01 X23.0902 Y31.2390 
G01 X22.9377 Y31.2693 
G01 X22.7823 Y31.2693 
G01 X22.6298 Y31.2390 
G01 X22.4861 Y31.1795 
G01 X22.3569 Y31.0931 
G01 X22.2469 Y30.9831 
G01 X22.1605 Y30.8539 
G01 X22.1010 Y30.7102 
G01 X22.0735 Y30.5717 
G01 X22.0531 Y30.5821 
G01 X21.8725 Y30.6408 
G01 X21.6850 Y30.6705 
G01 X19.9710 Y30.6705 
G01 X19.7835 Y30.6408 
G01 X19.6029 Y30.5821 
G01 X19.4337 Y30.4959 
G01 X19.2800 Y30.3843 
G01 X19.1457 Y30.2500 
G01 X16.9500 Y28.0543 
G01 X16.9317 Y28.0543 
G01 X16.7624 Y28.0206 
G01 X16.6029 Y27.9546 
G01 X16.4594 Y27.8587 
G01 X16.3373 Y27.7366 
G01 X16.2414 Y27.5931 
G01 X16.1754 Y27.4336 
G01 X16.1417 Y27.2643 
G01 X16.1417 Y27.0917 
G01 X16.1754 Y26.9224 
G01 X16.2414 Y26.7629 
G01 X16.3373 Y26.6194 
G01 X16.4594 Y26.4973 
G01 X16.6029 Y26.4014 
G01 X16.7624 Y26.3354 
G01 X16.9317 Y26.3017 
G01 X16.9500 Y26.3017 
G01 X16.9940 Y26.2577 
G01 X17.1477 Y26.1461 
G01 X17.3169 Y26.0599 
G01 X17.4975 Y26.0012 
G01 X17.6850 Y25.9715 
G01 X17.8750 Y25.9715 
G01 X18.0625 Y26.0012 
G01 X18.2431 Y26.0599 
G01 X18.4123 Y26.1461 
G01 X18.5660 Y26.2577 
G01 X18.6100 Y26.3017 
G01 X18.6283 Y26.3017 
G01 X18.7976 Y26.3354 
G01 X18.9571 Y26.4014 
G01 X19.1006 Y26.4973 
G01 X19.2227 Y26.6194 
G01 X19.3186 Y26.7629 
G01 X19.3846 Y26.9224 
G01 X19.4183 Y27.0917 
G01 X19.4183 Y27.1100 
G01 X20.5658 Y28.2575 
G01 X21.6850 Y28.2575 
G01 X21.8725 Y28.2872 
G01 X22.0531 Y28.3459 
G01 X22.2223 Y28.4321 
G01 X22.3760 Y28.5437 
G01 X22.5103 Y28.6780 
G01 X22.5369 Y28.7147 
G01 X22.9338 Y28.7147 
G01 X23.0786 Y28.7435 
G01 X23.2149 Y28.8000 
G01 X23.3377 Y28.8820 
G01 X23.4420 Y28.9863 
G01 X23.5240 Y29.1091 
G01 X23.5805 Y29.2454 
G01 X23.6093 Y29.3902 
G01 X23.6093 Y30.2264 
G01 X23.6190 Y30.2498 
G01 X23.6493 Y30.4023 
G01 X23.6493 Y30.5577 
G01 X23.6190 Y30.7102 
G01 X23.5595 Y30.8539 
G01 X23.4731 Y30.9831 
G00 Z2.5400 
G00 X11.9886 Y32.0853 
G01 Z-0.1778 F254.00 
G01 X12.1107 Y32.2074 F800.00 
G01 X12.2066 Y32.3509 
G01 X12.2726 Y32.5104 
G01 X12.3063 Y32.6797 
G01 X12.3063 Y34.3763 
G01 X12.2726 Y34.5456 
G01 X12.2066 Y34.7051 
G01 X12.1793 Y34.7459 
G01 X12.1793 Y36.3224 
G01 X12.1890 Y36.3458 
G01 X12.2193 Y36.4983 
G01 X12.2193 Y36.6537 
G01 X12.1890 Y36.8062 
G01 X12.1295 Y36.9499 
G01 X12.0431 Y37.0791 
G01 X11.9331 Y37.1891 
G01 X11.8039 Y37.2755 
G01 X11.6602 Y37.3350 
G01 X11.5077 Y37.3653 
G01 X11.3523 Y37.3653 
G01 X11.1998 Y37.3350 
G01 X11.0561 Y37.2755 
G01 X10.9268 Y37.1891 
G01 X10.8169 Y37.0791 
G01 X10.7305 Y36.9499 
G01 X10.6710 Y36.8062 
G01 X10.6407 Y36.6537 
G01 X10.6407 Y36.4983 
G01 X10.6710 Y36.3458 
G01 X10.6807 Y36.3224 
G01 X10.6807 Y34.7459 
G01 X10.6534 Y34.7051 
G01 X10.5874 Y34.5456 
G01 X10.5537 Y34.3763 
G01 X10.5537 Y32.6797 
G01 X10.5874 Y32.5104 
G01 X10.6534 Y32.3509 
G01 X10.7493 Y32.2074 
G01 X10.8714 Y32.0853 
G01 X11.0149 Y31.9894 
G01 X11.1744 Y31.9234 
G01 X11.3437 Y31.8897 
G01 X11.5163 Y31.8897 
G01 X11.6856 Y31.9234 
G01 X11.8451 Y31.9894 
G01 X11.9886 Y32.0853 
G00 Z2.5400 
G82 X24.6380 Y6.3246 Z-0.2794 F508.00 R2.5400 P0.500000
G82 X25.1460 Y17.7800 
G82 X22.8600 Y30.4800 
G82 X38.8620 Y36.5760 
G82 X27.4320 Y30.4800 
G82 X11.4300 Y36.5760 
G82 X6.3500 Y24.6380 
G82 X42.9700 Y24.6380 
G82 X25.1460 Y25.8880 
G82 X25.1460 Y23.3880 
G82 X11.4300 Y10.7080 
G82 X11.4300 Y15.7080 
G82 X38.1000 Y10.7080 
G82 X38.1000 Y15.7080 
G82 X21.5900 Y29.4640 
G82 X21.5900 Y22.3520 
G82 X28.5750 Y29.4640 
G82 X28.5750 Y22.3520 
G82 X31.7500 Y24.6380 
G82 X31.7500 Y27.1780 
G82 X31.7500 Y22.0980 
G82 X13.9700 Y33.5280 
G82 X16.5100 Y33.5280 
G82 X11.4300 Y33.5280 
G82 X17.7800 Y24.6380 
G82 X17.7800 Y27.1780 
G82 X17.7800 Y22.0980 
G82 X36.1950 Y32.8930 
G82 X33.6550 Y32.8930 
G82 X38.7350 Y32.8930 
M05
M02
