(Exported by FreeCAD)
(Post Processor: linuxcnc_post)
(Output Time:2019-03-08 17:24:51.506701)
(begin preamble)
G17 G54 G40 G49 G80 G90
G21
(begin operation: T1: 125 End Mill)
(machine: not set, mm/min)
(T1: 125 End Mill)
M6 T1
M3 S13000
G4 P10
(finish operation: T1: 125 End Mill)
(begin operation: Pocket_Shape001)
(machine: not set, mm/min)
(Pocket_Shape001)
G0 Z12.200
G0 X138.118 Y35.118
G0 Z10.200
G1 X138.118 Y35.118 Z6.200 F60.000
G3 X77.050 Y42.346 Z6.200 I-35.118 J-35.118 F360.000
G3 X102.228 Y-49.650 Z6.200 I25.942 J-42.343 F360.000
G1 X102.235 Y-49.329 Z6.200 F360.000
G1 X102.228 Y-49.650 Z6.200 F360.000
G3 X128.950 Y-42.346 Z6.200 I0.817 J49.546 F360.000
G1 X127.293 Y-39.643 Z6.200 F360.000
G1 X128.950 Y-42.346 Z6.200 F360.000
G3 X138.118 Y35.118 Z6.200 I-25.950 J42.346 F360.000
G0 X138.118 Y35.118 Z12.200
G0 X135.873 Y32.872 Z12.200
G1 X135.873 Y32.872 Z6.200 F60.000
G2 X126.455 Y-40.134 Z6.200 I-32.855 J-32.872 F360.000
G2 X126.455 Y40.134 Z6.200 I51.520 J40.134 F360.000
G2 X135.873 Y32.872 Z6.200 I-23.437 J-40.134 F360.000
G0 X135.873 Y32.872 Z12.200
G0 X135.872 Y32.871 Z12.200
G1 X135.872 Y32.871 Z6.200 F60.000
G2 X127.293 Y-39.643 Z6.200 I-32.863 J-32.876 F360.000
G1 X126.455 Y-40.134 Z6.200 F360.000
G2 X126.455 Y40.134 Z6.200 I51.520 J40.134 F360.000
G2 X135.872 Y32.871 Z6.200 I-23.446 J-40.139 F360.000
G0 X135.872 Y32.871 Z12.200
G0 X123.993 Y42.141 Z12.200
G1 X123.993 Y42.141 Z6.200 F60.000
G2 X124.213 Y42.422 Z6.200 I54.009 J-42.141 F360.000
G3 X123.586 Y44.834 Z6.200 I-1.261 J0.960 F360.000
G3 X103.031 Y49.335 Z6.200 I-20.586 J-44.834 F360.000
G3 X102.235 Y-49.329 Z6.200 I-0.031 J-49.335 F360.000
G3 X123.585 Y-44.835 Z6.200 I0.765 J49.326 F360.000
G3 X124.213 Y-42.422 Z6.200 I-0.633 J1.453 F360.000
G2 X123.993 Y42.141 Z6.200 I53.789 J42.422 F360.000
G1 X123.993 Y42.141 Z5.200 F60.000
G2 X124.213 Y42.422 Z5.200 I54.009 J-42.141 F360.000
G3 X123.586 Y44.834 Z5.200 I-1.261 J0.960 F360.000
G3 X103.031 Y49.335 Z5.200 I-20.586 J-44.834 F360.000
G3 X102.235 Y-49.329 Z5.200 I-0.031 J-49.335 F360.000
G3 X123.585 Y-44.835 Z5.200 I0.765 J49.326 F360.000
G3 X124.213 Y-42.422 Z5.200 I-0.633 J1.453 F360.000
G2 X123.993 Y42.141 Z5.200 I53.789 J42.422 F360.000
G0 X123.993 Y42.141 Z12.200
G0 X125.145 Y44.454 Z12.200
G1 X125.145 Y44.454 Z5.200 F60.000
G3 X77.050 Y42.346 Z5.200 I-22.145 J-44.454 F360.000
G3 X102.228 Y-49.650 Z5.200 I25.942 J-42.343 F360.000
G1 X102.235 Y-49.329 Z5.200 F360.000
G1 X102.228 Y-49.650 Z5.200 F360.000
G3 X128.950 Y-42.346 Z5.200 I0.817 J49.546 F360.000
G1 X127.293 Y-39.643 Z5.200 F360.000
G1 X128.950 Y-42.346 Z5.200 F360.000
G3 X125.145 Y44.454 Z5.200 I-25.950 J42.346 F360.000
G0 X125.145 Y44.454 Z12.200
G0 X126.455 Y40.134 Z12.200
G1 X126.455 Y40.134 Z5.200 F60.000
G2 X126.455 Y-40.134 Z5.200 I-23.437 J-40.134 F360.000
G2 X126.455 Y40.134 Z5.200 I51.520 J40.134 F360.000
G1 X126.455 Y40.134 Z5.200 F60.000
G2 X127.293 Y-39.643 Z5.200 I-23.446 J-40.139 F360.000
G1 X126.455 Y-40.134 Z5.200 F360.000
G2 X126.455 Y40.134 Z5.200 I51.520 J40.134 F360.000
G1 X126.455 Y40.134 Z4.200 F60.000
G2 X126.455 Y-40.134 Z4.200 I-23.437 J-40.134 F360.000
G2 X126.455 Y40.134 Z4.200 I51.520 J40.134 F360.000
G1 X126.455 Y40.134 Z4.200 F60.000
G2 X127.293 Y-39.643 Z4.200 I-23.446 J-40.139 F360.000
G1 X126.455 Y-40.134 Z4.200 F360.000
G2 X126.455 Y40.134 Z4.200 I51.520 J40.134 F360.000
G0 X126.455 Y40.134 Z12.200
G0 X123.949 Y42.085 Z12.200
G1 X123.949 Y42.085 Z4.200 F60.000
G2 X124.213 Y42.422 Z4.200 I54.053 J-42.085 F360.000
G3 X123.586 Y44.834 Z4.200 I-1.261 J0.960 F360.000
G3 X103.031 Y49.335 Z4.200 I-20.586 J-44.834 F360.000
G3 X102.235 Y-49.329 Z4.200 I-0.031 J-49.335 F360.000
G3 X123.585 Y-44.835 Z4.200 I0.765 J49.326 F360.000
G3 X124.213 Y-42.422 Z4.200 I-0.633 J1.453 F360.000
G2 X123.949 Y42.085 Z4.200 I53.789 J42.422 F360.000
G0 X123.949 Y42.085 Z12.200
G0 X125.132 Y44.461 Z12.200
G1 X125.132 Y44.461 Z4.200 F60.000
G3 X77.050 Y42.346 Z4.200 I-22.132 J-44.461 F360.000
G3 X102.228 Y-49.650 Z4.200 I25.942 J-42.343 F360.000
G1 X102.235 Y-49.329 Z4.200 F360.000
G1 X102.228 Y-49.650 Z4.200 F360.000
G3 X128.950 Y-42.346 Z4.200 I0.817 J49.546 F360.000
G1 X127.293 Y-39.643 Z4.200 F360.000
G1 X128.950 Y-42.346 Z4.200 F360.000
G3 X125.132 Y44.461 Z4.200 I-25.950 J42.346 F360.000
G1 X125.132 Y44.461 Z3.200 F60.000
G3 X77.050 Y42.346 Z3.200 I-22.132 J-44.461 F360.000
G3 X102.228 Y-49.650 Z3.200 I25.942 J-42.343 F360.000
G1 X102.235 Y-49.329 Z3.200 F360.000
G1 X102.228 Y-49.650 Z3.200 F360.000
G3 X128.950 Y-42.346 Z3.200 I0.817 J49.546 F360.000
G1 X127.293 Y-39.643 Z3.200 F360.000
G1 X128.950 Y-42.346 Z3.200 F360.000
G3 X125.132 Y44.461 Z3.200 I-25.950 J42.346 F360.000
G0 X125.132 Y44.461 Z12.200
G0 X124.373 Y44.085 Z12.200
G1 X124.373 Y44.085 Z3.200 F60.000
G3 X123.586 Y44.834 Z3.200 I-1.421 J-0.703 F360.000
G3 X103.031 Y49.335 Z3.200 I-20.586 J-44.834 F360.000
G3 X102.235 Y-49.329 Z3.200 I-0.031 J-49.335 F360.000
G3 X123.585 Y-44.835 Z3.200 I0.765 J49.326 F360.000
G3 X124.213 Y-42.422 Z3.200 I-0.633 J1.453 F360.000
G2 X124.213 Y42.422 Z3.200 I53.789 J42.422 F360.000
G3 X124.373 Y44.085 Z3.200 I-1.261 J0.960 F360.000
G0 X124.373 Y44.085 Z12.200
G0 X126.455 Y40.134 Z12.200
G1 X126.455 Y40.134 Z3.200 F60.000
G2 X126.455 Y-40.134 Z3.200 I-23.437 J-40.134 F360.000
G2 X126.455 Y40.134 Z3.200 I51.520 J40.134 F360.000
G1 X126.455 Y40.134 Z3.200 F60.000
G2 X127.293 Y-39.643 Z3.200 I-23.446 J-40.139 F360.000
G1 X126.455 Y-40.134 Z3.200 F360.000
G2 X126.455 Y40.134 Z3.200 I51.520 J40.134 F360.000
G0 Z12.200
(finish operation: Pocket_Shape001)
(begin operation: Drilling)
(machine: not set, mm/min)
(inactive operation)
(finish operation: Drilling)
(begin postamble)
M05
G17 G54 G90 G80 G40
M2
