(Exported by FreeCAD)
(Post Processor: linuxcnc_post)
(Output Time:2019-03-09 14:20:26.686554)
(begin preamble)
G17 G54 G40 G49 G80 G90
G21
(begin operation: T1: 125 End Mill)
(machine: not set, mm/min)
(T1: 125 End Mill)
M6 T1
M3 S13000
G4 P5
(finish operation: T1: 125 End Mill)
(begin operation: Pocket_Shape001)
(machine: not set, mm/min)
(inactive operation)
(finish operation: Pocket_Shape001)
(begin operation: Drilling)
(machine: not set, mm/min)
(Drilling)
(Begin Drilling)
G0 Z12.200
G90
G98
G81 X33.000 Y15.000 Z5.500 F60.000 R10.000
G81 X38.379 Y25.931 Z5.500 F60.000 R10.000
G81 X67.000 Y0.000 Z5.500 F60.000 R10.000
G81 X33.700 Y-14.500 Z5.500 F60.000 R10.000
G81 X37.208 Y-22.849 Z5.500 F60.000 R10.000
G81 X68.719 Y-60.103 Z5.500 F60.000 R10.000
G81 X68.000 Y-87.000 Z5.500 F60.000 R10.000
G81 X117.017 Y-67.041 Z5.500 F60.000 R10.000
G81 X173.000 Y-87.000 Z5.500 F60.000 R10.000
G81 X176.495 Y-59.957 Z5.500 F60.000 R10.000
G81 X209.083 Y-46.634 Z5.500 F60.000 R10.000
G81 X228.649 Y-17.365 Z5.500 F60.000 R10.000
G81 X228.504 Y17.840 Z5.500 F60.000 R10.000
G81 X208.697 Y46.946 Z5.500 F60.000 R10.000
G81 X176.000 Y60.000 Z5.500 F60.000 R10.000
G81 X173.000 Y87.000 Z5.500 F60.000 R10.000
G81 X120.215 Y66.244 Z5.500 F60.000 R10.000
G81 X71.640 Y61.631 Z5.500 F60.000 R10.000
G81 X68.000 Y87.000 Z5.500 F60.000 R10.000
G80
G0 Z12.200
(finish operation: Drilling)
(begin postamble)
M05
G17 G54 G90 G80 G40
M2
