(Exported by FreeCAD)
(Post Processor: linuxcnc_post)
(Output Time:2019-03-07 22:26:29.061444)
(begin preamble)
G17 G54 G40 G49 G80 G90
G21
(begin operation: T1: 125 End Mill)
(machine: not set, mm/min)
(T1: 125 End Mill)
M6 T1
M3 S13000
G4 P10
(finish operation: T1: 125 End Mill)
(begin operation: Pocket_Shape)
(machine: not set, mm/min)
(Pocket_Shape)
G0 Z10.000
G0 X138.115 Y35.113
G0 Z8.000
G1 X138.115 Y35.113 Z6.200 F60.000
G2 X103.000 Y-49.665 Z6.200 I-35.111 J-35.118 F420.000
G2 X78.733 Y-43.332 Z6.200 I0.000 J49.665 F420.000
G2 X126.781 Y43.592 Z6.200 I24.262 J43.331 F420.000
G1 X126.670 Y43.395 Z6.200 F420.000
G1 X126.828 Y43.306 Z6.200 F420.000
G2 X126.828 Y-43.306 Z6.200 I-29.828 J-43.306 F420.000
G2 X124.620 Y-42.947 Z6.200 I-0.924 J1.288 F420.000
G2 X124.231 Y42.409 Z6.200 I57.360 J42.941 F420.000
G2 X124.859 Y43.209 Z6.200 I3.875 J-2.394 F420.000
G2 X126.670 Y43.395 Z6.200 I1.034 J-1.162 F420.000
G1 X126.781 Y43.592 Z6.200 F420.000
G2 X138.115 Y35.113 Z6.200 I-23.777 J-43.598 F420.000
G0 X138.115 Y35.113 Z10.000
G0 X124.231 Y42.409 Z10.000
G1 X124.231 Y42.409 Z6.200 F60.000
G1 X124.213 Y42.422 Z6.200 F420.000
G1 X124.231 Y42.409 Z6.200 F420.000
G0 X124.231 Y42.409 Z10.000
G0 X124.213 Y42.422 Z10.000
G1 X124.213 Y42.422 Z6.200 F60.000
G3 X123.586 Y44.834 Z6.200 I-1.261 J0.960 F420.000
G3 X81.722 Y44.510 Z6.200 I-20.586 J-44.831 F420.000
G3 X123.585 Y-44.835 Z6.200 I21.278 J-44.510 F420.000
G3 X124.213 Y-42.422 Z6.200 I-0.633 J1.453 F420.000
G2 X124.213 Y42.422 Z6.200 I53.789 J42.422 F420.000
G1 X124.213 Y42.422 Z5.200 F60.000
G3 X123.586 Y44.834 Z5.200 I-1.261 J0.960 F420.000
G3 X103.031 Y49.335 Z5.200 I-20.586 J-44.834 F420.000
G3 X102.235 Y-49.329 Z5.200 I-0.031 J-49.335 F420.000
G3 X123.585 Y-44.835 Z5.200 I0.765 J49.326 F420.000
G3 X124.213 Y-42.422 Z5.200 I-0.633 J1.453 F420.000
G1 X124.231 Y-42.409 Z5.200 F420.000
G2 X124.620 Y42.947 Z5.200 I57.750 J42.415 F420.000
G2 X126.828 Y43.306 Z5.200 I1.284 J-0.929 F420.000
G2 X126.828 Y-43.306 Z5.200 I-29.828 J-43.306 F420.000
G2 X124.620 Y-42.947 Z5.200 I-0.924 J1.288 F420.000
G1 X124.231 Y-42.409 Z5.200 F420.000
G2 X124.213 Y42.422 Z5.200 I53.718 J42.426 F420.000
G0 X124.213 Y42.422 Z10.000
G0 X125.213 Y44.422 Z10.000
G1 X125.213 Y44.422 Z5.200 F60.000
G2 X102.228 Y-49.650 Z5.200 I-22.208 J-44.417 F420.000
G1 X102.235 Y-49.329 Z5.200 F420.000
G1 X102.228 Y-49.650 Z5.200 F420.000
G1 X101.050 Y-49.626 Z5.200 F420.000
G2 X104.950 Y49.626 Z5.200 I1.950 J49.626 F420.000
G2 X125.213 Y44.422 Z5.200 I-1.945 J-49.622 F420.000
G1 X125.213 Y44.422 Z4.200 F60.000
G2 X102.228 Y-49.650 Z4.200 I-22.208 J-44.417 F420.000
G1 X102.235 Y-49.329 Z4.200 F420.000
G1 X102.228 Y-49.650 Z4.200 F420.000
G1 X101.050 Y-49.626 Z4.200 F420.000
G2 X104.950 Y49.626 Z4.200 I1.950 J49.626 F420.000
G2 X125.213 Y44.422 Z4.200 I-1.945 J-49.622 F420.000
G0 X125.213 Y44.422 Z10.000
G0 X124.392 Y44.044 Z10.000
G1 X124.392 Y44.044 Z4.200 F60.000
G3 X123.586 Y44.834 Z4.200 I-1.440 J-0.662 F420.000
G3 X103.031 Y49.335 Z4.200 I-20.586 J-44.834 F420.000
G3 X102.235 Y-49.329 Z4.200 I-0.031 J-49.335 F420.000
G3 X123.585 Y-44.835 Z4.200 I0.765 J49.326 F420.000
G3 X124.213 Y-42.422 Z4.200 I-0.633 J1.453 F420.000
G1 X124.231 Y-42.409 Z4.200 F420.000
G2 X124.620 Y42.947 Z4.200 I57.750 J42.415 F420.000
G2 X126.828 Y43.306 Z4.200 I1.284 J-0.929 F420.000
G2 X126.828 Y-43.306 Z4.200 I-29.828 J-43.306 F420.000
G2 X124.620 Y-42.947 Z4.200 I-0.924 J1.288 F420.000
G1 X124.231 Y-42.409 Z4.200 F420.000
G2 X124.213 Y42.422 Z4.200 I53.718 J42.426 F420.000
G3 X124.392 Y44.044 Z4.200 I-1.261 J0.960 F420.000
G1 X124.392 Y44.044 Z3.200 F60.000
G3 X123.586 Y44.834 Z3.200 I-1.440 J-0.662 F420.000
G3 X81.722 Y44.510 Z3.200 I-20.586 J-44.831 F420.000
G3 X123.585 Y-44.835 Z3.200 I21.278 J-44.510 F420.000
G3 X124.213 Y-42.422 Z3.200 I-0.633 J1.453 F420.000
G2 X124.213 Y42.422 Z3.200 I53.789 J42.422 F420.000
G3 X124.392 Y44.044 Z3.200 I-1.261 J0.960 F420.000
G0 X124.392 Y44.044 Z10.000
G0 X124.695 Y44.667 Z10.000
G1 X124.695 Y44.667 Z3.200 F60.000
G2 X126.781 Y43.592 Z3.200 I-21.700 J-44.669 F420.000
G1 X126.670 Y43.395 Z3.200 F420.000
G1 X126.828 Y43.306 Z3.200 F420.000
G2 X126.828 Y-43.306 Z3.200 I-29.828 J-43.306 F420.000
G2 X124.620 Y-42.947 Z3.200 I-0.924 J1.288 F420.000
G2 X124.231 Y42.409 Z3.200 I57.360 J42.941 F420.000
G2 X124.859 Y43.209 Z3.200 I3.875 J-2.394 F420.000
G2 X126.670 Y43.395 Z3.200 I1.034 J-1.162 F420.000
G1 X126.781 Y43.592 Z3.200 F420.000
G2 X103.000 Y-49.665 Z3.200 I-23.777 J-43.598 F420.000
G2 X78.733 Y-43.332 Z3.200 I0.000 J49.665 F420.000
G2 X124.695 Y44.667 Z3.200 I24.262 J43.331 F420.000
G0 X124.695 Y44.667 Z10.000
G0 X124.213 Y42.422 Z10.000
G1 X124.213 Y42.422 Z3.200 F60.000
G1 X124.231 Y42.409 Z3.200 F420.000
G1 X124.213 Y42.422 Z3.200 F420.000
G0 Z10.000
(finish operation: Pocket_Shape)
(begin postamble)
M05
G17 G54 G90 G80 G40
M2
