(Exported by FreeCAD)
(Post Processor: linuxcnc_post)
(Output Time:2019-03-09 13:44:30.986879)
(begin preamble)
G17 G54 G40 G49 G80 G90
G21
(begin operation: T1: 125 End Mill)
(machine: not set, mm/min)
(T1: 125 End Mill)
M6 T1
M3 S13000
G4 P5
(finish operation: T1: 125 End Mill)
(begin operation: Pocket_Shape001)
(machine: not set, mm/min)
(Pocket_Shape001)
G0 Z12.200
G0 X138.117 Y35.110
G0 Z10.200
G1 X138.117 Y35.110 Z6.200 F60.000
G3 X131.392 Y40.737 Z6.200 I-35.099 J-35.114 F420.000
G1 X128.853 Y37.473 Z6.200 F420.000
G1 X129.102 Y37.264 Z6.200 F420.000
G2 X129.102 Y-37.264 Z6.200 I-37.101 J-37.264 F420.000
G2 X126.591 Y-36.958 Z6.200 I-1.140 J1.102 F420.000
G2 X119.112 Y-19.782 Z6.200 I61.386 J36.948 F420.000
G1 X116.076 Y-20.695 Z6.200 F420.000
G1 X119.112 Y-19.782 Z6.200 F420.000
G2 X126.687 Y37.089 Z6.200 I68.805 J19.776 F420.000
G2 X128.853 Y37.473 Z6.200 I1.279 J-0.910 F420.000
G1 X131.392 Y40.737 Z6.200 F420.000
G3 X73.808 Y-40.180 Z6.200 I-28.399 J-40.738 F420.000
G3 X103.000 Y-49.665 Z6.200 I29.192 J40.180 F420.000
G3 X144.295 Y-27.592 Z6.200 I-0.000 J49.665 F420.000
G1 X141.658 Y-25.831 Z6.200 F420.000
G3 X140.546 Y27.420 Z6.200 I-38.652 J25.829 F420.000
G2 X140.546 Y-27.420 Z6.200 I-48.538 J-27.420 F420.000
G3 X141.658 Y-25.831 Z6.200 I-19.662 J14.956 F420.000
G1 X144.295 Y-27.592 Z6.200 F420.000
G3 X138.117 Y35.110 Z6.200 I-41.277 J27.589 F420.000
G0 X138.117 Y35.110 Z12.200
G0 X126.687 Y37.089 Z12.200
G1 X126.687 Y37.089 Z6.200 F60.000
G1 X122.462 Y40.088 Z6.200 F420.000
G2 X124.213 Y42.422 Z6.200 I35.821 J-25.060 F420.000
G3 X123.586 Y44.834 Z6.200 I-1.261 J0.960 F420.000
G3 X81.722 Y44.510 Z6.200 I-20.586 J-44.831 F420.000
G3 X123.585 Y-44.835 Z6.200 I21.278 J-44.510 F420.000
G3 X124.213 Y-42.422 Z6.200 I-0.633 J1.453 F420.000
G2 X122.462 Y40.088 Z6.200 I53.770 J42.415 F420.000
G1 X126.687 Y37.089 Z6.200 F420.000
G0 X126.687 Y37.089 Z12.200
G0 X116.383 Y21.702 Z12.200
G1 X116.383 Y21.702 Z6.200 F60.000
G3 X116.383 Y-21.702 Z6.200 I61.537 J-21.702 F420.000
G2 X116.076 Y-20.695 Z6.200 I172.924 J53.226 F420.000
G2 X116.383 Y21.702 Z6.200 I71.813 J20.680 F420.000
G1 X116.383 Y21.702 Z5.200 F60.000
G3 X116.383 Y-21.702 Z5.200 I61.537 J-21.702 F420.000
G2 X116.076 Y-20.695 Z5.200 I172.924 J53.226 F420.000
G2 X116.383 Y21.702 Z5.200 I71.813 J20.680 F420.000
G0 X116.383 Y21.702 Z12.200
G0 X119.411 Y20.783 Z12.200
G1 X119.411 Y20.783 Z5.200 F60.000
G2 X126.687 Y37.089 Z5.200 I68.506 J-20.789 F420.000
G2 X128.853 Y37.473 Z5.200 I1.279 J-0.910 F420.000
G1 X131.392 Y40.737 Z5.200 F420.000
G3 X73.808 Y-40.180 Z5.200 I-28.399 J-40.738 F420.000
G3 X103.000 Y-49.665 Z5.200 I29.192 J40.180 F420.000
G3 X144.295 Y-27.592 Z5.200 I-0.000 J49.665 F420.000
G1 X141.658 Y-25.831 Z5.200 F420.000
G3 X140.546 Y27.420 Z5.200 I-38.652 J25.829 F420.000
G2 X140.546 Y-27.420 Z5.200 I-48.538 J-27.420 F420.000
G3 X141.658 Y-25.831 Z5.200 I-19.662 J14.956 F420.000
G1 X144.295 Y-27.592 Z5.200 F420.000
G3 X131.392 Y40.737 Z5.200 I-41.277 J27.589 F420.000
G1 X128.853 Y37.473 Z5.200 F420.000
G1 X129.102 Y37.264 Z5.200 F420.000
G2 X129.102 Y-37.264 Z5.200 I-37.101 J-37.264 F420.000
G2 X126.591 Y-36.958 Z5.200 I-1.140 J1.102 F420.000
G2 X119.112 Y-19.782 Z5.200 I61.386 J36.948 F420.000
G1 X116.076 Y-20.695 Z5.200 F420.000
G1 X119.112 Y-19.782 Z5.200 F420.000
G2 X119.411 Y20.783 Z5.200 I68.805 J19.776 F420.000
G0 X119.411 Y20.783 Z12.200
G0 X113.443 Y22.901 Z12.200
G1 X113.443 Y22.901 Z5.200 F60.000
G2 X122.462 Y40.088 Z5.200 I64.540 J-22.908 F420.000
G1 X126.687 Y37.089 Z5.200 F420.000
G1 X122.462 Y40.088 Z5.200 F420.000
G2 X124.213 Y42.422 Z5.200 I35.821 J-25.060 F420.000
G3 X123.586 Y44.834 Z5.200 I-1.261 J0.960 F420.000
G3 X81.722 Y44.510 Z5.200 I-20.586 J-44.831 F420.000
G3 X123.585 Y-44.835 Z5.200 I21.278 J-44.510 F420.000
G3 X124.213 Y-42.422 Z5.200 I-0.633 J1.453 F420.000
G2 X113.443 Y22.901 Z5.200 I53.770 J42.415 F420.000
G1 X113.443 Y22.901 Z4.200 F60.000
G2 X122.462 Y40.088 Z4.200 I64.540 J-22.908 F420.000
G1 X126.687 Y37.089 Z4.200 F420.000
G1 X122.462 Y40.088 Z4.200 F420.000
G2 X124.213 Y42.422 Z4.200 I35.821 J-25.060 F420.000
G3 X123.586 Y44.834 Z4.200 I-1.261 J0.960 F420.000
G3 X81.722 Y44.510 Z4.200 I-20.586 J-44.831 F420.000
G3 X123.585 Y-44.835 Z4.200 I21.278 J-44.510 F420.000
G3 X124.213 Y-42.422 Z4.200 I-0.633 J1.453 F420.000
G2 X113.443 Y22.901 Z4.200 I53.770 J42.415 F420.000
G0 X113.443 Y22.901 Z12.200
G0 X116.383 Y21.702 Z12.200
G1 X116.383 Y21.702 Z4.200 F60.000
G3 X116.383 Y-21.702 Z4.200 I61.537 J-21.702 F420.000
G2 X116.076 Y-20.695 Z4.200 I172.924 J53.226 F420.000
G2 X116.383 Y21.702 Z4.200 I71.813 J20.680 F420.000
G0 X116.383 Y21.702 Z12.200
G0 X119.411 Y20.783 Z12.200
G1 X119.411 Y20.783 Z4.200 F60.000
G2 X126.687 Y37.089 Z4.200 I68.506 J-20.789 F420.000
G2 X128.853 Y37.473 Z4.200 I1.279 J-0.910 F420.000
G1 X131.392 Y40.737 Z4.200 F420.000
G3 X73.808 Y-40.180 Z4.200 I-28.399 J-40.738 F420.000
G3 X103.000 Y-49.665 Z4.200 I29.192 J40.180 F420.000
G3 X144.295 Y-27.592 Z4.200 I-0.000 J49.665 F420.000
G1 X141.658 Y-25.831 Z4.200 F420.000
G3 X140.546 Y27.420 Z4.200 I-38.652 J25.829 F420.000
G2 X140.546 Y-27.420 Z4.200 I-48.538 J-27.420 F420.000
G3 X141.658 Y-25.831 Z4.200 I-19.662 J14.956 F420.000
G1 X144.295 Y-27.592 Z4.200 F420.000
G3 X131.392 Y40.737 Z4.200 I-41.277 J27.589 F420.000
G1 X128.853 Y37.473 Z4.200 F420.000
G1 X129.102 Y37.264 Z4.200 F420.000
G2 X129.102 Y-37.264 Z4.200 I-37.101 J-37.264 F420.000
G2 X126.591 Y-36.958 Z4.200 I-1.140 J1.102 F420.000
G2 X119.112 Y-19.782 Z4.200 I61.386 J36.948 F420.000
G1 X116.076 Y-20.695 Z4.200 F420.000
G1 X119.112 Y-19.782 Z4.200 F420.000
G2 X119.411 Y20.783 Z4.200 I68.805 J19.776 F420.000
G0 X119.411 Y20.783 Z12.200
G0 X119.407 Y20.784 Z12.200
G1 X119.407 Y20.784 Z3.200 F60.000
G3 X119.112 Y-19.782 Z3.200 I68.591 J-20.784 F420.000
G1 X116.076 Y-20.695 Z3.200 F420.000
G3 X116.383 Y-21.702 Z3.200 I173.231 J52.219 F420.000
G2 X116.383 Y21.702 Z3.200 I61.537 J21.702 F420.000
G3 X116.076 Y-20.695 Z3.200 I71.506 J-21.717 F420.000
G1 X119.112 Y-19.782 Z3.200 F420.000
G3 X126.591 Y-36.958 Z3.200 I68.866 J19.773 F420.000
G1 X126.653 Y-37.043 Z3.200 F420.000
G1 X122.462 Y-40.088 Z3.200 F420.000
G3 X124.213 Y-42.422 Z3.200 I35.821 J25.060 F420.000
G2 X123.585 Y-44.835 Z3.200 I-1.261 J-0.960 F420.000
G2 X102.235 Y-49.329 Z3.200 I-20.585 J44.832 F420.000
G1 X102.228 Y-49.650 Z3.200 F420.000
G3 X144.295 Y-27.592 Z3.200 I0.798 J49.620 F420.000
G1 X141.658 Y-25.831 Z3.200 F420.000
G3 X140.546 Y27.420 Z3.200 I-38.652 J25.829 F420.000
G2 X140.546 Y-27.420 Z3.200 I-48.538 J-27.420 F420.000
G3 X141.658 Y-25.831 Z3.200 I-19.662 J14.956 F420.000
G1 X144.295 Y-27.592 Z3.200 F420.000
G3 X61.705 Y27.592 Z3.200 I-41.295 J27.592 F420.000
G3 X102.228 Y-49.650 Z3.200 I41.284 J-27.592 F420.000
G1 X102.235 Y-49.329 Z3.200 F420.000
G2 X103.031 Y49.335 Z3.200 I0.765 J49.329 F420.000
G2 X123.586 Y44.834 Z3.200 I-0.031 J-49.335 F420.000
G2 X124.213 Y42.422 Z3.200 I-0.634 J-1.453 F420.000
G3 X122.462 Y-40.088 Z3.200 I53.769 J-42.415 F420.000
G1 X126.653 Y-37.043 Z3.200 F420.000
G3 X129.102 Y-37.264 Z3.200 I1.313 J0.869 F420.000
G3 X129.102 Y37.264 Z3.200 I-37.101 J37.264 F420.000
G3 X126.591 Y36.958 Z3.200 I-1.140 J-1.102 F420.000
G3 X119.407 Y20.784 Z3.200 I61.407 J-36.958 F420.000
G0 Z12.200
(finish operation: Pocket_Shape001)
(begin operation: Drilling)
(machine: not set, mm/min)
(inactive operation)
(finish operation: Drilling)
(begin postamble)
M05
G17 G54 G90 G80 G40
M2
