(Exported by FreeCAD)
(Post Processor: linuxcnc_post)
(Output Time:2019-03-07 22:26:05.834934)
(begin preamble)
G17 G54 G40 G49 G80 G90
G21
(begin operation: T1: 125 End Mill001)
(machine: not set, mm/min)
(T1: 125 End Mill001)
M6 T1
M3 S15000
G4 P10
(finish operation: T1: 125 End Mill001)
(begin operation: Drilling)
(machine: not set, mm/min)
(Drilling)
(Begin Drilling)
G0 Z12.200
G90
G98
G81 X35.000 Y15.000 Z5.000 F120.000 R10.000
G81 X38.379 Y25.931 Z5.000 F120.000 R10.000
G81 X35.700 Y-14.500 Z5.000 F120.000 R10.000
G81 X37.208 Y-22.849 Z5.000 F120.000 R10.000
G81 X69.000 Y-0.000 Z5.000 F120.000 R10.000
G81 X68.719 Y-60.103 Z5.000 F120.000 R10.000
G81 X117.017 Y-67.041 Z5.000 F120.000 R10.000
G81 X181.495 Y-59.957 Z5.000 F120.000 R10.000
G81 X214.083 Y-46.634 Z5.000 F120.000 R10.000
G81 X233.649 Y-17.365 Z5.000 F120.000 R10.000
G81 X233.504 Y17.840 Z5.000 F120.000 R10.000
G81 X213.697 Y46.946 Z5.000 F120.000 R10.000
G81 X181.000 Y60.000 Z5.000 F120.000 R10.000
G81 X223.000 Y88.500 Z5.000 F120.000 R10.000
G81 X120.215 Y66.244 Z5.000 F120.000 R10.000
G81 X71.640 Y61.631 Z5.000 F120.000 R10.000
G81 X24.000 Y88.500 Z5.000 F120.000 R10.000
G81 X24.000 Y-88.500 Z5.000 F120.000 R10.000
G81 X223.000 Y-88.500 Z5.000 F120.000 R10.000
G80
G0 Z12.200
(finish operation: Drilling)
(begin postamble)
M05
G17 G54 G90 G80 G40
M2
