(Exported by FreeCAD)
(Post Processor: linuxcnc_post)
(Output Time:2019-03-08 22:08:51.733858)
(begin preamble)
G17 G54 G40 G49 G80 G90
G21
(begin operation: T2: 250 End Mill)
(machine: not set, mm/min)
(T2: 250 End Mill)
M6 T1
M3 S13000
G4 P10
(finish operation: T2: 250 End Mill)
(begin operation: Contour)
(machine: not set, mm/min)
(inactive operation)
(finish operation: Contour)
(begin operation: Pocket_Shape)
(machine: not set, mm/min)
(Pocket_Shape)
G0 Z12.200
G0 X138.940 Y31.545
G0 Z10.200
G1 X138.940 Y31.545 Z0.850 F60.000
G2 X130.070 Y-39.422 Z0.850 I-35.929 J-31.547 F660.000
G1 X129.683 Y-38.820 Z0.850 F660.000
G2 X125.216 Y-37.756 Z0.850 I-1.730 J2.645 F660.000
G2 X125.216 Y37.756 Z0.850 I62.784 J37.756 F660.000
G2 X130.245 Y38.369 Z0.850 I2.746 J-1.593 F660.000
G2 X130.245 Y-38.369 Z0.850 I-38.243 J-38.369 F660.000
G2 X129.683 Y-38.820 Z0.850 I-1.732 J1.586 F660.000
G1 X130.070 Y-39.422 Z0.850 F660.000
G2 X125.895 Y-41.979 Z0.850 I-25.066 J36.235 F660.000
G2 X125.895 Y41.979 Z0.850 I52.105 J41.979 F660.000
G2 X138.940 Y31.545 Z0.850 I-22.883 J-41.981 F660.000
G1 X138.940 Y31.545 Z0.000 F60.000
G2 X130.070 Y-39.422 Z0.000 I-35.929 J-31.547 F660.000
G1 X129.683 Y-38.820 Z0.000 F660.000
G2 X125.216 Y-37.756 Z0.000 I-1.730 J2.645 F660.000
G2 X125.216 Y37.756 Z0.000 I62.784 J37.756 F660.000
G2 X130.245 Y38.369 Z0.000 I2.746 J-1.593 F660.000
G2 X130.245 Y-38.369 Z0.000 I-38.243 J-38.369 F660.000
G2 X129.683 Y-38.820 Z0.000 I-1.732 J1.586 F660.000
G1 X130.070 Y-39.422 Z0.000 F660.000
G2 X125.895 Y-41.979 Z0.000 I-25.066 J36.235 F660.000
G2 X125.895 Y41.979 Z0.000 I52.105 J41.979 F660.000
G2 X138.940 Y31.545 Z0.000 I-22.883 J-41.981 F660.000
G0 Z12.200
(finish operation: Pocket_Shape)
(begin postamble)
M05
G17 G54 G90 G80 G40
M2
