(Exported by FreeCAD)
(Post Processor: linuxcnc_post)
(Output Time:2019-03-04 21:39:21.786931)
(begin preamble)
G17 G54 G40 G49 G80 G90
G21
(begin operation: T1: 125 End Mill001)
(machine: not set, mm/min)
(T1: 125 End Mill001)
M6 T1
M3 S15000
G4 P10.0
(finish operation: T1: 125 End Mill001)
(begin operation: Drilling)
(machine: not set, mm/min)
(Drilling)
(Begin Drilling)
G0 Z12.200
G90
G98
G81 X-15.000 Y35.000 Z5.000 F120.000 R10.000
G81 X-25.931 Y38.379 Z5.000 F120.000 R10.000
G81 X0.000 Y69.000 Z5.000 F120.000 R10.000
G81 X14.500 Y35.700 Z5.000 F120.000 R10.000
G81 X22.849 Y37.208 Z5.000 F120.000 R10.000
G81 X60.103 Y68.719 Z5.000 F120.000 R10.000
G81 X67.041 Y117.017 Z5.000 F120.000 R10.000
G81 X59.957 Y181.495 Z5.000 F120.000 R10.000
G81 X46.634 Y214.083 Z5.000 F120.000 R10.000
G81 X17.365 Y233.649 Z5.000 F120.000 R10.000
G81 X-17.840 Y233.504 Z5.000 F120.000 R10.000
G81 X-46.946 Y213.697 Z5.000 F120.000 R10.000
G81 X-60.000 Y181.000 Z5.000 F120.000 R10.000
G81 X-88.500 Y223.000 Z5.000 F120.000 R10.000
G81 X-66.244 Y120.215 Z5.000 F120.000 R10.000
G81 X-61.631 Y71.640 Z5.000 F120.000 R10.000
G81 X-88.500 Y24.000 Z5.000 F120.000 R10.000
G81 X88.500 Y24.000 Z5.000 F120.000 R10.000
G81 X88.500 Y223.000 Z5.000 F120.000 R10.000
G80
G0 Z12.200
(finish operation: Drilling)
(begin postamble)
M05
G17 G54 G90 G80 G40
M2
