(Exported by FreeCAD)
(Post Processor: linuxcnc_post)
(Output Time:2019-03-08 17:24:17.284459)
(begin preamble)
G17 G54 G40 G49 G80 G90
G21
(begin operation: T2: 250 End Mill)
(machine: not set, mm/min)
(T2: 250 End Mill)
M6 T1
M3 S13000
G4 P10
(finish operation: T2: 250 End Mill)
(begin operation: Contour)
(machine: not set, mm/min)
(Contour)
(Compensated Tool Path. Diameter: 6.35)
G0 Z12.200
G0 X252.314 Y95.815
G0 Z5.000
G1 X252.314 Y95.815 Z5.000 F60.000
G2 X256.172 Y86.638 Z5.000 I-9.318 J-9.317 F660.000
G1 X256.175 Y-86.500 Z5.000 F660.000
G2 X243.138 Y-99.672 Z5.000 I-13.177 J0.004 F660.000
G1 X10.000 Y-99.675 Z5.000 F660.000
G2 X-3.172 Y-86.638 Z5.000 I0.004 J13.177 F660.000
G1 X-3.175 Y86.500 Z5.000 F660.000
G2 X9.862 Y99.672 Z5.000 I13.177 J-0.004 F660.000
G1 X243.000 Y99.675 Z5.000 F660.000
G2 X252.314 Y95.815 Z5.000 I-0.004 J-13.177 F660.000
G1 X252.314 Y95.815 Z5.000 F60.000
G2 X256.172 Y86.638 Z5.000 I-9.318 J-9.317 F660.000
G1 X256.175 Y-86.500 Z5.000 F660.000
G2 X243.138 Y-99.672 Z5.000 I-13.177 J0.004 F660.000
G1 X10.000 Y-99.675 Z5.000 F660.000
G2 X-3.172 Y-86.638 Z5.000 I0.004 J13.177 F660.000
G1 X-3.175 Y86.500 Z5.000 F660.000
G2 X9.862 Y99.672 Z5.000 I13.177 J-0.004 F660.000
G1 X243.000 Y99.675 Z5.000 F660.000
G2 X252.314 Y95.815 Z5.000 I-0.004 J-13.177 F660.000
G1 X252.314 Y95.815 Z4.200 F60.000
G2 X256.172 Y86.638 Z4.200 I-9.318 J-9.317 F660.000
G1 X256.175 Y-86.500 Z4.200 F660.000
G2 X243.138 Y-99.672 Z4.200 I-13.177 J0.004 F660.000
G1 X10.000 Y-99.675 Z4.200 F660.000
G2 X-3.172 Y-86.638 Z4.200 I0.004 J13.177 F660.000
G1 X-3.175 Y86.500 Z4.200 F660.000
G2 X9.862 Y99.672 Z4.200 I13.177 J-0.004 F660.000
G1 X243.000 Y99.675 Z4.200 F660.000
G2 X252.314 Y95.815 Z4.200 I-0.004 J-13.177 F660.000
G1 X252.314 Y95.815 Z3.200 F60.000
G2 X256.172 Y86.638 Z3.200 I-9.318 J-9.317 F660.000
G1 X256.175 Y-86.500 Z3.200 F660.000
G2 X243.138 Y-99.672 Z3.200 I-13.177 J0.004 F660.000
G1 X10.000 Y-99.675 Z3.200 F660.000
G2 X-3.172 Y-86.638 Z3.200 I0.004 J13.177 F660.000
G1 X-3.175 Y86.500 Z3.200 F660.000
G2 X9.862 Y99.672 Z3.200 I13.177 J-0.004 F660.000
G1 X243.000 Y99.675 Z3.200 F660.000
G2 X252.314 Y95.815 Z3.200 I-0.004 J-13.177 F660.000
G1 X252.314 Y95.815 Z2.200 F60.000
G2 X256.172 Y86.638 Z2.200 I-9.318 J-9.317 F660.000
G1 X256.175 Y-86.500 Z2.200 F660.000
G2 X243.138 Y-99.672 Z2.200 I-13.177 J0.004 F660.000
G1 X10.000 Y-99.675 Z2.200 F660.000
G2 X-3.172 Y-86.638 Z2.200 I0.004 J13.177 F660.000
G1 X-3.175 Y86.500 Z2.200 F660.000
G2 X9.862 Y99.672 Z2.200 I13.177 J-0.004 F660.000
G1 X243.000 Y99.675 Z2.200 F660.000
G2 X252.314 Y95.815 Z2.200 I-0.004 J-13.177 F660.000
G1 X252.314 Y95.815 Z1.200 F60.000
G2 X256.172 Y86.638 Z1.200 I-9.318 J-9.317 F660.000
G1 X256.175 Y-86.500 Z1.200 F660.000
G2 X243.138 Y-99.672 Z1.200 I-13.177 J0.004 F660.000
G1 X10.000 Y-99.675 Z1.200 F660.000
G2 X-3.172 Y-86.638 Z1.200 I0.004 J13.177 F660.000
G1 X-3.175 Y86.500 Z1.200 F660.000
G2 X9.862 Y99.672 Z1.200 I13.177 J-0.004 F660.000
G1 X243.000 Y99.675 Z1.200 F660.000
G2 X252.314 Y95.815 Z1.200 I-0.004 J-13.177 F660.000
G1 X252.314 Y95.815 Z0.200 F60.000
G2 X256.172 Y86.638 Z0.200 I-9.318 J-9.317 F660.000
G1 X256.175 Y-86.500 Z0.200 F660.000
G2 X243.138 Y-99.672 Z0.200 I-13.177 J0.004 F660.000
G1 X10.000 Y-99.675 Z0.200 F660.000
G2 X-3.172 Y-86.638 Z0.200 I0.004 J13.177 F660.000
G1 X-3.175 Y86.500 Z0.200 F660.000
G2 X9.862 Y99.672 Z0.200 I13.177 J-0.004 F660.000
G1 X243.000 Y99.675 Z0.200 F660.000
G2 X252.314 Y95.815 Z0.200 I-0.004 J-13.177 F660.000
G1 X252.314 Y95.815 Z-0.800 F60.000
G2 X256.172 Y86.638 Z-0.800 I-9.318 J-9.317 F660.000
G1 X256.175 Y-86.500 Z-0.800 F660.000
G2 X243.138 Y-99.672 Z-0.800 I-13.177 J0.004 F660.000
G1 X10.000 Y-99.675 Z-0.800 F660.000
G2 X-3.172 Y-86.638 Z-0.800 I0.004 J13.177 F660.000
G1 X-3.175 Y86.500 Z-0.800 F660.000
G2 X9.862 Y99.672 Z-0.800 I13.177 J-0.004 F660.000
G1 X243.000 Y99.675 Z-0.800 F660.000
G2 X252.314 Y95.815 Z-0.800 I-0.004 J-13.177 F660.000
G1 X252.314 Y95.815 Z-1.800 F60.000
G2 X256.172 Y86.638 Z-1.800 I-9.318 J-9.317 F660.000
G1 X256.175 Y-86.500 Z-1.800 F660.000
G2 X243.138 Y-99.672 Z-1.800 I-13.177 J0.004 F660.000
G1 X10.000 Y-99.675 Z-1.800 F660.000
G2 X-3.172 Y-86.638 Z-1.800 I0.004 J13.177 F660.000
G1 X-3.175 Y86.500 Z-1.800 F660.000
G2 X9.862 Y99.672 Z-1.800 I13.177 J-0.004 F660.000
G1 X243.000 Y99.675 Z-1.800 F660.000
G2 X252.314 Y95.815 Z-1.800 I-0.004 J-13.177 F660.000
G1 X252.314 Y95.815 Z-2.000 F60.000
G2 X256.172 Y86.638 Z-2.000 I-9.318 J-9.317 F660.000
G1 X256.175 Y-86.500 Z-2.000 F660.000
G2 X243.138 Y-99.672 Z-2.000 I-13.177 J0.004 F660.000
G1 X10.000 Y-99.675 Z-2.000 F660.000
G2 X-3.172 Y-86.638 Z-2.000 I0.004 J13.177 F660.000
G1 X-3.175 Y86.500 Z-2.000 F660.000
G2 X9.862 Y99.672 Z-2.000 I13.177 J-0.004 F660.000
G1 X243.000 Y99.675 Z-2.000 F660.000
G2 X252.314 Y95.815 Z-2.000 I-0.004 J-13.177 F660.000
G0 Z12.200
(finish operation: Contour)
(begin operation: Pocket_Shape)
(machine: not set, mm/min)
(inactive operation)
(finish operation: Pocket_Shape)
(begin postamble)
M05
G17 G54 G90 G80 G40
M2
