(Exported by FreeCAD)
(Post Processor: linuxcnc_post)
(Output Time:2019-03-04 21:44:19.514684)
(begin preamble)
G17 G54 G40 G49 G80 G90
G21
(begin operation: T2: 250 End Mill)
(machine: not set, mm/min)
(T2: 250 End Mill)
M6 T1
M3 S12000
G4 P10.0
(finish operation: T2: 250 End Mill)
(begin operation: Pocket_Shape001)
(machine: not set, mm/min)
(Pocket_Shape001)
G0 Z12.200
G0 X31.545 Y138.941
G0 Z10.200
G1 X31.545 Y138.941 Z6.200 F60.000
G2 X41.979 Y125.895 Z6.200 I-31.545 J-35.926 F720.000
G2 X-0.000 Y111.088 Z6.200 I-41.979 J52.105 F720.000
G2 X-39.372 Y123.903 Z6.200 I-0.007 J66.866 F720.000
G1 X-39.210 Y124.130 Z6.200 F720.000
G3 X39.018 Y123.992 Z6.200 I39.222 J61.825 F720.000
G3 X39.653 Y128.912 Z6.200 I-1.648 J2.714 F720.000
G3 X-39.653 Y128.912 Z6.200 I-39.653 J-36.910 F720.000
G3 X-39.210 Y124.130 Z6.200 I2.270 J-2.201 F720.000
G1 X-39.372 Y123.903 Z6.200 F720.000
G2 X-41.979 Y125.895 Z6.200 I24.368 J34.608 F720.000
G2 X31.545 Y138.941 Z6.200 I41.979 J-22.880 F720.000
G1 X31.545 Y138.941 Z5.200 F60.000
G2 X41.979 Y125.895 Z5.200 I-31.545 J-35.926 F720.000
G2 X-0.000 Y111.088 Z5.200 I-41.979 J52.105 F720.000
G2 X-39.372 Y123.903 Z5.200 I-0.007 J66.866 F720.000
G1 X-39.210 Y124.130 Z5.200 F720.000
G3 X39.018 Y123.992 Z5.200 I39.222 J61.825 F720.000
G3 X39.653 Y128.912 Z5.200 I-1.648 J2.714 F720.000
G3 X-39.653 Y128.912 Z5.200 I-39.653 J-36.910 F720.000
G3 X-39.210 Y124.130 Z5.200 I2.270 J-2.201 F720.000
G1 X-39.372 Y123.903 Z5.200 F720.000
G2 X-41.979 Y125.895 Z5.200 I24.368 J34.608 F720.000
G2 X31.545 Y138.941 Z5.200 I41.979 J-22.880 F720.000
G1 X31.545 Y138.941 Z4.200 F60.000
G2 X41.979 Y125.895 Z4.200 I-31.545 J-35.926 F720.000
G2 X-0.000 Y111.088 Z4.200 I-41.979 J52.105 F720.000
G2 X-39.372 Y123.903 Z4.200 I-0.007 J66.866 F720.000
G1 X-39.210 Y124.130 Z4.200 F720.000
G3 X39.018 Y123.992 Z4.200 I39.222 J61.825 F720.000
G3 X39.653 Y128.912 Z4.200 I-1.648 J2.714 F720.000
G3 X-39.653 Y128.912 Z4.200 I-39.653 J-36.910 F720.000
G3 X-39.210 Y124.130 Z4.200 I2.270 J-2.201 F720.000
G1 X-39.372 Y123.903 Z4.200 F720.000
G2 X-41.979 Y125.895 Z4.200 I24.368 J34.608 F720.000
G2 X31.545 Y138.941 Z4.200 I41.979 J-22.880 F720.000
G1 X31.545 Y138.941 Z3.200 F60.000
G2 X41.979 Y125.895 Z3.200 I-31.545 J-35.926 F720.000
G2 X-0.000 Y111.088 Z3.200 I-41.979 J52.105 F720.000
G2 X-39.372 Y123.903 Z3.200 I-0.007 J66.866 F720.000
G1 X-39.210 Y124.130 Z3.200 F720.000
G3 X39.018 Y123.992 Z3.200 I39.222 J61.825 F720.000
G3 X39.653 Y128.912 Z3.200 I-1.648 J2.714 F720.000
G3 X-39.653 Y128.912 Z3.200 I-39.653 J-36.910 F720.000
G3 X-39.210 Y124.130 Z3.200 I2.270 J-2.201 F720.000
G1 X-39.372 Y123.903 Z3.200 F720.000
G2 X-41.979 Y125.895 Z3.200 I24.368 J34.608 F720.000
G2 X31.545 Y138.941 Z3.200 I41.979 J-22.880 F720.000
G1 X31.545 Y138.941 Z2.200 F60.000
G2 X41.979 Y125.895 Z2.200 I-31.545 J-35.926 F720.000
G2 X-0.000 Y111.088 Z2.200 I-41.979 J52.105 F720.000
G2 X-39.372 Y123.903 Z2.200 I-0.007 J66.866 F720.000
G1 X-39.210 Y124.130 Z2.200 F720.000
G3 X39.018 Y123.992 Z2.200 I39.222 J61.825 F720.000
G3 X39.653 Y128.912 Z2.200 I-1.648 J2.714 F720.000
G3 X-39.653 Y128.912 Z2.200 I-39.653 J-36.910 F720.000
G3 X-39.210 Y124.130 Z2.200 I2.270 J-2.201 F720.000
G1 X-39.372 Y123.903 Z2.200 F720.000
G2 X-41.979 Y125.895 Z2.200 I24.368 J34.608 F720.000
G2 X31.545 Y138.941 Z2.200 I41.979 J-22.880 F720.000
G1 X31.545 Y138.941 Z1.200 F60.000
G2 X41.979 Y125.895 Z1.200 I-31.545 J-35.926 F720.000
G2 X-0.000 Y111.088 Z1.200 I-41.979 J52.105 F720.000
G2 X-39.372 Y123.903 Z1.200 I-0.007 J66.866 F720.000
G1 X-39.210 Y124.130 Z1.200 F720.000
G3 X39.018 Y123.992 Z1.200 I39.222 J61.825 F720.000
G3 X39.653 Y128.912 Z1.200 I-1.648 J2.714 F720.000
G3 X-39.653 Y128.912 Z1.200 I-39.653 J-36.910 F720.000
G3 X-39.210 Y124.130 Z1.200 I2.270 J-2.201 F720.000
G1 X-39.372 Y123.903 Z1.200 F720.000
G2 X-41.979 Y125.895 Z1.200 I24.368 J34.608 F720.000
G2 X31.545 Y138.941 Z1.200 I41.979 J-22.880 F720.000
G1 X31.545 Y138.941 Z0.200 F60.000
G2 X41.979 Y125.895 Z0.200 I-31.545 J-35.926 F720.000
G2 X-0.000 Y111.088 Z0.200 I-41.979 J52.105 F720.000
G2 X-39.372 Y123.903 Z0.200 I-0.007 J66.866 F720.000
G1 X-39.210 Y124.130 Z0.200 F720.000
G3 X39.018 Y123.992 Z0.200 I39.222 J61.825 F720.000
G3 X39.653 Y128.912 Z0.200 I-1.648 J2.714 F720.000
G3 X-39.653 Y128.912 Z0.200 I-39.653 J-36.910 F720.000
G3 X-39.210 Y124.130 Z0.200 I2.270 J-2.201 F720.000
G1 X-39.372 Y123.903 Z0.200 F720.000
G2 X-41.979 Y125.895 Z0.200 I24.368 J34.608 F720.000
G2 X31.545 Y138.941 Z0.200 I41.979 J-22.880 F720.000
G1 X31.545 Y138.941 Z-0.800 F60.000
G2 X41.979 Y125.895 Z-0.800 I-31.545 J-35.926 F720.000
G2 X-0.000 Y111.088 Z-0.800 I-41.979 J52.105 F720.000
G2 X-39.372 Y123.903 Z-0.800 I-0.007 J66.866 F720.000
G1 X-39.210 Y124.130 Z-0.800 F720.000
G3 X39.018 Y123.992 Z-0.800 I39.222 J61.825 F720.000
G3 X39.653 Y128.912 Z-0.800 I-1.648 J2.714 F720.000
G3 X-39.653 Y128.912 Z-0.800 I-39.653 J-36.910 F720.000
G3 X-39.210 Y124.130 Z-0.800 I2.270 J-2.201 F720.000
G1 X-39.372 Y123.903 Z-0.800 F720.000
G2 X-41.979 Y125.895 Z-0.800 I24.368 J34.608 F720.000
G2 X31.545 Y138.941 Z-0.800 I41.979 J-22.880 F720.000
G1 X31.545 Y138.941 Z-1.800 F60.000
G2 X41.979 Y125.895 Z-1.800 I-31.545 J-35.926 F720.000
G2 X-0.000 Y111.088 Z-1.800 I-41.979 J52.105 F720.000
G2 X-39.372 Y123.903 Z-1.800 I-0.007 J66.866 F720.000
G1 X-39.210 Y124.130 Z-1.800 F720.000
G3 X39.018 Y123.992 Z-1.800 I39.222 J61.825 F720.000
G3 X39.653 Y128.912 Z-1.800 I-1.648 J2.714 F720.000
G3 X-39.653 Y128.912 Z-1.800 I-39.653 J-36.910 F720.000
G3 X-39.210 Y124.130 Z-1.800 I2.270 J-2.201 F720.000
G1 X-39.372 Y123.903 Z-1.800 F720.000
G2 X-41.979 Y125.895 Z-1.800 I24.368 J34.608 F720.000
G2 X31.545 Y138.941 Z-1.800 I41.979 J-22.880 F720.000
G1 X31.545 Y138.941 Z-2.000 F60.000
G2 X41.979 Y125.895 Z-2.000 I-31.545 J-35.926 F720.000
G2 X-0.000 Y111.088 Z-2.000 I-41.979 J52.105 F720.000
G2 X-39.372 Y123.903 Z-2.000 I-0.007 J66.866 F720.000
G1 X-39.210 Y124.130 Z-2.000 F720.000
G3 X39.018 Y123.992 Z-2.000 I39.222 J61.825 F720.000
G3 X39.653 Y128.912 Z-2.000 I-1.648 J2.714 F720.000
G3 X-39.653 Y128.912 Z-2.000 I-39.653 J-36.910 F720.000
G3 X-39.210 Y124.130 Z-2.000 I2.270 J-2.201 F720.000
G1 X-39.372 Y123.903 Z-2.000 F720.000
G2 X-41.979 Y125.895 Z-2.000 I24.368 J34.608 F720.000
G2 X31.545 Y138.941 Z-2.000 I41.979 J-22.880 F720.000
G0 Z12.200
(finish operation: Pocket_Shape001)
(begin operation: Contour)
(machine: not set, mm/min)
(Contour)
(Compensated Tool Path. Diameter: 6.35)
G0 Z12.200
G0 X95.814 Y268.315
G0 Z10.200
G1 X95.814 Y268.315 Z6.200 F60.000
G2 X99.672 Y259.138 Z6.200 I-9.318 J-9.317 F720.000
G1 X99.675 Y26.000 Z6.200 F720.000
G2 X86.638 Y12.828 Z6.200 I-13.177 J0.004 F720.000
G1 X-86.500 Y12.825 Z6.200 F720.000
G2 X-99.672 Y25.862 Z6.200 I0.004 J13.177 F720.000
G1 X-99.675 Y259.000 Z6.200 F720.000
G2 X-86.638 Y272.172 Z6.200 I13.177 J-0.004 F720.000
G1 X86.500 Y272.175 Z6.200 F720.000
G2 X95.814 Y268.315 Z6.200 I-0.004 J-13.177 F720.000
G1 X95.814 Y268.315 Z5.200 F60.000
G2 X99.672 Y259.138 Z5.200 I-9.318 J-9.317 F720.000
G1 X99.675 Y26.000 Z5.200 F720.000
G2 X86.638 Y12.828 Z5.200 I-13.177 J0.004 F720.000
G1 X-86.500 Y12.825 Z5.200 F720.000
G2 X-99.672 Y25.862 Z5.200 I0.004 J13.177 F720.000
G1 X-99.675 Y259.000 Z5.200 F720.000
G2 X-86.638 Y272.172 Z5.200 I13.177 J-0.004 F720.000
G1 X86.500 Y272.175 Z5.200 F720.000
G2 X95.814 Y268.315 Z5.200 I-0.004 J-13.177 F720.000
G1 X95.814 Y268.315 Z4.200 F60.000
G2 X99.672 Y259.138 Z4.200 I-9.318 J-9.317 F720.000
G1 X99.675 Y26.000 Z4.200 F720.000
G2 X86.638 Y12.828 Z4.200 I-13.177 J0.004 F720.000
G1 X-86.500 Y12.825 Z4.200 F720.000
G2 X-99.672 Y25.862 Z4.200 I0.004 J13.177 F720.000
G1 X-99.675 Y259.000 Z4.200 F720.000
G2 X-86.638 Y272.172 Z4.200 I13.177 J-0.004 F720.000
G1 X86.500 Y272.175 Z4.200 F720.000
G2 X95.814 Y268.315 Z4.200 I-0.004 J-13.177 F720.000
G1 X95.814 Y268.315 Z3.200 F60.000
G2 X99.672 Y259.138 Z3.200 I-9.318 J-9.317 F720.000
G1 X99.675 Y26.000 Z3.200 F720.000
G2 X86.638 Y12.828 Z3.200 I-13.177 J0.004 F720.000
G1 X-86.500 Y12.825 Z3.200 F720.000
G2 X-99.672 Y25.862 Z3.200 I0.004 J13.177 F720.000
G1 X-99.675 Y259.000 Z3.200 F720.000
G2 X-86.638 Y272.172 Z3.200 I13.177 J-0.004 F720.000
G1 X86.500 Y272.175 Z3.200 F720.000
G2 X95.814 Y268.315 Z3.200 I-0.004 J-13.177 F720.000
G1 X95.814 Y268.315 Z2.200 F60.000
G2 X99.672 Y259.138 Z2.200 I-9.318 J-9.317 F720.000
G1 X99.675 Y26.000 Z2.200 F720.000
G2 X86.638 Y12.828 Z2.200 I-13.177 J0.004 F720.000
G1 X-86.500 Y12.825 Z2.200 F720.000
G2 X-99.672 Y25.862 Z2.200 I0.004 J13.177 F720.000
G1 X-99.675 Y259.000 Z2.200 F720.000
G2 X-86.638 Y272.172 Z2.200 I13.177 J-0.004 F720.000
G1 X86.500 Y272.175 Z2.200 F720.000
G2 X95.814 Y268.315 Z2.200 I-0.004 J-13.177 F720.000
G1 X95.814 Y268.315 Z1.200 F60.000
G2 X99.672 Y259.138 Z1.200 I-9.318 J-9.317 F720.000
G1 X99.675 Y26.000 Z1.200 F720.000
G2 X86.638 Y12.828 Z1.200 I-13.177 J0.004 F720.000
G1 X-86.500 Y12.825 Z1.200 F720.000
G2 X-99.672 Y25.862 Z1.200 I0.004 J13.177 F720.000
G1 X-99.675 Y259.000 Z1.200 F720.000
G2 X-86.638 Y272.172 Z1.200 I13.177 J-0.004 F720.000
G1 X86.500 Y272.175 Z1.200 F720.000
G2 X95.814 Y268.315 Z1.200 I-0.004 J-13.177 F720.000
G1 X95.814 Y268.315 Z0.200 F60.000
G2 X99.672 Y259.138 Z0.200 I-9.318 J-9.317 F720.000
G1 X99.675 Y26.000 Z0.200 F720.000
G2 X86.638 Y12.828 Z0.200 I-13.177 J0.004 F720.000
G1 X-86.500 Y12.825 Z0.200 F720.000
G2 X-99.672 Y25.862 Z0.200 I0.004 J13.177 F720.000
G1 X-99.675 Y259.000 Z0.200 F720.000
G2 X-86.638 Y272.172 Z0.200 I13.177 J-0.004 F720.000
G1 X86.500 Y272.175 Z0.200 F720.000
G2 X95.814 Y268.315 Z0.200 I-0.004 J-13.177 F720.000
G1 X95.814 Y268.315 Z-0.800 F60.000
G2 X99.672 Y259.138 Z-0.800 I-9.318 J-9.317 F720.000
G1 X99.675 Y26.000 Z-0.800 F720.000
G2 X86.638 Y12.828 Z-0.800 I-13.177 J0.004 F720.000
G1 X-86.500 Y12.825 Z-0.800 F720.000
G2 X-99.672 Y25.862 Z-0.800 I0.004 J13.177 F720.000
G1 X-99.675 Y259.000 Z-0.800 F720.000
G2 X-86.638 Y272.172 Z-0.800 I13.177 J-0.004 F720.000
G1 X86.500 Y272.175 Z-0.800 F720.000
G2 X95.814 Y268.315 Z-0.800 I-0.004 J-13.177 F720.000
G1 X95.814 Y268.315 Z-1.800 F60.000
G2 X99.672 Y259.138 Z-1.800 I-9.318 J-9.317 F720.000
G1 X99.675 Y26.000 Z-1.800 F720.000
G2 X86.638 Y12.828 Z-1.800 I-13.177 J0.004 F720.000
G1 X-86.500 Y12.825 Z-1.800 F720.000
G2 X-99.672 Y25.862 Z-1.800 I0.004 J13.177 F720.000
G1 X-99.675 Y259.000 Z-1.800 F720.000
G2 X-86.638 Y272.172 Z-1.800 I13.177 J-0.004 F720.000
G1 X86.500 Y272.175 Z-1.800 F720.000
G2 X95.814 Y268.315 Z-1.800 I-0.004 J-13.177 F720.000
G1 X95.814 Y268.315 Z-2.000 F60.000
G2 X99.672 Y259.138 Z-2.000 I-9.318 J-9.317 F720.000
G1 X99.675 Y26.000 Z-2.000 F720.000
G2 X86.638 Y12.828 Z-2.000 I-13.177 J0.004 F720.000
G1 X-86.500 Y12.825 Z-2.000 F720.000
G2 X-99.672 Y25.862 Z-2.000 I0.004 J13.177 F720.000
G1 X-99.675 Y259.000 Z-2.000 F720.000
G2 X-86.638 Y272.172 Z-2.000 I13.177 J-0.004 F720.000
G1 X86.500 Y272.175 Z-2.000 F720.000
G2 X95.814 Y268.315 Z-2.000 I-0.004 J-13.177 F720.000
G0 Z12.200
(finish operation: Contour)
(begin postamble)
M05
G17 G54 G90 G80 G40
M2
