(Exported by FreeCAD)
(Post Processor: linuxcnc_post)
(Output Time:2019-03-07 22:58:38.696091)
(begin preamble)
G17 G54 G40 G49 G80 G90
G21
(begin operation: T2: 250 End Mill)
(machine: not set, mm/min)
(T2: 250 End Mill)
M6 T1
M3 S12000
G4 P10
(finish operation: T2: 250 End Mill)
(begin operation: Pocket_Shape001)
(machine: not set, mm/min)
(Pocket_Shape001)
G0 Z12.200
G0
G0 Z10.200
G0 Z12.200
G0
G0 Z10.200
G0 Z12.200
G0 X131.668 Y26.708
G0 Z10.200
G1 X131.668 Y26.708 Z6.200 F60.000
G2 X127.352 Y-32.202 Z6.200 I-39.652 J-26.708 F720.000
G2 X122.032 Y-19.628 Z6.200 I57.970 J31.944 F720.000
G1 X128.103 Y-17.765 Z6.200 F720.000
G2 X128.639 Y19.415 Z6.200 I57.859 J17.759 F720.000
G2 X128.639 Y-19.415 Z6.200 I-36.572 J-19.415 F720.000
G1 X128.103 Y-17.765 Z6.200 F720.000
G1 X122.032 Y-19.628 Z6.200 F720.000
G2 X127.352 Y32.202 Z6.200 I63.934 J19.625 F720.000
G2 X131.668 Y26.708 Z6.200 I-35.336 J-32.202 F720.000
G0 X131.668 Y26.708 Z12.200
G0 X128.639 Y19.415 Z12.200
G1 X128.639 Y19.415 Z6.200 F60.000
G2 X128.639 Y-19.415 Z6.200 I-36.572 J-19.415 F720.000
G2 X128.639 Y19.415 Z6.200 I57.288 J19.415 F720.000
G1 X128.639 Y19.415 Z5.200 F60.000
G2 X128.639 Y-19.415 Z5.200 I-36.572 J-19.415 F720.000
G2 X128.639 Y19.415 Z5.200 I57.288 J19.415 F720.000
G1 X128.639 Y19.415 Z5.200 F60.000
G2 X128.639 Y-19.415 Z5.200 I-36.572 J-19.415 F720.000
G1 X128.103 Y-17.765 Z5.200 F720.000
G1 X122.032 Y-19.628 Z5.200 F720.000
G2 X127.352 Y32.202 Z5.200 I63.934 J19.625 F720.000
G2 X127.352 Y-32.202 Z5.200 I-35.336 J-32.202 F720.000
G2 X122.032 Y-19.628 Z5.200 I57.970 J31.944 F720.000
G1 X128.103 Y-17.765 Z5.200 F720.000
G2 X128.639 Y19.415 Z5.200 I57.859 J17.759 F720.000
G1 X128.639 Y19.415 Z4.200 F60.000
G2 X128.639 Y-19.415 Z4.200 I-36.572 J-19.415 F720.000
G1 X128.103 Y-17.765 Z4.200 F720.000
G1 X122.032 Y-19.628 Z4.200 F720.000
G2 X127.352 Y32.202 Z4.200 I63.934 J19.625 F720.000
G2 X127.352 Y-32.202 Z4.200 I-35.336 J-32.202 F720.000
G2 X122.032 Y-19.628 Z4.200 I57.970 J31.944 F720.000
G1 X128.103 Y-17.765 Z4.200 F720.000
G2 X128.639 Y19.415 Z4.200 I57.859 J17.759 F720.000
G1 X128.639 Y19.415 Z4.200 F60.000
G2 X128.639 Y-19.415 Z4.200 I-36.572 J-19.415 F720.000
G2 X128.639 Y19.415 Z4.200 I57.288 J19.415 F720.000
G1 X128.639 Y19.415 Z3.200 F60.000
G2 X128.639 Y-19.415 Z3.200 I-36.572 J-19.415 F720.000
G2 X128.639 Y19.415 Z3.200 I57.288 J19.415 F720.000
G1 X128.639 Y19.415 Z3.200 F60.000
G2 X128.639 Y-19.415 Z3.200 I-36.572 J-19.415 F720.000
G1 X128.103 Y-17.765 Z3.200 F720.000
G1 X122.032 Y-19.628 Z3.200 F720.000
G2 X127.352 Y32.202 Z3.200 I63.934 J19.625 F720.000
G2 X127.352 Y-32.202 Z3.200 I-35.336 J-32.202 F720.000
G2 X122.032 Y-19.628 Z3.200 I57.970 J31.944 F720.000
G1 X128.103 Y-17.765 Z3.200 F720.000
G2 X128.639 Y19.415 Z3.200 I57.859 J17.759 F720.000
G1 X128.639 Y19.415 Z2.200 F60.000
G2 X128.639 Y-19.415 Z2.200 I-36.572 J-19.415 F720.000
G1 X128.103 Y-17.765 Z2.200 F720.000
G1 X122.032 Y-19.628 Z2.200 F720.000
G2 X127.352 Y32.202 Z2.200 I63.934 J19.625 F720.000
G2 X127.352 Y-32.202 Z2.200 I-35.336 J-32.202 F720.000
G2 X122.032 Y-19.628 Z2.200 I57.970 J31.944 F720.000
G1 X128.103 Y-17.765 Z2.200 F720.000
G2 X128.639 Y19.415 Z2.200 I57.859 J17.759 F720.000
G1 X128.639 Y19.415 Z2.200 F60.000
G2 X128.639 Y-19.415 Z2.200 I-36.572 J-19.415 F720.000
G2 X128.639 Y19.415 Z2.200 I57.288 J19.415 F720.000
G1 X128.639 Y19.415 Z1.200 F60.000
G2 X128.639 Y-19.415 Z1.200 I-36.572 J-19.415 F720.000
G1 X128.103 Y-17.765 Z1.200 F720.000
G1 X122.032 Y-19.628 Z1.200 F720.000
G2 X127.352 Y32.202 Z1.200 I63.934 J19.625 F720.000
G2 X127.352 Y-32.202 Z1.200 I-35.336 J-32.202 F720.000
G2 X122.032 Y-19.628 Z1.200 I57.970 J31.944 F720.000
G1 X128.103 Y-17.765 Z1.200 F720.000
G2 X128.639 Y19.415 Z1.200 I57.859 J17.759 F720.000
G1 X128.639 Y19.415 Z1.200 F60.000
G2 X128.639 Y-19.415 Z1.200 I-36.572 J-19.415 F720.000
G2 X128.639 Y19.415 Z1.200 I57.288 J19.415 F720.000
G1 X128.639 Y19.415 Z0.200 F60.000
G2 X128.639 Y-19.415 Z0.200 I-36.572 J-19.415 F720.000
G2 X128.639 Y19.415 Z0.200 I57.288 J19.415 F720.000
G1 X128.639 Y19.415 Z0.200 F60.000
G2 X128.639 Y-19.415 Z0.200 I-36.572 J-19.415 F720.000
G1 X128.103 Y-17.765 Z0.200 F720.000
G1 X122.032 Y-19.628 Z0.200 F720.000
G2 X127.352 Y32.202 Z0.200 I63.934 J19.625 F720.000
G2 X127.352 Y-32.202 Z0.200 I-35.336 J-32.202 F720.000
G2 X122.032 Y-19.628 Z0.200 I57.970 J31.944 F720.000
G1 X128.103 Y-17.765 Z0.200 F720.000
G2 X128.639 Y19.415 Z0.200 I57.859 J17.759 F720.000
G1 X128.639 Y19.415 Z-0.800 F60.000
G2 X128.639 Y-19.415 Z-0.800 I-36.572 J-19.415 F720.000
G2 X128.639 Y19.415 Z-0.800 I57.288 J19.415 F720.000
G1 X128.639 Y19.415 Z-0.800 F60.000
G2 X128.639 Y-19.415 Z-0.800 I-36.572 J-19.415 F720.000
G1 X128.103 Y-17.765 Z-0.800 F720.000
G1 X122.032 Y-19.628 Z-0.800 F720.000
G2 X127.352 Y32.202 Z-0.800 I63.934 J19.625 F720.000
G2 X127.352 Y-32.202 Z-0.800 I-35.336 J-32.202 F720.000
G2 X122.032 Y-19.628 Z-0.800 I57.970 J31.944 F720.000
G1 X128.103 Y-17.765 Z-0.800 F720.000
G2 X128.639 Y19.415 Z-0.800 I57.859 J17.759 F720.000
G1 X128.639 Y19.415 Z-1.800 F60.000
G2 X128.639 Y-19.415 Z-1.800 I-36.572 J-19.415 F720.000
G2 X128.639 Y19.415 Z-1.800 I57.288 J19.415 F720.000
G1 X128.639 Y19.415 Z-1.800 F60.000
G2 X128.639 Y-19.415 Z-1.800 I-36.572 J-19.415 F720.000
G1 X128.103 Y-17.765 Z-1.800 F720.000
G1 X122.032 Y-19.628 Z-1.800 F720.000
G2 X127.352 Y32.202 Z-1.800 I63.934 J19.625 F720.000
G2 X127.352 Y-32.202 Z-1.800 I-35.336 J-32.202 F720.000
G2 X122.032 Y-19.628 Z-1.800 I57.970 J31.944 F720.000
G1 X128.103 Y-17.765 Z-1.800 F720.000
G2 X128.639 Y19.415 Z-1.800 I57.859 J17.759 F720.000
G1 X128.639 Y19.415 Z-2.000 F60.000
G2 X128.639 Y-19.415 Z-2.000 I-36.572 J-19.415 F720.000
G1 X128.103 Y-17.765 Z-2.000 F720.000
G1 X122.032 Y-19.628 Z-2.000 F720.000
G2 X127.352 Y32.202 Z-2.000 I63.934 J19.625 F720.000
G2 X127.352 Y-32.202 Z-2.000 I-35.336 J-32.202 F720.000
G2 X122.032 Y-19.628 Z-2.000 I57.970 J31.944 F720.000
G1 X128.103 Y-17.765 Z-2.000 F720.000
G2 X128.639 Y19.415 Z-2.000 I57.859 J17.759 F720.000
G1 X128.639 Y19.415 Z-2.000 F60.000
G2 X128.639 Y-19.415 Z-2.000 I-36.572 J-19.415 F720.000
G2 X128.639 Y19.415 Z-2.000 I57.288 J19.415 F720.000
G0 Z12.200
(finish operation: Pocket_Shape001)
(begin operation: Contour)
(machine: not set, mm/min)
(inactive operation)
(finish operation: Contour)
(begin postamble)
M05
G17 G54 G90 G80 G40
M2
