(Exported by FreeCAD)
(Post Processor: linuxcnc_post)
(Output Time:2019-03-04 21:39:51.563669)
(begin preamble)
G17 G54 G40 G49 G80 G90
G21
(begin operation: T1: 125 End Mill)
(machine: not set, mm/min)
(T1: 125 End Mill)
M6 T1
M3 S13000
G4 P10.0
(finish operation: T1: 125 End Mill)
(begin operation: Pocket_Shape)
(machine: not set, mm/min)
(Pocket_Shape)
G0 Z10.000
G0 X35.114 Y138.117
G0 Z8.000
G1 X35.114 Y138.117 Z6.200 F60.000
G2 X49.650 Y102.228 Z6.200 I-35.118 J-35.112 F420.000
G1 X49.329 Y102.235 Z6.200 F420.000
G1 X49.650 Y102.228 Z6.200 F420.000
G1 X49.626 Y101.050 Z6.200 F420.000
G2 X-49.626 Y104.950 Z6.200 I-49.626 J1.950 F420.000
G2 X35.114 Y138.117 Z6.200 I49.622 J-1.945 F420.000
G0 X35.114 Y138.117 Z10.000
G0 X34.149 Y136.987 Z10.000
G1 X34.149 Y136.987 Z6.200 F60.000
G2 X43.306 Y126.828 Z6.200 I-34.149 J-39.987 F420.000
G2 X42.947 Y124.620 Z6.200 I-1.288 J-0.924 F420.000
G1 X42.409 Y124.231 Z6.200 F420.000
G2 X-42.422 Y124.213 Z6.200 I-42.426 J53.718 F420.000
G3 X-44.834 Y123.586 Z6.200 I-0.960 J-1.261 F420.000
G3 X-49.335 Y103.031 Z6.200 I44.834 J-20.586 F420.000
G3 X49.329 Y102.235 Z6.200 I49.335 J-0.031 F420.000
G3 X44.835 Y123.585 Z6.200 I-49.326 J0.765 F420.000
G3 X42.422 Y124.213 Z6.200 I-1.453 J-0.633 F420.000
G1 X42.409 Y124.231 Z6.200 F420.000
G2 X-42.947 Y124.620 Z6.200 I-42.415 J57.750 F420.000
G2 X-43.306 Y126.828 Z6.200 I0.929 J1.284 F420.000
G2 X34.149 Y136.987 Z6.200 I43.306 J-29.828 F420.000
G1 X34.149 Y136.987 Z5.200 F60.000
G2 X43.306 Y126.828 Z5.200 I-34.149 J-39.987 F420.000
G2 X42.947 Y124.620 Z5.200 I-1.288 J-0.924 F420.000
G1 X42.409 Y124.231 Z5.200 F420.000
G2 X-42.422 Y124.213 Z5.200 I-42.426 J53.718 F420.000
G3 X-44.834 Y123.586 Z5.200 I-0.960 J-1.261 F420.000
G3 X-49.335 Y103.031 Z5.200 I44.834 J-20.586 F420.000
G3 X49.329 Y102.235 Z5.200 I49.335 J-0.031 F420.000
G3 X44.835 Y123.585 Z5.200 I-49.326 J0.765 F420.000
G3 X42.422 Y124.213 Z5.200 I-1.453 J-0.633 F420.000
G1 X42.409 Y124.231 Z5.200 F420.000
G2 X-42.947 Y124.620 Z5.200 I-42.415 J57.750 F420.000
G2 X-43.306 Y126.828 Z5.200 I0.929 J1.284 F420.000
G2 X34.149 Y136.987 Z5.200 I43.306 J-29.828 F420.000
G0 X34.149 Y136.987 Z10.000
G0 X35.199 Y138.031 Z10.000
G1 X35.199 Y138.031 Z5.200 F60.000
G2 X49.650 Y102.228 Z5.200 I-35.203 J-35.027 F420.000
G1 X49.329 Y102.235 Z5.200 F420.000
G1 X49.650 Y102.228 Z5.200 F420.000
G1 X49.626 Y101.050 Z5.200 F420.000
G2 X-49.626 Y104.950 Z5.200 I-49.626 J1.950 F420.000
G2 X35.199 Y138.031 Z5.200 I49.622 J-1.945 F420.000
G0 X35.199 Y138.031 Z10.000
G0 X35.203 Y138.035 Z10.000
G1 X35.203 Y138.035 Z4.200 F60.000
G2 X49.665 Y103.000 Z4.200 I-35.198 J-35.031 F420.000
G2 X43.332 Y78.733 Z4.200 I-49.665 J0.000 F420.000
G2 X-43.592 Y126.781 Z4.200 I-43.331 J24.262 F420.000
G1 X-43.395 Y126.670 Z4.200 F420.000
G1 X-43.306 Y126.828 Z4.200 F420.000
G2 X43.306 Y126.828 Z4.200 I43.306 J-29.828 F420.000
G2 X42.947 Y124.620 Z4.200 I-1.288 J-0.924 F420.000
G2 X-42.409 Y124.231 Z4.200 I-42.941 J57.360 F420.000
G2 X-43.209 Y124.859 Z4.200 I2.394 J3.875 F420.000
G2 X-43.395 Y126.670 Z4.200 I1.162 J1.034 F420.000
G1 X-43.592 Y126.781 Z4.200 F420.000
G2 X35.203 Y138.035 Z4.200 I43.598 J-23.777 F420.000
G0 X35.203 Y138.035 Z10.000
G0 X42.626 Y124.345 Z10.000
G1 X42.626 Y124.345 Z4.200 F60.000
G3 X42.422 Y124.213 Z4.200 I0.756 J-1.393 F420.000
G2 X-42.422 Y124.213 Z4.200 I-42.422 J53.789 F420.000
G3 X-44.834 Y123.586 Z4.200 I-0.960 J-1.261 F420.000
G3 X-44.510 Y81.722 Z4.200 I44.831 J-20.586 F420.000
G3 X44.835 Y123.585 Z4.200 I44.510 J21.278 F420.000
G3 X42.626 Y124.345 Z4.200 I-1.453 J-0.633 F420.000
G0 X42.626 Y124.345 Z10.000
G0 X-42.409 Y124.231 Z10.000
G1 X-42.409 Y124.231 Z4.200 F60.000
G1 X-42.422 Y124.213 Z4.200 F420.000
G1 X-42.409 Y124.231 Z4.200 F420.000
G1 X-42.409 Y124.231 Z3.200 F60.000
G2 X-43.209 Y124.859 Z3.200 I2.394 J3.875 F420.000
G2 X-43.395 Y126.670 Z3.200 I1.162 J1.034 F420.000
G1 X-43.592 Y126.781 Z3.200 F420.000
G2 X49.665 Y103.000 Z3.200 I43.598 J-23.777 F420.000
G2 X43.332 Y78.733 Z3.200 I-49.665 J0.000 F420.000
G2 X-43.592 Y126.781 Z3.200 I-43.331 J24.262 F420.000
G1 X-43.395 Y126.670 Z3.200 F420.000
G1 X-43.306 Y126.828 Z3.200 F420.000
G2 X43.306 Y126.828 Z3.200 I43.306 J-29.828 F420.000
G2 X42.947 Y124.620 Z3.200 I-1.288 J-0.924 F420.000
G2 X-42.409 Y124.231 Z3.200 I-42.941 J57.360 F420.000
G1 X-42.409 Y124.231 Z3.200 F60.000
G1 X-42.422 Y124.213 Z3.200 F420.000
G1 X-42.409 Y124.231 Z3.200 F420.000
G0 X-42.409 Y124.231 Z10.000
G0 X-42.422 Y124.213 Z10.000
G1 X-42.422 Y124.213 Z3.200 F60.000
G3 X-44.834 Y123.586 Z3.200 I-0.960 J-1.261 F420.000
G3 X-44.510 Y81.722 Z3.200 I44.831 J-20.586 F420.000
G3 X44.835 Y123.585 Z3.200 I44.510 J21.278 F420.000
G3 X42.422 Y124.213 Z3.200 I-1.453 J-0.633 F420.000
G2 X-42.422 Y124.213 Z3.200 I-42.422 J53.789 F420.000
G0 Z10.000
(finish operation: Pocket_Shape)
(begin postamble)
M05
G17 G54 G90 G80 G40
M2
