(Exported by FreeCAD)
(Post Processor: linuxcnc_post)
(Output Time:2019-03-07 22:58:00.736598)
(begin preamble)
G17 G54 G40 G49 G80 G90
G21
(begin operation: T1: 125 End Mill)
(machine: not set, mm/min)
(T1: 125 End Mill)
M6 T1
M3 S13000
G4 P10
(finish operation: T1: 125 End Mill)
(begin operation: Pocket_Shape)
(machine: not set, mm/min)
(Pocket_Shape)
G0 Z10.000
G0 X117.716 Y-66.342
G0 Z8.000
G1 X117.716 Y-66.342 Z6.200 F60.000
G2 X117.017 Y-68.030 Z6.200 I-0.699 J-0.699 F420.000
G2 X117.017 Y-66.053 Z6.200 I0.000 J0.989 F420.000
G2 X117.716 Y-66.342 Z6.200 I0.000 J-0.989 F420.000
G1 X117.716 Y-66.342 Z5.200 F60.000
G2 X117.017 Y-68.030 Z5.200 I-0.699 J-0.699 F420.000
G2 X117.017 Y-66.053 Z5.200 I0.000 J0.989 F420.000
G2 X117.716 Y-66.342 Z5.200 I0.000 J-0.989 F420.000
G1 X117.716 Y-66.342 Z4.200 F60.000
G2 X117.017 Y-68.030 Z4.200 I-0.699 J-0.699 F420.000
G2 X117.017 Y-66.053 Z4.200 I0.000 J0.989 F420.000
G2 X117.716 Y-66.342 Z4.200 I0.000 J-0.989 F420.000
G1 X117.716 Y-66.342 Z3.200 F60.000
G2 X117.017 Y-68.030 Z3.200 I-0.699 J-0.699 F420.000
G2 X117.017 Y-66.053 Z3.200 I0.000 J0.989 F420.000
G2 X117.716 Y-66.342 Z3.200 I0.000 J-0.989 F420.000
G0 Z10.000
G0 X138.117 Y35.111
G0 Z8.000
G1 X138.117 Y35.111 Z6.200 F60.000
G3 X126.781 Y43.592 Z6.200 I-35.113 J-35.116 F420.000
G1 X126.670 Y43.395 Z6.200 F420.000
G3 X124.620 Y42.947 Z6.200 I-0.778 J-1.353 F420.000
G3 X124.620 Y-42.947 Z6.200 I57.380 J-42.947 F420.000
G3 X126.828 Y-43.306 Z6.200 I1.284 J0.929 F420.000
G3 X126.828 Y43.306 Z6.200 I-29.828 J43.306 F420.000
G1 X126.670 Y43.395 Z6.200 F420.000
G1 X126.781 Y43.592 Z6.200 F420.000
G3 X78.733 Y-43.332 Z6.200 I-23.786 J-43.594 F420.000
G3 X101.082 Y-49.627 Z6.200 I24.262 J43.320 F420.000
G1 X101.114 Y-48.011 Z6.200 F420.000
G1 X101.145 Y-48.011 Z6.200 F420.000
G1 X101.177 Y-46.395 Z6.200 F420.000
G3 X120.631 Y-42.950 Z6.200 I1.828 J46.330 F420.000
G2 X120.631 Y42.950 Z6.200 I61.371 J42.950 F420.000
G3 X85.232 Y-42.896 Z6.200 I-17.633 J-42.951 F420.000
G3 X101.177 Y-46.395 Z6.200 I17.768 J42.896 F420.000
G1 X101.145 Y-48.011 Z6.200 F420.000
G3 X123.120 Y-43.632 Z6.200 I1.858 J48.000 F420.000
G2 X123.120 Y43.632 Z6.200 I58.858 J43.632 F420.000
G3 X59.367 Y20.118 Z6.200 I-20.120 J-43.632 F420.000
G3 X82.884 Y-43.634 Z6.200 I43.633 J-20.118 F420.000
G3 X101.114 Y-48.011 Z6.200 I20.116 J43.634 F420.000
G1 X101.082 Y-49.627 Z6.200 F420.000
G3 X138.117 Y35.111 Z6.200 I1.922 J49.622 F420.000
G0 X138.117 Y35.111 Z10.000
G0 X120.631 Y42.950 Z10.000
G1 X120.631 Y42.950 Z6.200 F60.000
G3 X120.631 Y-42.950 Z6.200 I61.371 J-42.950 F420.000
G2 X85.232 Y-42.896 Z6.200 I-17.635 J42.932 F420.000
G2 X120.631 Y42.950 Z6.200 I17.767 J42.896 F420.000
G1 X120.631 Y42.950 Z5.200 F60.000
G3 X85.232 Y-42.896 Z5.200 I-17.633 J-42.951 F420.000
G3 X101.177 Y-46.395 Z5.200 I17.768 J42.896 F420.000
G1 X101.145 Y-48.011 Z5.200 F420.000
G3 X123.120 Y-43.632 Z5.200 I1.858 J48.000 F420.000
G2 X123.120 Y43.632 Z5.200 I58.858 J43.632 F420.000
G3 X59.367 Y20.118 Z5.200 I-20.120 J-43.632 F420.000
G3 X82.884 Y-43.634 Z5.200 I43.633 J-20.118 F420.000
G3 X101.114 Y-48.011 Z5.200 I20.116 J43.634 F420.000
G1 X101.082 Y-49.627 Z5.200 F420.000
G3 X126.781 Y43.592 Z5.200 I1.922 J49.622 F420.000
G1 X126.670 Y43.395 Z5.200 F420.000
G3 X124.620 Y42.947 Z5.200 I-0.778 J-1.353 F420.000
G3 X124.620 Y-42.947 Z5.200 I57.380 J-42.947 F420.000
G3 X126.828 Y-43.306 Z5.200 I1.284 J0.929 F420.000
G3 X126.828 Y43.306 Z5.200 I-29.828 J43.306 F420.000
G1 X126.670 Y43.395 Z5.200 F420.000
G1 X126.781 Y43.592 Z5.200 F420.000
G3 X78.733 Y-43.332 Z5.200 I-23.786 J-43.594 F420.000
G3 X101.082 Y-49.627 Z5.200 I24.262 J43.320 F420.000
G1 X101.114 Y-48.011 Z5.200 F420.000
G1 X101.145 Y-48.011 Z5.200 F420.000
G1 X101.177 Y-46.395 Z5.200 F420.000
G3 X120.631 Y-42.950 Z5.200 I1.828 J46.330 F420.000
G2 X120.631 Y42.950 Z5.200 I61.371 J42.950 F420.000
G1 X120.631 Y42.950 Z5.200 F60.000
G3 X120.631 Y-42.950 Z5.200 I61.371 J-42.950 F420.000
G2 X85.232 Y-42.896 Z5.200 I-17.635 J42.932 F420.000
G2 X120.631 Y42.950 Z5.200 I17.767 J42.896 F420.000
G1 X120.631 Y42.950 Z4.200 F60.000
G3 X85.232 Y-42.896 Z4.200 I-17.633 J-42.951 F420.000
G3 X101.177 Y-46.395 Z4.200 I17.768 J42.896 F420.000
G1 X101.145 Y-48.011 Z4.200 F420.000
G3 X123.120 Y-43.632 Z4.200 I1.858 J48.000 F420.000
G2 X123.120 Y43.632 Z4.200 I58.858 J43.632 F420.000
G3 X59.367 Y20.118 Z4.200 I-20.120 J-43.632 F420.000
G3 X82.884 Y-43.634 Z4.200 I43.633 J-20.118 F420.000
G3 X101.114 Y-48.011 Z4.200 I20.116 J43.634 F420.000
G1 X101.082 Y-49.627 Z4.200 F420.000
G3 X126.781 Y43.592 Z4.200 I1.922 J49.622 F420.000
G1 X126.670 Y43.395 Z4.200 F420.000
G3 X124.620 Y42.947 Z4.200 I-0.778 J-1.353 F420.000
G3 X124.620 Y-42.947 Z4.200 I57.380 J-42.947 F420.000
G3 X126.828 Y-43.306 Z4.200 I1.284 J0.929 F420.000
G3 X126.828 Y43.306 Z4.200 I-29.828 J43.306 F420.000
G1 X126.670 Y43.395 Z4.200 F420.000
G1 X126.781 Y43.592 Z4.200 F420.000
G3 X78.733 Y-43.332 Z4.200 I-23.786 J-43.594 F420.000
G3 X101.082 Y-49.627 Z4.200 I24.262 J43.320 F420.000
G1 X101.114 Y-48.011 Z4.200 F420.000
G1 X101.145 Y-48.011 Z4.200 F420.000
G1 X101.177 Y-46.395 Z4.200 F420.000
G3 X120.631 Y-42.950 Z4.200 I1.828 J46.330 F420.000
G2 X120.631 Y42.950 Z4.200 I61.371 J42.950 F420.000
G1 X120.631 Y42.950 Z4.200 F60.000
G3 X120.631 Y-42.950 Z4.200 I61.371 J-42.950 F420.000
G2 X85.232 Y-42.896 Z4.200 I-17.635 J42.932 F420.000
G2 X120.631 Y42.950 Z4.200 I17.767 J42.896 F420.000
G1 X120.631 Y42.950 Z3.200 F60.000
G3 X85.232 Y-42.896 Z3.200 I-17.633 J-42.951 F420.000
G3 X101.177 Y-46.395 Z3.200 I17.768 J42.896 F420.000
G1 X101.145 Y-48.011 Z3.200 F420.000
G3 X123.120 Y-43.632 Z3.200 I1.858 J48.000 F420.000
G2 X123.120 Y43.632 Z3.200 I58.858 J43.632 F420.000
G3 X59.367 Y20.118 Z3.200 I-20.120 J-43.632 F420.000
G3 X82.884 Y-43.634 Z3.200 I43.633 J-20.118 F420.000
G3 X101.114 Y-48.011 Z3.200 I20.116 J43.634 F420.000
G1 X101.082 Y-49.627 Z3.200 F420.000
G3 X126.781 Y43.592 Z3.200 I1.922 J49.622 F420.000
G1 X126.670 Y43.395 Z3.200 F420.000
G3 X124.620 Y42.947 Z3.200 I-0.778 J-1.353 F420.000
G3 X124.620 Y-42.947 Z3.200 I57.380 J-42.947 F420.000
G3 X126.828 Y-43.306 Z3.200 I1.284 J0.929 F420.000
G3 X126.828 Y43.306 Z3.200 I-29.828 J43.306 F420.000
G1 X126.670 Y43.395 Z3.200 F420.000
G1 X126.781 Y43.592 Z3.200 F420.000
G3 X78.733 Y-43.332 Z3.200 I-23.786 J-43.594 F420.000
G3 X101.082 Y-49.627 Z3.200 I24.262 J43.320 F420.000
G1 X101.114 Y-48.011 Z3.200 F420.000
G1 X101.145 Y-48.011 Z3.200 F420.000
G1 X101.177 Y-46.395 Z3.200 F420.000
G3 X120.631 Y-42.950 Z3.200 I1.828 J46.330 F420.000
G2 X120.631 Y42.950 Z3.200 I61.371 J42.950 F420.000
G1 X120.631 Y42.950 Z3.200 F60.000
G3 X120.631 Y-42.950 Z3.200 I61.371 J-42.950 F420.000
G2 X85.232 Y-42.896 Z3.200 I-17.635 J42.932 F420.000
G2 X120.631 Y42.950 Z3.200 I17.767 J42.896 F420.000
G0 Z10.000
(finish operation: Pocket_Shape)
(begin postamble)
M05
G17 G54 G90 G80 G40
M2
