(Exported by FreeCAD)
(Post Processor: linuxcnc_post)
(Output Time:2019-03-08 22:08:30.212067)
(begin preamble)
G17 G54 G40 G49 G80 G90
G21
(begin operation: T2: 250 End Mill)
(machine: not set, mm/min)
(T2: 250 End Mill)
M6 T1
M3 S13000
G4 P10
(finish operation: T2: 250 End Mill)
(begin operation: Contour)
(machine: not set, mm/min)
(Contour)
(Compensated Tool Path. Diameter: 6.35)
G0 Z12.200
G0 X226.813 Y75.313
G0 Z5.000
G1 X226.813 Y75.313 Z5.000 F60.000
G2 X251.175 Y16.550 Z5.000 I-58.814 J-58.814 F660.000
G1 X251.175 Y-16.500 Z5.000 F660.000
G2 X168.050 Y-99.675 Z5.000 I-83.175 J0.001 F660.000
G1 X80.000 Y-99.675 Z5.000 F660.000
G2 X-3.175 Y-16.550 Z5.000 I0.001 J83.175 F660.000
G1 X-3.175 Y16.500 Z5.000 F660.000
G2 X79.950 Y99.675 Z5.000 I83.175 J-0.001 F660.000
G1 X168.000 Y99.675 Z5.000 F660.000
G2 X226.813 Y75.313 Z5.000 I-0.001 J-83.175 F660.000
G1 X226.813 Y75.313 Z5.000 F60.000
G2 X251.175 Y16.550 Z5.000 I-58.814 J-58.814 F660.000
G1 X251.175 Y-16.500 Z5.000 F660.000
G2 X168.050 Y-99.675 Z5.000 I-83.175 J0.001 F660.000
G1 X80.000 Y-99.675 Z5.000 F660.000
G2 X-3.175 Y-16.550 Z5.000 I0.001 J83.175 F660.000
G1 X-3.175 Y16.500 Z5.000 F660.000
G2 X79.950 Y99.675 Z5.000 I83.175 J-0.001 F660.000
G1 X168.000 Y99.675 Z5.000 F660.000
G2 X226.813 Y75.313 Z5.000 I-0.001 J-83.175 F660.000
G1 X226.813 Y75.313 Z4.200 F60.000
G2 X251.175 Y16.550 Z4.200 I-58.814 J-58.814 F660.000
G1 X251.175 Y-16.500 Z4.200 F660.000
G2 X168.050 Y-99.675 Z4.200 I-83.175 J0.001 F660.000
G1 X80.000 Y-99.675 Z4.200 F660.000
G2 X-3.175 Y-16.550 Z4.200 I0.001 J83.175 F660.000
G1 X-3.175 Y16.500 Z4.200 F660.000
G2 X79.950 Y99.675 Z4.200 I83.175 J-0.001 F660.000
G1 X168.000 Y99.675 Z4.200 F660.000
G2 X226.813 Y75.313 Z4.200 I-0.001 J-83.175 F660.000
G1 X226.813 Y75.313 Z3.200 F60.000
G2 X251.175 Y16.550 Z3.200 I-58.814 J-58.814 F660.000
G1 X251.175 Y-16.500 Z3.200 F660.000
G2 X168.050 Y-99.675 Z3.200 I-83.175 J0.001 F660.000
G1 X80.000 Y-99.675 Z3.200 F660.000
G2 X-3.175 Y-16.550 Z3.200 I0.001 J83.175 F660.000
G1 X-3.175 Y16.500 Z3.200 F660.000
G2 X79.950 Y99.675 Z3.200 I83.175 J-0.001 F660.000
G1 X168.000 Y99.675 Z3.200 F660.000
G2 X226.813 Y75.313 Z3.200 I-0.001 J-83.175 F660.000
G1 X226.813 Y75.313 Z2.200 F60.000
G2 X251.175 Y16.550 Z2.200 I-58.814 J-58.814 F660.000
G1 X251.175 Y-16.500 Z2.200 F660.000
G2 X168.050 Y-99.675 Z2.200 I-83.175 J0.001 F660.000
G1 X80.000 Y-99.675 Z2.200 F660.000
G2 X-3.175 Y-16.550 Z2.200 I0.001 J83.175 F660.000
G1 X-3.175 Y16.500 Z2.200 F660.000
G2 X79.950 Y99.675 Z2.200 I83.175 J-0.001 F660.000
G1 X168.000 Y99.675 Z2.200 F660.000
G2 X226.813 Y75.313 Z2.200 I-0.001 J-83.175 F660.000
G1 X226.813 Y75.313 Z1.200 F60.000
G2 X251.175 Y16.550 Z1.200 I-58.814 J-58.814 F660.000
G1 X251.175 Y-16.500 Z1.200 F660.000
G2 X168.050 Y-99.675 Z1.200 I-83.175 J0.001 F660.000
G1 X80.000 Y-99.675 Z1.200 F660.000
G2 X-3.175 Y-16.550 Z1.200 I0.001 J83.175 F660.000
G1 X-3.175 Y16.500 Z1.200 F660.000
G2 X79.950 Y99.675 Z1.200 I83.175 J-0.001 F660.000
G1 X168.000 Y99.675 Z1.200 F660.000
G2 X226.813 Y75.313 Z1.200 I-0.001 J-83.175 F660.000
G1 X226.813 Y75.313 Z0.200 F60.000
G2 X251.175 Y16.550 Z0.200 I-58.814 J-58.814 F660.000
G1 X251.175 Y-16.500 Z0.200 F660.000
G2 X168.050 Y-99.675 Z0.200 I-83.175 J0.001 F660.000
G1 X80.000 Y-99.675 Z0.200 F660.000
G2 X-3.175 Y-16.550 Z0.200 I0.001 J83.175 F660.000
G1 X-3.175 Y16.500 Z0.200 F660.000
G2 X79.950 Y99.675 Z0.200 I83.175 J-0.001 F660.000
G1 X168.000 Y99.675 Z0.200 F660.000
G2 X226.813 Y75.313 Z0.200 I-0.001 J-83.175 F660.000
G1 X226.813 Y75.313 Z-0.800 F60.000
G2 X251.175 Y16.550 Z-0.800 I-58.814 J-58.814 F660.000
G1 X251.175 Y-16.500 Z-0.800 F660.000
G2 X168.050 Y-99.675 Z-0.800 I-83.175 J0.001 F660.000
G1 X80.000 Y-99.675 Z-0.800 F660.000
G2 X-3.175 Y-16.550 Z-0.800 I0.001 J83.175 F660.000
G1 X-3.175 Y16.500 Z-0.800 F660.000
G2 X79.950 Y99.675 Z-0.800 I83.175 J-0.001 F660.000
G1 X168.000 Y99.675 Z-0.800 F660.000
G2 X226.813 Y75.313 Z-0.800 I-0.001 J-83.175 F660.000
G1 X226.813 Y75.313 Z-1.800 F60.000
G2 X251.175 Y16.550 Z-1.800 I-58.814 J-58.814 F660.000
G1 X251.175 Y-16.500 Z-1.800 F660.000
G2 X168.050 Y-99.675 Z-1.800 I-83.175 J0.001 F660.000
G1 X80.000 Y-99.675 Z-1.800 F660.000
G2 X-3.175 Y-16.550 Z-1.800 I0.001 J83.175 F660.000
G1 X-3.175 Y16.500 Z-1.800 F660.000
G2 X79.950 Y99.675 Z-1.800 I83.175 J-0.001 F660.000
G1 X168.000 Y99.675 Z-1.800 F660.000
G2 X226.813 Y75.313 Z-1.800 I-0.001 J-83.175 F660.000
G1 X226.813 Y75.313 Z-2.000 F60.000
G2 X251.175 Y16.550 Z-2.000 I-58.814 J-58.814 F660.000
G1 X251.175 Y-16.500 Z-2.000 F660.000
G2 X168.050 Y-99.675 Z-2.000 I-83.175 J0.001 F660.000
G1 X80.000 Y-99.675 Z-2.000 F660.000
G2 X-3.175 Y-16.550 Z-2.000 I0.001 J83.175 F660.000
G1 X-3.175 Y16.500 Z-2.000 F660.000
G2 X79.950 Y99.675 Z-2.000 I83.175 J-0.001 F660.000
G1 X168.000 Y99.675 Z-2.000 F660.000
G2 X226.813 Y75.313 Z-2.000 I-0.001 J-83.175 F660.000
G0 Z12.200
(finish operation: Contour)
(begin operation: Pocket_Shape)
(machine: not set, mm/min)
(inactive operation)
(finish operation: Pocket_Shape)
(begin postamble)
M05
G17 G54 G90 G80 G40
M2
