(Exported by FreeCAD)
(Post Processor: linuxcnc_post)
(Output Time:2019-03-09 13:24:34.366581)
(begin preamble)
G17 G54 G40 G49 G80 G90
G21
(begin operation: T2: 250 End Mill)
(machine: not set, mm/min)
(T2: 250 End Mill)
M6 T1
M3 S13000
G4 P5
(finish operation: T2: 250 End Mill)
(begin operation: Contour)
(machine: not set, mm/min)
(inactive operation)
(finish operation: Contour)
(begin operation: Pocket_Shape)
(machine: not set, mm/min)
(Pocket_Shape)
G0 Z12.200
G0 X138.940 Y31.545
G0 Z10.200
G1 X138.940 Y31.545 Z6.200 F60.000
G2 X130.070 Y-39.422 Z6.200 I-35.929 J-31.547 F660.000
G1 X129.683 Y-38.820 Z6.200 F660.000
G2 X125.216 Y-37.756 Z6.200 I-1.730 J2.645 F660.000
G2 X125.216 Y37.756 Z6.200 I62.784 J37.756 F660.000
G2 X130.245 Y38.369 Z6.200 I2.746 J-1.593 F660.000
G2 X130.245 Y-38.369 Z6.200 I-38.243 J-38.369 F660.000
G2 X129.683 Y-38.820 Z6.200 I-1.732 J1.586 F660.000
G1 X130.070 Y-39.422 Z6.200 F660.000
G2 X125.895 Y-41.979 Z6.200 I-25.066 J36.235 F660.000
G2 X125.895 Y41.979 Z6.200 I52.105 J41.979 F660.000
G2 X138.940 Y31.545 Z6.200 I-22.883 J-41.981 F660.000
G1 X138.940 Y31.545 Z5.200 F60.000
G2 X130.070 Y-39.422 Z5.200 I-35.929 J-31.547 F660.000
G1 X129.683 Y-38.820 Z5.200 F660.000
G2 X125.216 Y-37.756 Z5.200 I-1.730 J2.645 F660.000
G2 X125.216 Y37.756 Z5.200 I62.784 J37.756 F660.000
G2 X130.245 Y38.369 Z5.200 I2.746 J-1.593 F660.000
G2 X130.245 Y-38.369 Z5.200 I-38.243 J-38.369 F660.000
G2 X129.683 Y-38.820 Z5.200 I-1.732 J1.586 F660.000
G1 X130.070 Y-39.422 Z5.200 F660.000
G2 X125.895 Y-41.979 Z5.200 I-25.066 J36.235 F660.000
G2 X125.895 Y41.979 Z5.200 I52.105 J41.979 F660.000
G2 X138.940 Y31.545 Z5.200 I-22.883 J-41.981 F660.000
G1 X138.940 Y31.545 Z4.200 F60.000
G2 X130.070 Y-39.422 Z4.200 I-35.929 J-31.547 F660.000
G1 X129.683 Y-38.820 Z4.200 F660.000
G2 X125.216 Y-37.756 Z4.200 I-1.730 J2.645 F660.000
G2 X125.216 Y37.756 Z4.200 I62.784 J37.756 F660.000
G2 X130.245 Y38.369 Z4.200 I2.746 J-1.593 F660.000
G2 X130.245 Y-38.369 Z4.200 I-38.243 J-38.369 F660.000
G2 X129.683 Y-38.820 Z4.200 I-1.732 J1.586 F660.000
G1 X130.070 Y-39.422 Z4.200 F660.000
G2 X125.895 Y-41.979 Z4.200 I-25.066 J36.235 F660.000
G2 X125.895 Y41.979 Z4.200 I52.105 J41.979 F660.000
G2 X138.940 Y31.545 Z4.200 I-22.883 J-41.981 F660.000
G1 X138.940 Y31.545 Z3.200 F60.000
G2 X130.070 Y-39.422 Z3.200 I-35.929 J-31.547 F660.000
G1 X129.683 Y-38.820 Z3.200 F660.000
G2 X125.216 Y-37.756 Z3.200 I-1.730 J2.645 F660.000
G2 X125.216 Y37.756 Z3.200 I62.784 J37.756 F660.000
G2 X130.245 Y38.369 Z3.200 I2.746 J-1.593 F660.000
G2 X130.245 Y-38.369 Z3.200 I-38.243 J-38.369 F660.000
G2 X129.683 Y-38.820 Z3.200 I-1.732 J1.586 F660.000
G1 X130.070 Y-39.422 Z3.200 F660.000
G2 X125.895 Y-41.979 Z3.200 I-25.066 J36.235 F660.000
G2 X125.895 Y41.979 Z3.200 I52.105 J41.979 F660.000
G2 X138.940 Y31.545 Z3.200 I-22.883 J-41.981 F660.000
G1 X138.940 Y31.545 Z2.200 F60.000
G2 X130.070 Y-39.422 Z2.200 I-35.929 J-31.547 F660.000
G1 X129.683 Y-38.820 Z2.200 F660.000
G2 X125.216 Y-37.756 Z2.200 I-1.730 J2.645 F660.000
G2 X125.216 Y37.756 Z2.200 I62.784 J37.756 F660.000
G2 X130.245 Y38.369 Z2.200 I2.746 J-1.593 F660.000
G2 X130.245 Y-38.369 Z2.200 I-38.243 J-38.369 F660.000
G2 X129.683 Y-38.820 Z2.200 I-1.732 J1.586 F660.000
G1 X130.070 Y-39.422 Z2.200 F660.000
G2 X125.895 Y-41.979 Z2.200 I-25.066 J36.235 F660.000
G2 X125.895 Y41.979 Z2.200 I52.105 J41.979 F660.000
G2 X138.940 Y31.545 Z2.200 I-22.883 J-41.981 F660.000
G1 X138.940 Y31.545 Z1.200 F60.000
G2 X130.070 Y-39.422 Z1.200 I-35.929 J-31.547 F660.000
G1 X129.683 Y-38.820 Z1.200 F660.000
G2 X125.216 Y-37.756 Z1.200 I-1.730 J2.645 F660.000
G2 X125.216 Y37.756 Z1.200 I62.784 J37.756 F660.000
G2 X130.245 Y38.369 Z1.200 I2.746 J-1.593 F660.000
G2 X130.245 Y-38.369 Z1.200 I-38.243 J-38.369 F660.000
G2 X129.683 Y-38.820 Z1.200 I-1.732 J1.586 F660.000
G1 X130.070 Y-39.422 Z1.200 F660.000
G2 X125.895 Y-41.979 Z1.200 I-25.066 J36.235 F660.000
G2 X125.895 Y41.979 Z1.200 I52.105 J41.979 F660.000
G2 X138.940 Y31.545 Z1.200 I-22.883 J-41.981 F660.000
G1 X138.940 Y31.545 Z0.200 F60.000
G2 X130.070 Y-39.422 Z0.200 I-35.929 J-31.547 F660.000
G1 X129.683 Y-38.820 Z0.200 F660.000
G2 X125.216 Y-37.756 Z0.200 I-1.730 J2.645 F660.000
G2 X125.216 Y37.756 Z0.200 I62.784 J37.756 F660.000
G2 X130.245 Y38.369 Z0.200 I2.746 J-1.593 F660.000
G2 X130.245 Y-38.369 Z0.200 I-38.243 J-38.369 F660.000
G2 X129.683 Y-38.820 Z0.200 I-1.732 J1.586 F660.000
G1 X130.070 Y-39.422 Z0.200 F660.000
G2 X125.895 Y-41.979 Z0.200 I-25.066 J36.235 F660.000
G2 X125.895 Y41.979 Z0.200 I52.105 J41.979 F660.000
G2 X138.940 Y31.545 Z0.200 I-22.883 J-41.981 F660.000
G1 X138.940 Y31.545 Z-0.800 F60.000
G2 X130.070 Y-39.422 Z-0.800 I-35.929 J-31.547 F660.000
G1 X129.683 Y-38.820 Z-0.800 F660.000
G2 X125.216 Y-37.756 Z-0.800 I-1.730 J2.645 F660.000
G2 X125.216 Y37.756 Z-0.800 I62.784 J37.756 F660.000
G2 X130.245 Y38.369 Z-0.800 I2.746 J-1.593 F660.000
G2 X130.245 Y-38.369 Z-0.800 I-38.243 J-38.369 F660.000
G2 X129.683 Y-38.820 Z-0.800 I-1.732 J1.586 F660.000
G1 X130.070 Y-39.422 Z-0.800 F660.000
G2 X125.895 Y-41.979 Z-0.800 I-25.066 J36.235 F660.000
G2 X125.895 Y41.979 Z-0.800 I52.105 J41.979 F660.000
G2 X138.940 Y31.545 Z-0.800 I-22.883 J-41.981 F660.000
G1 X138.940 Y31.545 Z-1.800 F60.000
G2 X130.070 Y-39.422 Z-1.800 I-35.929 J-31.547 F660.000
G1 X129.683 Y-38.820 Z-1.800 F660.000
G2 X125.216 Y-37.756 Z-1.800 I-1.730 J2.645 F660.000
G2 X125.216 Y37.756 Z-1.800 I62.784 J37.756 F660.000
G2 X130.245 Y38.369 Z-1.800 I2.746 J-1.593 F660.000
G2 X130.245 Y-38.369 Z-1.800 I-38.243 J-38.369 F660.000
G2 X129.683 Y-38.820 Z-1.800 I-1.732 J1.586 F660.000
G1 X130.070 Y-39.422 Z-1.800 F660.000
G2 X125.895 Y-41.979 Z-1.800 I-25.066 J36.235 F660.000
G2 X125.895 Y41.979 Z-1.800 I52.105 J41.979 F660.000
G2 X138.940 Y31.545 Z-1.800 I-22.883 J-41.981 F660.000
G1 X138.940 Y31.545 Z-2.000 F60.000
G2 X130.070 Y-39.422 Z-2.000 I-35.929 J-31.547 F660.000
G1 X129.683 Y-38.820 Z-2.000 F660.000
G2 X125.216 Y-37.756 Z-2.000 I-1.730 J2.645 F660.000
G2 X125.216 Y37.756 Z-2.000 I62.784 J37.756 F660.000
G2 X130.245 Y38.369 Z-2.000 I2.746 J-1.593 F660.000
G2 X130.245 Y-38.369 Z-2.000 I-38.243 J-38.369 F660.000
G2 X129.683 Y-38.820 Z-2.000 I-1.732 J1.586 F660.000
G1 X130.070 Y-39.422 Z-2.000 F660.000
G2 X125.895 Y-41.979 Z-2.000 I-25.066 J36.235 F660.000
G2 X125.895 Y41.979 Z-2.000 I52.105 J41.979 F660.000
G2 X138.940 Y31.545 Z-2.000 I-22.883 J-41.981 F660.000
G0 Z12.200
(finish operation: Pocket_Shape)
(begin postamble)
M05
G17 G54 G90 G80 G40
M2
