(Exported by FreeCAD)
(Post Processor: linuxcnc_post)
(Output Time:2019-03-07 22:28:19.720100)
(begin preamble)
G17 G54 G40 G49 G80 G90
G21
(begin operation: T2: 250 End Mill)
(machine: not set, mm/min)
(T2: 250 End Mill)
M6 T1
M3 S12000
G4 P10
(finish operation: T2: 250 End Mill)
(begin operation: Pocket_Shape001)
(machine: not set, mm/min)
(Pocket_Shape001)
G0 Z12.200
G0 X138.941 Y31.545
G0 Z10.200
G1 X138.941 Y31.545 Z6.200 F60.000
G2 X125.895 Y-41.979 Z6.200 I-35.926 J-31.545 F720.000
G2 X123.903 Y-39.372 Z6.200 I47.414 J38.278 F720.000
G1 X124.130 Y-39.210 Z6.200 F720.000
G3 X128.912 Y-39.653 Z6.200 I2.581 J1.826 F720.000
G3 X128.912 Y39.653 Z6.200 I-36.910 J39.653 F720.000
G3 X123.992 Y39.018 Z6.200 I-2.206 J-2.284 F720.000
G3 X123.992 Y-39.018 Z6.200 I62.005 J-39.018 F720.000
G1 X124.130 Y-39.210 Z6.200 F720.000
G1 X123.903 Y-39.372 Z6.200 F720.000
G2 X125.895 Y41.979 Z6.200 I54.086 J39.376 F720.000
G2 X138.941 Y31.545 Z6.200 I-22.880 J-41.979 F720.000
G1 X138.941 Y31.545 Z5.200 F60.000
G2 X125.895 Y-41.979 Z5.200 I-35.926 J-31.545 F720.000
G2 X123.903 Y-39.372 Z5.200 I47.414 J38.278 F720.000
G1 X124.130 Y-39.210 Z5.200 F720.000
G3 X128.912 Y-39.653 Z5.200 I2.581 J1.826 F720.000
G3 X128.912 Y39.653 Z5.200 I-36.910 J39.653 F720.000
G3 X123.992 Y39.018 Z5.200 I-2.206 J-2.284 F720.000
G3 X123.992 Y-39.018 Z5.200 I62.005 J-39.018 F720.000
G1 X124.130 Y-39.210 Z5.200 F720.000
G1 X123.903 Y-39.372 Z5.200 F720.000
G2 X125.895 Y41.979 Z5.200 I54.086 J39.376 F720.000
G2 X138.941 Y31.545 Z5.200 I-22.880 J-41.979 F720.000
G1 X138.941 Y31.545 Z4.200 F60.000
G2 X125.895 Y-41.979 Z4.200 I-35.926 J-31.545 F720.000
G2 X123.903 Y-39.372 Z4.200 I47.414 J38.278 F720.000
G1 X124.130 Y-39.210 Z4.200 F720.000
G3 X128.912 Y-39.653 Z4.200 I2.581 J1.826 F720.000
G3 X128.912 Y39.653 Z4.200 I-36.910 J39.653 F720.000
G3 X123.992 Y39.018 Z4.200 I-2.206 J-2.284 F720.000
G3 X123.992 Y-39.018 Z4.200 I62.005 J-39.018 F720.000
G1 X124.130 Y-39.210 Z4.200 F720.000
G1 X123.903 Y-39.372 Z4.200 F720.000
G2 X125.895 Y41.979 Z4.200 I54.086 J39.376 F720.000
G2 X138.941 Y31.545 Z4.200 I-22.880 J-41.979 F720.000
G1 X138.941 Y31.545 Z3.200 F60.000
G2 X125.895 Y-41.979 Z3.200 I-35.926 J-31.545 F720.000
G2 X123.903 Y-39.372 Z3.200 I47.414 J38.278 F720.000
G1 X124.130 Y-39.210 Z3.200 F720.000
G3 X128.912 Y-39.653 Z3.200 I2.581 J1.826 F720.000
G3 X128.912 Y39.653 Z3.200 I-36.910 J39.653 F720.000
G3 X123.992 Y39.018 Z3.200 I-2.206 J-2.284 F720.000
G3 X123.992 Y-39.018 Z3.200 I62.005 J-39.018 F720.000
G1 X124.130 Y-39.210 Z3.200 F720.000
G1 X123.903 Y-39.372 Z3.200 F720.000
G2 X125.895 Y41.979 Z3.200 I54.086 J39.376 F720.000
G2 X138.941 Y31.545 Z3.200 I-22.880 J-41.979 F720.000
G1 X138.941 Y31.545 Z2.200 F60.000
G2 X125.895 Y-41.979 Z2.200 I-35.926 J-31.545 F720.000
G2 X123.903 Y-39.372 Z2.200 I47.414 J38.278 F720.000
G1 X124.130 Y-39.210 Z2.200 F720.000
G3 X128.912 Y-39.653 Z2.200 I2.581 J1.826 F720.000
G3 X128.912 Y39.653 Z2.200 I-36.910 J39.653 F720.000
G3 X123.992 Y39.018 Z2.200 I-2.206 J-2.284 F720.000
G3 X123.992 Y-39.018 Z2.200 I62.005 J-39.018 F720.000
G1 X124.130 Y-39.210 Z2.200 F720.000
G1 X123.903 Y-39.372 Z2.200 F720.000
G2 X125.895 Y41.979 Z2.200 I54.086 J39.376 F720.000
G2 X138.941 Y31.545 Z2.200 I-22.880 J-41.979 F720.000
G1 X138.941 Y31.545 Z1.200 F60.000
G2 X125.895 Y-41.979 Z1.200 I-35.926 J-31.545 F720.000
G2 X123.903 Y-39.372 Z1.200 I47.414 J38.278 F720.000
G1 X124.130 Y-39.210 Z1.200 F720.000
G3 X128.912 Y-39.653 Z1.200 I2.581 J1.826 F720.000
G3 X128.912 Y39.653 Z1.200 I-36.910 J39.653 F720.000
G3 X123.992 Y39.018 Z1.200 I-2.206 J-2.284 F720.000
G3 X123.992 Y-39.018 Z1.200 I62.005 J-39.018 F720.000
G1 X124.130 Y-39.210 Z1.200 F720.000
G1 X123.903 Y-39.372 Z1.200 F720.000
G2 X125.895 Y41.979 Z1.200 I54.086 J39.376 F720.000
G2 X138.941 Y31.545 Z1.200 I-22.880 J-41.979 F720.000
G1 X138.941 Y31.545 Z0.200 F60.000
G2 X125.895 Y-41.979 Z0.200 I-35.926 J-31.545 F720.000
G2 X123.903 Y-39.372 Z0.200 I47.414 J38.278 F720.000
G1 X124.130 Y-39.210 Z0.200 F720.000
G3 X128.912 Y-39.653 Z0.200 I2.581 J1.826 F720.000
G3 X128.912 Y39.653 Z0.200 I-36.910 J39.653 F720.000
G3 X123.992 Y39.018 Z0.200 I-2.206 J-2.284 F720.000
G3 X123.992 Y-39.018 Z0.200 I62.005 J-39.018 F720.000
G1 X124.130 Y-39.210 Z0.200 F720.000
G1 X123.903 Y-39.372 Z0.200 F720.000
G2 X125.895 Y41.979 Z0.200 I54.086 J39.376 F720.000
G2 X138.941 Y31.545 Z0.200 I-22.880 J-41.979 F720.000
G1 X138.941 Y31.545 Z-0.800 F60.000
G2 X125.895 Y-41.979 Z-0.800 I-35.926 J-31.545 F720.000
G2 X123.903 Y-39.372 Z-0.800 I47.414 J38.278 F720.000
G1 X124.130 Y-39.210 Z-0.800 F720.000
G3 X128.912 Y-39.653 Z-0.800 I2.581 J1.826 F720.000
G3 X128.912 Y39.653 Z-0.800 I-36.910 J39.653 F720.000
G3 X123.992 Y39.018 Z-0.800 I-2.206 J-2.284 F720.000
G3 X123.992 Y-39.018 Z-0.800 I62.005 J-39.018 F720.000
G1 X124.130 Y-39.210 Z-0.800 F720.000
G1 X123.903 Y-39.372 Z-0.800 F720.000
G2 X125.895 Y41.979 Z-0.800 I54.086 J39.376 F720.000
G2 X138.941 Y31.545 Z-0.800 I-22.880 J-41.979 F720.000
G1 X138.941 Y31.545 Z-1.800 F60.000
G2 X125.895 Y-41.979 Z-1.800 I-35.926 J-31.545 F720.000
G2 X123.903 Y-39.372 Z-1.800 I47.414 J38.278 F720.000
G1 X124.130 Y-39.210 Z-1.800 F720.000
G3 X128.912 Y-39.653 Z-1.800 I2.581 J1.826 F720.000
G3 X128.912 Y39.653 Z-1.800 I-36.910 J39.653 F720.000
G3 X123.992 Y39.018 Z-1.800 I-2.206 J-2.284 F720.000
G3 X123.992 Y-39.018 Z-1.800 I62.005 J-39.018 F720.000
G1 X124.130 Y-39.210 Z-1.800 F720.000
G1 X123.903 Y-39.372 Z-1.800 F720.000
G2 X125.895 Y41.979 Z-1.800 I54.086 J39.376 F720.000
G2 X138.941 Y31.545 Z-1.800 I-22.880 J-41.979 F720.000
G1 X138.941 Y31.545 Z-2.000 F60.000
G2 X125.895 Y-41.979 Z-2.000 I-35.926 J-31.545 F720.000
G2 X123.903 Y-39.372 Z-2.000 I47.414 J38.278 F720.000
G1 X124.130 Y-39.210 Z-2.000 F720.000
G3 X128.912 Y-39.653 Z-2.000 I2.581 J1.826 F720.000
G3 X128.912 Y39.653 Z-2.000 I-36.910 J39.653 F720.000
G3 X123.992 Y39.018 Z-2.000 I-2.206 J-2.284 F720.000
G3 X123.992 Y-39.018 Z-2.000 I62.005 J-39.018 F720.000
G1 X124.130 Y-39.210 Z-2.000 F720.000
G1 X123.903 Y-39.372 Z-2.000 F720.000
G2 X125.895 Y41.979 Z-2.000 I54.086 J39.376 F720.000
G2 X138.941 Y31.545 Z-2.000 I-22.880 J-41.979 F720.000
G0 Z12.200
(finish operation: Pocket_Shape001)
(begin operation: Contour)
(machine: not set, mm/min)
(inactive operation)
(finish operation: Contour)
(begin postamble)
M05
G17 G54 G90 G80 G40
M2
