; generated by Slic3r 1.2.9 on 2018-11-07 at 16:49:00

; external perimeters extrusion width = 0.30mm
; perimeters extrusion width = 0.40mm
; infill extrusion width = 0.40mm
; solid infill extrusion width = 0.40mm
; top infill extrusion width = 0.40mm

M107
M190 S65 ; set bed temperature
M104 S205 ; set temperature
G28 ; home all axes
G1 Z5 F5000 ; lift nozzle

M109 S205 ; wait for temperature to be reached
G21 ; set units to millimeters
G90 ; use absolute coordinates
M82 ; use absolute distances for extrusion
G92 E0
G1 Z0.300 F7800.000
G1 E-2.00000 F2400.00000
G92 E0
G1 X80.379 Y91.802 F7800.000
G1 E2.00000 F2400.00000
G1 X87.953 Y85.922 E2.64055 F1800.000
G1 X89.650 Y84.639 E2.78271
G1 X90.833 Y83.906 E2.87568
G1 X92.651 Y82.999 E3.01139
G1 X93.949 Y82.496 E3.10436
G1 X95.903 Y81.940 E3.24007
G1 X97.270 Y81.684 E3.33304
G1 X99.293 Y81.497 E3.46875
G1 X100.761 Y81.504 E3.56678
G1 X102.708 Y81.684 E3.69741 F1800.000
G1 X104.075 Y81.940 E3.79037
G1 X106.029 Y82.496 E3.92609
G1 X107.327 Y82.999 E4.01905
G1 X109.145 Y83.906 E4.15477
G1 X110.328 Y84.639 E4.24773
G1 X112.021 Y85.919 E4.38957
G1 X119.476 Y91.699 E5.01975
G1 X120.188 Y92.326 E5.08310
G1 X120.663 Y92.801 E5.12799
G1 X121.729 Y94.142 E5.24240
G1 X122.073 Y94.689 E5.28559
G1 X122.805 Y96.210 E5.39832
G1 X123.027 Y96.844 E5.44320
G1 X123.402 Y98.489 E5.55593
G1 X123.477 Y99.156 E5.60081
G1 X123.477 Y100.844 E5.71354
G1 X123.402 Y101.511 E5.75842
G1 X123.027 Y103.156 E5.87115
G1 X122.805 Y103.790 E5.91603
G1 X122.073 Y105.311 E6.02876
G1 X121.715 Y105.880 E6.07364
G1 X120.663 Y107.199 E6.18637
G1 X120.188 Y107.674 E6.23125
G1 X119.476 Y108.301 E6.29461
G1 X112.021 Y114.081 E6.92480
G1 X110.328 Y115.361 E7.06663
G1 X109.145 Y116.094 E7.15960
G1 X107.327 Y117.001 E7.29531
G1 X106.029 Y117.504 E7.38828
G1 X104.076 Y118.060 E7.52399
G1 X102.708 Y118.316 E7.61696
G1 X100.685 Y118.503 E7.75267
G1 X99.293 Y118.503 E7.84564
G1 X97.270 Y118.316 E7.98135
G1 X95.903 Y118.060 E8.07432
G1 X93.949 Y117.504 E8.21003
G1 X92.651 Y117.001 E8.30300
G1 X90.833 Y116.094 E8.43871
G1 X89.650 Y115.361 E8.53168
G1 X87.953 Y114.078 E8.67383
G1 X80.379 Y108.198 E9.31439
G1 X79.359 Y107.243 E9.40774
G1 X78.880 Y106.701 E9.45606
G1 X77.848 Y105.206 E9.57742
G1 X77.512 Y104.566 E9.62574
G1 X76.861 Y102.841 E9.74890
G1 X76.694 Y102.165 E9.79540
G1 X76.475 Y100.362 E9.91676
G1 X76.475 Y99.638 E9.96508
G1 X76.694 Y97.835 E10.08643
G1 X76.867 Y97.133 E10.13475
G1 X77.512 Y95.434 E10.25612
G1 X77.848 Y94.794 E10.30443
G1 X78.880 Y93.299 E10.42579
G1 X79.359 Y92.757 E10.47411
G1 X80.346 Y91.833 E10.56447
G1 X81.194 Y92.897 F7800.000
G1 X82.402 Y92.063 E10.66256 F1800.000
G1 X83.062 Y91.716 E10.71234
G1 X84.435 Y91.196 E10.81043
G1 X85.159 Y91.017 E10.86021
G1 X85.311 Y90.999 E10.87043
G1 X85.516 Y90.867 E10.88674
G1 X86.117 Y89.896 E10.96303
G1 X86.460 Y89.441 E11.00111
G1 X88.211 Y87.517 E11.17489
G1 X88.632 Y87.133 E11.21297
G1 X88.920 Y86.915 E11.23710
G1 X90.707 Y85.564 E11.38676
G1 X91.192 Y85.264 E11.42484
G1 X93.520 Y84.104 E11.59863
G1 X94.052 Y83.898 E11.63670
G1 X96.554 Y83.185 E11.81049
G1 X97.114 Y83.081 E11.84857
G1 X99.704 Y82.840 E12.02236
G1 X100.274 Y82.840 E12.06043
G1 X100.634 Y82.874 E12.08456
G1 X102.864 Y83.081 E12.23422 F1800.000
G1 X103.425 Y83.185 E12.27230
G1 X105.927 Y83.898 E12.44609
G1 X106.458 Y84.104 E12.48417
G1 X108.786 Y85.264 E12.65795
G1 X109.271 Y85.564 E12.69603
G1 X111.346 Y87.133 E12.86982
G1 X111.767 Y87.517 E12.90790
G1 X113.518 Y89.441 E13.08169
G1 X113.861 Y89.896 E13.11976
G1 X114.454 Y90.854 E13.19499
G1 X114.629 Y90.979 E13.20936
G1 X115.365 Y91.147 E13.25980
G1 X116.652 Y91.597 E13.35089
G1 X117.275 Y91.898 E13.39712
G1 X118.430 Y92.623 E13.48820
G1 X118.970 Y93.054 E13.53441
G1 X119.935 Y94.019 E13.62552
G1 X120.366 Y94.559 E13.67173
G1 X120.563 Y94.874 E13.69652
G1 X121.092 Y95.714 E13.76284
G1 X121.392 Y96.338 E13.80906
G1 X121.842 Y97.625 E13.90015
G1 X121.996 Y98.299 E13.94638
G1 X122.149 Y99.654 E14.03747
G1 X122.149 Y100.346 E14.08369
G1 X121.996 Y101.701 E14.17478
G1 X121.842 Y102.375 E14.22100
G1 X121.392 Y103.663 E14.31210
G1 X121.091 Y104.286 E14.35833
G1 X120.366 Y105.441 E14.44942
G1 X119.935 Y105.981 E14.49564
G1 X118.970 Y106.946 E14.58673
G1 X118.430 Y107.377 E14.63295
G1 X117.275 Y108.102 E14.72405
G1 X116.652 Y108.403 E14.77027
G1 X115.365 Y108.853 E14.86136
G1 X114.629 Y109.021 E14.91179
G1 X114.454 Y109.146 E14.92616
G1 X113.861 Y110.104 E15.00139
G1 X113.518 Y110.559 E15.03947
G1 X111.767 Y112.483 E15.21325
G1 X111.346 Y112.867 E15.25133
G1 X111.058 Y113.085 E15.27546
G1 X109.271 Y114.436 E15.42512
G1 X108.786 Y114.736 E15.46320
G1 X106.458 Y115.896 E15.63698
G1 X105.927 Y116.102 E15.67506
G1 X103.425 Y116.815 E15.84885
G1 X102.864 Y116.919 E15.88693
G1 X100.274 Y117.160 E16.06072
G1 X99.704 Y117.160 E16.09879
G1 X97.114 Y116.919 E16.27258
G1 X96.554 Y116.815 E16.31066
G1 X94.052 Y116.102 E16.48445
G1 X93.520 Y115.896 E16.52253
G1 X91.192 Y114.736 E16.69632
G1 X90.707 Y114.435 E16.73440
G1 X88.632 Y112.867 E16.90818
G1 X88.211 Y112.483 E16.94626
G1 X86.460 Y110.559 E17.12005
G1 X86.117 Y110.104 E17.15812
G1 X85.516 Y109.133 E17.23441
G1 X85.311 Y109.001 E17.25072
G1 X85.159 Y108.983 E17.26094
G1 X84.435 Y108.804 E17.31073
G1 X83.062 Y108.284 E17.40881
G1 X82.403 Y107.937 E17.45859
G1 X81.194 Y107.103 E17.55669
G1 X80.636 Y106.609 E17.60646
G1 X80.371 Y106.310 E17.63317
G1 X79.662 Y105.510 E17.70457
G1 X79.239 Y104.897 E17.75435
G1 X78.557 Y103.596 E17.85245
G1 X78.293 Y102.900 E17.90222
G1 X77.941 Y101.474 E18.00033
G1 X77.851 Y100.734 E18.05011
G1 X77.851 Y99.266 E18.14820
G1 X77.941 Y98.526 E18.19798
G1 X78.293 Y97.100 E18.29608
G1 X78.557 Y96.404 E18.34587
G1 X79.239 Y95.103 E18.44396
G1 X79.662 Y94.490 E18.49374
G1 X80.636 Y93.391 E18.59184
G1 X81.160 Y92.927 E18.63862
G1 X81.525 Y93.319 F7800.000
G1 X82.680 Y92.522 E18.73238 F1800.000
G1 X83.282 Y92.206 E18.77784
G1 X84.595 Y91.708 E18.87160
G1 X85.255 Y91.545 E18.91705
G1 X85.631 Y91.500 E18.94231
G1 X85.836 Y91.368 E18.95862
G1 X86.559 Y90.199 E19.05046
G1 X86.873 Y89.783 E19.08522
G1 X88.591 Y87.896 E19.25570
G1 X88.975 Y87.546 E19.29046
G1 X89.243 Y87.343 E19.31294
G1 X91.011 Y86.007 E19.46094
G1 X91.453 Y85.733 E19.49571
G1 X93.737 Y84.594 E19.66619
G1 X94.222 Y84.406 E19.70095
G1 X96.676 Y83.707 E19.87143
G1 X97.188 Y83.612 E19.90620
G1 X99.729 Y83.376 E20.07667
G1 X100.249 Y83.376 E20.11144
G1 X102.790 Y83.612 E20.28192 F1800.000
G1 X103.302 Y83.707 E20.31668
G1 X105.756 Y84.406 E20.48716
G1 X106.241 Y84.594 E20.52193
G1 X108.525 Y85.733 E20.69240
G1 X108.968 Y86.007 E20.72717
G1 X111.003 Y87.546 E20.89765
G1 X111.388 Y87.896 E20.93241
G1 X113.106 Y89.783 E21.10289
G1 X113.419 Y90.199 E21.13766
G1 X114.138 Y91.361 E21.22896
G1 X114.346 Y91.493 E21.24544
G1 X114.600 Y91.522 E21.26254
G1 X115.216 Y91.663 E21.30474
G1 X116.446 Y92.093 E21.39181
G1 X117.016 Y92.367 E21.43402
G1 X118.119 Y93.061 E21.52109
G1 X118.613 Y93.454 E21.56328
G1 X119.535 Y94.376 E21.65036
G1 X119.928 Y94.870 E21.69256
G1 X120.110 Y95.159 E21.71535
G1 X120.622 Y95.974 E21.77965
G1 X120.896 Y96.543 E21.82185
G1 X121.327 Y97.773 E21.90893
G1 X121.467 Y98.389 E21.95113
G1 X121.613 Y99.684 E22.03820
G1 X121.613 Y100.316 E22.08040
G1 X121.467 Y101.611 E22.16748
G1 X121.327 Y102.227 E22.20967
G1 X120.896 Y103.457 E22.29676
G1 X120.622 Y104.027 E22.33897
G1 X119.928 Y105.130 E22.42604
G1 X119.535 Y105.624 E22.46824
G1 X118.613 Y106.546 E22.55531
G1 X118.119 Y106.939 E22.59751
G1 X117.015 Y107.633 E22.68459
G1 X116.446 Y107.907 E22.72679
G1 X115.216 Y108.337 E22.81386
G1 X114.600 Y108.478 E22.85606
G1 X114.346 Y108.507 E22.87316
G1 X114.138 Y108.639 E22.88964
G1 X113.419 Y109.801 E22.98094
G1 X113.106 Y110.217 E23.01571
G1 X111.388 Y112.104 E23.18618
G1 X111.003 Y112.454 E23.22095
G1 X110.735 Y112.657 E23.24342
G1 X108.968 Y113.993 E23.39143
G1 X108.525 Y114.267 E23.42619
G1 X106.241 Y115.406 E23.59667
G1 X105.756 Y115.594 E23.63144
G1 X103.302 Y116.293 E23.80192
G1 X102.790 Y116.388 E23.83668
G1 X100.249 Y116.624 E24.00716
G1 X99.729 Y116.624 E24.04193
G1 X97.188 Y116.388 E24.21240
G1 X96.676 Y116.293 E24.24717
G1 X94.222 Y115.594 E24.41765
G1 X93.737 Y115.406 E24.45241
G1 X91.453 Y114.267 E24.62289
G1 X91.011 Y113.993 E24.65766
G1 X88.975 Y112.454 E24.82813
G1 X88.591 Y112.104 E24.86290
G1 X86.873 Y110.217 E25.03338
G1 X86.559 Y109.801 E25.06814
G1 X85.836 Y108.632 E25.15998
G1 X85.631 Y108.500 E25.17629
G1 X85.255 Y108.455 E25.20154
G1 X84.595 Y108.292 E25.24700
G1 X83.283 Y107.794 E25.34076
G1 X82.680 Y107.478 E25.38621
G1 X82.378 Y107.269 E25.41075
G1 X81.525 Y106.681 E25.47998
G1 X81.016 Y106.230 E25.52543
G1 X80.085 Y105.179 E25.61920
G1 X79.698 Y104.619 E25.66466
G1 X79.046 Y103.376 E25.75842
G1 X78.805 Y102.740 E25.80387
G1 X78.469 Y101.377 E25.89765
G1 X78.387 Y100.702 E25.94310
G1 X78.387 Y99.298 E26.03686
G1 X78.469 Y98.623 E26.08231
G1 X78.805 Y97.260 E26.17609
G1 X79.046 Y96.624 E26.22154
G1 X79.698 Y95.381 E26.31531
G1 X80.085 Y94.821 E26.36076
G1 X81.016 Y93.770 E26.45453
G1 X81.491 Y93.349 E26.49698
G1 X81.856 Y93.742 F7800.000
G1 X82.958 Y92.981 E26.58641 F1800.000
G1 X83.503 Y92.695 E26.62754
G1 X84.755 Y92.220 E26.71698
G1 X85.352 Y92.073 E26.75809
G1 X85.951 Y92.000 E26.79840
G1 X86.157 Y91.869 E26.81471
G1 X87.002 Y90.501 E26.92209
G1 X87.285 Y90.126 E26.95354
G1 X88.970 Y88.275 E27.12071
G1 X89.318 Y87.958 E27.15216
G1 X89.566 Y87.770 E27.17298
G1 X91.314 Y86.449 E27.31933
G1 X91.714 Y86.201 E27.35079
G1 X93.954 Y85.085 E27.51795
G1 X94.393 Y84.915 E27.54941
G1 X96.799 Y84.229 E27.71657
G1 X97.262 Y84.143 E27.74803
G1 X99.754 Y83.912 E27.91519
G1 X100.224 Y83.912 E27.94665
G1 X100.535 Y83.940 E27.96746
G1 X102.716 Y84.143 E28.11382 F1800.000
G1 X103.179 Y84.229 E28.14527
G1 X105.586 Y84.915 E28.31244
G1 X106.025 Y85.085 E28.34390
G1 X108.264 Y86.201 E28.51106
G1 X108.664 Y86.449 E28.54251
G1 X110.660 Y87.958 E28.70968
G1 X111.008 Y88.275 E28.74113
G1 X112.693 Y90.126 E28.90830
G1 X112.976 Y90.501 E28.93976
G1 X113.819 Y91.864 E29.04680
G1 X114.027 Y91.996 E29.06327
G1 X114.510 Y92.051 E29.09576
G1 X115.068 Y92.178 E29.13394
G1 X116.241 Y92.589 E29.21700
G1 X116.756 Y92.837 E29.25518
G1 X117.809 Y93.498 E29.33823
G1 X118.255 Y93.854 E29.37641
G1 X119.135 Y94.734 E29.45947
G1 X119.491 Y95.180 E29.49765
G1 X119.656 Y95.444 E29.51842
G1 X120.152 Y96.233 E29.58072
G1 X120.400 Y96.748 E29.61890
G1 X120.811 Y97.922 E29.70196
G1 X120.938 Y98.479 E29.74014
G1 X121.077 Y99.714 E29.82319
G1 X121.077 Y100.286 E29.86138
G1 X120.938 Y101.521 E29.94443
G1 X120.811 Y102.078 E29.98261
G1 X120.400 Y103.252 E30.06568
G1 X120.152 Y103.767 E30.10386
G1 X119.491 Y104.820 E30.18692
G1 X119.135 Y105.267 E30.22510
G1 X118.255 Y106.146 E30.30815
G1 X117.809 Y106.502 E30.34633
G1 X116.756 Y107.163 E30.42939
G1 X116.241 Y107.411 E30.46758
G1 X115.068 Y107.822 E30.55063
G1 X114.510 Y107.949 E30.58881
G1 X114.027 Y108.004 E30.62130
G1 X113.819 Y108.136 E30.63777
G1 X112.976 Y109.499 E30.74481
G1 X112.693 Y109.874 E30.77627
G1 X111.008 Y111.725 E30.94343
G1 X110.660 Y112.042 E30.97489
G1 X110.412 Y112.230 E30.99570
G1 X108.664 Y113.551 E31.14205
G1 X108.264 Y113.799 E31.17351
G1 X106.025 Y114.915 E31.34068
G1 X105.586 Y115.085 E31.37213
G1 X103.179 Y115.771 E31.53930
G1 X102.716 Y115.857 E31.57075
G1 X100.224 Y116.088 E31.73792
G1 X99.754 Y116.088 E31.76937
G1 X99.443 Y116.060 E31.79019
G1 X97.262 Y115.857 E31.93654
G1 X96.799 Y115.771 E31.96800
G1 X94.393 Y115.085 E32.13516
G1 X93.954 Y114.915 E32.16662
G1 X91.714 Y113.799 E32.33378
G1 X91.314 Y113.551 E32.36524
G1 X89.318 Y112.042 E32.53240
G1 X88.970 Y111.725 E32.56386
G1 X87.285 Y109.874 E32.73103
G1 X87.002 Y109.499 E32.76248
G1 X86.157 Y108.131 E32.86986
G1 X85.951 Y108.000 E32.88617
G1 X85.352 Y107.927 E32.92647
G1 X84.754 Y107.780 E32.96760
G1 X83.503 Y107.305 E33.05703
G1 X82.958 Y107.019 E33.09815
G1 X81.856 Y106.258 E33.18759
G1 X81.395 Y105.850 E33.22871
G1 X80.507 Y104.848 E33.31816
G1 X80.158 Y104.341 E33.35928
G1 X79.535 Y103.156 E33.44872
G1 X79.317 Y102.580 E33.48984
G1 X78.997 Y101.280 E33.57928
G1 X78.923 Y100.669 E33.62041
G1 X78.923 Y99.331 E33.70984
G1 X78.997 Y98.720 E33.75097
G1 X79.317 Y97.420 E33.84041
G1 X79.535 Y96.844 E33.88154
G1 X80.158 Y95.659 E33.97097
G1 X80.507 Y95.152 E34.01209
G1 X81.395 Y94.150 E34.10154
G1 X81.822 Y93.771 E34.13966
G1 X82.187 Y94.164 F7800.000
G1 X83.235 Y93.440 E34.22476 F1800.000
G1 X83.723 Y93.184 E34.26156
G1 X84.914 Y92.733 E34.34667
G1 X85.449 Y92.601 E34.38346
G1 X86.271 Y92.501 E34.43880
G1 X86.477 Y92.369 E34.45511
G1 X87.444 Y90.804 E34.57804
G1 X87.698 Y90.468 E34.60618
G1 X89.349 Y88.654 E34.77004
G1 X89.660 Y88.370 E34.79818
G1 X89.889 Y88.197 E34.81734
G1 X91.617 Y86.891 E34.96204
G1 X91.975 Y86.669 E34.99018
G1 X94.170 Y85.575 E35.15403
G1 X94.563 Y85.423 E35.18218
G1 X96.922 Y84.751 E35.34604
G1 X97.336 Y84.674 E35.37418
G1 X99.778 Y84.447 E35.53803
G1 X100.200 Y84.447 E35.56617
G1 X102.642 Y84.674 E35.73003 F1800.000
G1 X103.056 Y84.751 E35.75818
G1 X105.415 Y85.423 E35.92203
G1 X105.808 Y85.575 E35.95018
G1 X108.003 Y86.669 E36.11403
G1 X108.361 Y86.891 E36.14217
G1 X110.318 Y88.370 E36.30603
G1 X110.629 Y88.654 E36.33417
G1 X112.280 Y90.468 E36.49803
G1 X112.534 Y90.804 E36.52617
G1 X113.500 Y92.368 E36.64896
G1 X113.708 Y92.499 E36.66543
G1 X114.420 Y92.580 E36.71330
G1 X114.919 Y92.694 E36.74747
G1 X116.036 Y93.084 E36.82650
G1 X116.497 Y93.306 E36.86067
G1 X117.498 Y93.936 E36.93970
G1 X117.898 Y94.254 E36.97386
G1 X118.735 Y95.091 E37.05290
G1 X119.053 Y95.491 E37.08706
G1 X119.203 Y95.729 E37.10582
G1 X119.683 Y96.493 E37.16611
G1 X119.905 Y96.953 E37.20027
G1 X120.296 Y98.070 E37.27931
G1 X120.409 Y98.569 E37.31347
G1 X120.542 Y99.744 E37.39251
G1 X120.542 Y100.256 E37.42667
G1 X120.409 Y101.431 E37.50571
G1 X120.296 Y101.930 E37.53987
G1 X119.905 Y103.047 E37.61891
G1 X119.683 Y103.507 E37.65308
G1 X119.053 Y104.509 E37.73211
G1 X118.735 Y104.909 E37.76628
G1 X117.898 Y105.746 E37.84531
G1 X117.498 Y106.064 E37.87948
G1 X116.496 Y106.694 E37.95852
G1 X116.036 Y106.916 E37.99268
G1 X114.919 Y107.306 E38.07172
G1 X114.420 Y107.420 E38.10588
G1 X113.708 Y107.501 E38.15375
G1 X113.500 Y107.632 E38.17022
G1 X112.534 Y109.196 E38.29300
G1 X112.280 Y109.532 E38.32115
G1 X110.629 Y111.346 E38.48500
G1 X110.318 Y111.630 E38.51314
G1 X110.089 Y111.803 E38.53231
G1 X108.361 Y113.109 E38.67700
G1 X108.003 Y113.331 E38.70514
G1 X105.808 Y114.425 E38.86900
G1 X105.415 Y114.577 E38.89714
G1 X103.056 Y115.249 E39.06100
G1 X102.642 Y115.326 E39.08914
G1 X100.200 Y115.553 E39.25300
G1 X99.778 Y115.553 E39.28114
G1 X97.336 Y115.326 E39.44500
G1 X96.922 Y115.249 E39.47314
G1 X94.563 Y114.577 E39.63700
G1 X94.170 Y114.425 E39.66514
G1 X91.975 Y113.331 E39.82900
G1 X91.617 Y113.109 E39.85714
G1 X89.660 Y111.630 E40.02099
G1 X89.349 Y111.346 E40.04914
G1 X87.698 Y109.532 E40.21299
G1 X87.444 Y109.196 E40.24114
G1 X86.477 Y107.631 E40.36407
G1 X86.271 Y107.499 E40.38038
G1 X85.449 Y107.399 E40.43571
G1 X84.914 Y107.267 E40.47251
G1 X83.723 Y106.816 E40.55762
G1 X83.235 Y106.560 E40.59441
G1 X82.187 Y105.836 E40.67952
G1 X81.775 Y105.471 E40.71631
G1 X80.930 Y104.517 E40.80143
G1 X80.617 Y104.064 E40.83822
G1 X80.025 Y102.936 E40.92333
G1 X79.829 Y102.421 E40.96012
G1 X79.525 Y101.184 E41.04524
G1 X79.458 Y100.637 E41.08203
G1 X79.458 Y99.363 E41.16714
G1 X79.525 Y98.816 E41.20393
G1 X79.829 Y97.579 E41.28905
G1 X80.025 Y97.064 E41.32585
G1 X80.617 Y95.936 E41.41095
G1 X80.930 Y95.483 E41.44775
G1 X81.775 Y94.529 E41.53286
G1 X82.153 Y94.194 E41.56665
G1 X82.518 Y94.586 F7800.000
G1 X83.513 Y93.900 E41.64743 F1800.000
G1 X83.943 Y93.674 E41.67990
G1 X85.074 Y93.245 E41.76068
G1 X85.546 Y93.129 E41.79314
G1 X86.591 Y93.002 E41.86352
G1 X86.797 Y92.870 E41.87983
G1 X87.887 Y91.107 E42.01831
G1 X88.111 Y90.810 E42.04314
G1 X89.729 Y89.033 E42.20368
G1 X90.003 Y88.783 E42.22851
G1 X90.212 Y88.625 E42.24602
G1 X91.920 Y87.333 E42.38906
G1 X92.236 Y87.138 E42.41389
G1 X94.387 Y86.066 E42.57444
G1 X94.734 Y85.931 E42.59927
G1 X97.045 Y85.273 E42.75981
G1 X97.410 Y85.205 E42.78465
