; generated by Slic3r 1.2.9 on 2018-11-18 at 17:20:09

; external perimeters extrusion width = 0.30mm
; perimeters extrusion width = 0.40mm
; infill extrusion width = 0.40mm
; solid infill extrusion width = 0.40mm
; top infill extrusion width = 0.40mm

M107
M190 S65 ; set bed temperature
M104 S205 ; set temperature
G28 ; home all axes
G1 Z5 F5000 ; lift nozzle

M109 S205 ; wait for temperature to be reached
G21 ; set units to millimeters
G90 ; use absolute coordinates
M82 ; use absolute distances for extrusion
G92 E0
G1 Z0.300 F7800.000
G1 E-2.00000 F2400.00000
G92 E0
G1 X79.012 Y80.425 F7800.000
G1 E2.00000 F2400.00000
G1 X80.793 Y78.748 E2.16348 F1800.000
G1 X83.019 Y77.730 E2.32696
G1 X85.000 Y77.464 E2.46050
G1 X115.000 Y77.464 E4.46467
G1 X117.415 Y77.862 E4.62815
G1 X119.575 Y79.012 E4.79163 F1800.000
G1 X121.252 Y80.793 E4.95511
G1 X122.270 Y83.019 E5.11859
G1 X122.536 Y85.000 E5.25213
G1 X122.536 Y115.000 E7.25630
G1 X122.138 Y117.415 E7.41978
G1 X120.988 Y119.575 E7.58326
G1 X119.207 Y121.252 E7.74674
G1 X116.981 Y122.270 E7.91022
G1 X115.000 Y122.536 E8.04376
G1 X85.000 Y122.536 E10.04793
G1 X82.585 Y122.138 E10.21141
G1 X80.425 Y120.988 E10.37489
G1 X78.748 Y119.207 E10.53837
G1 X77.730 Y116.981 E10.70185
G1 X77.464 Y115.000 E10.83539
G1 X77.464 Y85.000 E12.83956
G1 X77.862 Y82.585 E13.00304
G1 X78.991 Y80.465 E13.16351
G1 X79.938 Y81.351 F7800.000
G1 X82.449 Y78.840 E13.40073 F1800.000
G1 X117.551 Y78.840 E15.74579
G1 X121.160 Y82.449 E16.08668
G1 X121.160 Y117.551 E18.43174 F1800.000
G1 X117.551 Y121.160 E18.77263
G1 X82.449 Y121.160 E21.11769
G1 X78.840 Y117.551 E21.45858
G1 X78.840 Y82.449 E23.80364
G1 X79.906 Y81.383 E23.90431
G1 X80.317 Y81.730 F7800.000
G1 X82.670 Y79.376 E24.12671 F1800.000
G1 X117.330 Y79.376 E26.44212
G1 X120.624 Y82.670 E26.75337 F1800.000
G1 X120.624 Y117.330 E29.06879
G1 X117.330 Y120.624 E29.38004
G1 X82.670 Y120.624 E31.69545
G1 X79.376 Y117.330 E32.00670
G1 X79.376 Y82.670 E34.32212
G1 X80.285 Y81.762 E34.40797
G1 X80.695 Y82.109 F7800.000
G1 X82.892 Y79.912 E34.61554 F1800.000
G1 X117.108 Y79.912 E36.90131
G1 X120.088 Y82.892 E37.18292
G1 X120.088 Y117.108 E39.46869 F1800.000
G1 X117.108 Y120.088 E39.75030
G1 X82.892 Y120.088 E42.03607
G1 X79.912 Y117.108 E42.31768
G1 X79.912 Y82.892 E44.60345
G1 X80.663 Y82.141 E44.67447
G1 X81.074 Y82.487 F7800.000
G1 X83.114 Y80.447 E44.86723 F1800.000
G1 X116.886 Y80.447 E47.12335
G1 X119.553 Y83.114 E47.37532 F1800.000
G1 X119.553 Y116.886 E49.63145
G1 X116.886 Y119.553 E49.88341
G1 X83.114 Y119.553 E52.13954
G1 X80.447 Y116.886 E52.39151
G1 X80.447 Y83.114 E54.64763
G1 X81.042 Y82.519 E54.70384
G1 X81.453 Y82.866 F7800.000
G1 X83.336 Y80.983 E54.88177 F1800.000
G1 X116.664 Y80.983 E57.10826
G1 X119.017 Y83.336 E57.33058
G1 X119.017 Y116.664 E59.55706 F1800.000
G1 X116.664 Y119.017 E59.77939
G1 X83.336 Y119.017 E62.00587
G1 X80.983 Y116.664 E62.22819
G1 X80.983 Y83.336 E64.45468
G1 X81.421 Y82.898 E64.49606
G1 X81.831 Y83.245 F7800.000
G1 X83.558 Y81.518 E64.65917 F1800.000
G1 X116.442 Y81.518 E66.85601
G1 X118.482 Y83.558 E67.04869 F1800.000
G1 X118.482 Y116.442 E69.24553
G1 X116.442 Y118.482 E69.43821
G1 X83.558 Y118.482 E71.63506
G1 X81.518 Y116.442 E71.82774
G1 X81.518 Y83.558 E74.02458
G1 X81.800 Y83.277 E74.05114
G1 X82.210 Y83.624 F7800.000
G1 X83.780 Y82.054 E74.19943 F1800.000
G1 X116.220 Y82.054 E76.36663
G1 X117.946 Y83.780 E76.52966
G1 X117.946 Y116.220 E78.69686 F1800.000
G1 X116.220 Y117.946 E78.85990
G1 X83.780 Y117.946 E81.02710
G1 X82.054 Y116.220 E81.19013
G1 X82.054 Y83.780 E83.35733
G1 X82.178 Y83.655 E83.36908
G1 X82.590 Y84.002 F7800.000
G1 X84.002 Y82.590 E83.50247 F1800.000
G1 X115.998 Y82.590 E85.64002
G1 X117.410 Y84.002 E85.77342 F1800.000
G1 X117.410 Y115.998 E87.91097
G1 X115.998 Y117.410 E88.04437
G1 X84.002 Y117.410 E90.18192
G1 X82.590 Y115.998 E90.31532
G1 X82.590 Y84.047 E92.44987
G1 X83.125 Y84.223 F7800.000
G1 X84.223 Y83.125 E92.55362 F1800.000
G1 X115.777 Y83.125 E94.66153
G1 X116.875 Y84.223 E94.76528
G1 X116.875 Y115.777 E96.87319 F1800.000
G1 X115.777 Y116.875 E96.97694
G1 X84.223 Y116.875 E99.08485
G1 X83.125 Y115.777 E99.18861
G1 X83.125 Y84.268 E101.29351
G1 X83.661 Y84.445 F7800.000
G1 X84.445 Y83.661 E101.36762 F1800.000
G1 X115.555 Y83.661 E103.44589
G1 X116.339 Y84.445 E103.52000 F1800.000
G1 X116.339 Y115.555 E105.59827
G1 X115.555 Y116.339 E105.67237
G1 X84.445 Y116.339 E107.75064
G1 X83.661 Y115.555 E107.82475
G1 X83.661 Y84.490 E109.90001
G1 X84.197 Y84.667 F7800.000
G1 X84.667 Y84.197 E109.94448 F1800.000
G1 X115.333 Y84.197 E111.99311
G1 X115.803 Y84.667 E112.03757
G1 X115.803 Y115.333 E114.08620 F1800.000
G1 X115.333 Y115.803 E114.13066
G1 X84.667 Y115.803 E116.17929
G1 X84.197 Y115.333 E116.22375
G1 X84.197 Y84.712 E118.26937
G1 X84.732 Y84.889 F7800.000
G1 X84.889 Y84.732 E118.28419 F1800.000
G1 X115.111 Y84.732 E120.30318
G1 X115.268 Y84.889 E120.31800 F1800.000
G1 X115.268 Y115.111 E122.33698
G1 X115.111 Y115.268 E122.35181
G1 X84.889 Y115.268 E124.37079
G1 X84.732 Y115.111 E124.38561
G1 X84.732 Y84.934 E126.40159
G1 E124.40159 F2400.00000
G92 E0
G1 X114.700 Y114.700 F7800.000
G1 E2.00000 F2400.00000
G1 X85.300 Y114.700 E3.96408 F1800.000
G1 X85.300 Y85.300 E5.92816
G1 X114.700 Y85.300 E7.89224
G1 X114.700 Y114.655 E9.85331
G1 X114.440 Y114.550 F7800.000
G1 X114.164 Y114.164 F7800.000
G1 X85.836 Y114.164 E11.74582 F1800.000
G1 X85.836 Y85.836 E13.63834
G1 X114.164 Y85.836 E15.53085
G1 X114.164 Y114.119 E17.42036
G1 X113.629 Y113.629 F7800.000
G1 X86.371 Y113.629 E19.24131 F1800.000
G1 X86.371 Y86.371 E21.06226
G1 X113.629 Y86.371 E22.88321
G1 X113.629 Y113.584 E24.70116
G1 X104.990 Y101.072 F7800.000
G1 X104.712 Y101.218 E24.72213 F1800.000
G1 X104.407 Y101.293 E24.74310
G1 X104.093 Y101.293 E24.76407
G1 X103.788 Y101.218 E24.78504
G1 X103.510 Y101.072 E24.80602
G1 X103.275 Y100.864 E24.82699
G1 X103.097 Y100.605 E24.84796
G1 X102.986 Y100.312 E24.86893
G1 X102.948 Y100.000 E24.88990
G1 X102.986 Y99.688 E24.91088
G1 X103.097 Y99.395 E24.93185
G1 X103.275 Y99.136 E24.95282
G1 X103.510 Y98.928 E24.97379
G1 X103.788 Y98.782 E24.99476
G1 X104.093 Y98.707 E25.01574
G1 X104.407 Y98.707 E25.03671 F1800.000
G1 X104.712 Y98.782 E25.05768
G1 X104.990 Y98.928 E25.07865
G1 X105.225 Y99.136 E25.09962
G1 X105.403 Y99.395 E25.12060
G1 X105.514 Y99.688 E25.14157
G1 X105.552 Y100.000 E25.16254
G1 X105.514 Y100.312 E25.18351
G1 X105.403 Y100.605 E25.20448
G1 X105.225 Y100.864 E25.22546
G1 X105.023 Y101.042 E25.24342
G1 X105.002 Y101.371 F7800.000
G1 X105.345 Y101.473 F7800.000
G1 X105.296 Y101.516 E25.24777 F1800.000
G1 X104.903 Y101.722 E25.27743
G1 X104.472 Y101.828 E25.30709
G1 X104.028 Y101.828 E25.33675
G1 X103.597 Y101.722 E25.36641
G1 X103.204 Y101.516 E25.39607
G1 X102.871 Y101.221 E25.42574
G1 X102.619 Y100.856 E25.45540
G1 X102.462 Y100.441 E25.48506
G1 X102.408 Y100.000 E25.51472
G1 X102.462 Y99.559 E25.54438
G1 X102.619 Y99.144 E25.57404
G1 X102.871 Y98.779 E25.60370
G1 X103.204 Y98.484 E25.63337
G1 X103.597 Y98.278 E25.66303
G1 X104.028 Y98.172 E25.69269
G1 X104.472 Y98.172 E25.72235 F1800.000
G1 X104.903 Y98.278 E25.75201
G1 X105.296 Y98.484 E25.78167
G1 X105.629 Y98.779 E25.81133
G1 X105.881 Y99.144 E25.84100
G1 X106.038 Y99.559 E25.87066
G1 X106.092 Y100.000 E25.90032
G1 X106.038 Y100.441 E25.92998
G1 X105.881 Y100.856 E25.95964
G1 X105.629 Y101.221 E25.98930
G1 X105.379 Y101.443 E26.01161
G1 X105.700 Y101.874 F7800.000
G1 X105.603 Y101.960 E26.02030 F1800.000
G1 X105.094 Y102.227 E26.05866
G1 X104.537 Y102.364 E26.09701
G1 X103.963 Y102.364 E26.13536
G1 X103.406 Y102.227 E26.17371
G1 X102.897 Y101.960 E26.21206
G1 X102.468 Y101.579 E26.25041
G1 X102.141 Y101.107 E26.28876
G1 X101.938 Y100.570 E26.32711
G1 X101.869 Y100.000 E26.36546
G1 X101.938 Y99.430 E26.40381
G1 X102.141 Y98.893 E26.44217
G1 X102.468 Y98.421 E26.48052
G1 X102.897 Y98.040 E26.51887
G1 X103.406 Y97.773 E26.55722
G1 X103.963 Y97.636 E26.59557
G1 X104.537 Y97.636 E26.63392 F1800.000
G1 X105.094 Y97.773 E26.67227
G1 X105.603 Y98.040 E26.71062
G1 X106.032 Y98.421 E26.74897
G1 X106.359 Y98.893 E26.78732
G1 X106.562 Y99.430 E26.82568
G1 X106.631 Y100.000 E26.86403
G1 X106.562 Y100.570 E26.90238
G1 X106.359 Y101.107 E26.94073
G1 X106.032 Y101.579 E26.97908
G1 X105.734 Y101.844 E27.00573
G1 E25.00573 F2400.00000
G92 E0
G1 X98.976 Y97.015 F7800.000
G1 E2.00000 F2400.00000
G1 X98.777 Y97.259 E2.02097 F1800.000
G1 X98.526 Y97.447 E2.04194
G1 X98.237 Y97.570 E2.06292
G1 X97.927 Y97.621 E2.08389
G1 X97.615 Y97.595 E2.10486
G1 X97.317 Y97.496 E2.12583
G1 X97.051 Y97.328 E2.14680
G1 X96.834 Y97.102 E2.16778
G1 X96.677 Y96.830 E2.18875
G1 X96.590 Y96.528 E2.20972
G1 X96.577 Y96.215 E2.23069
G1 X96.640 Y95.907 E2.25166
G1 X96.774 Y95.623 E2.27264
G1 X96.973 Y95.380 E2.29361
G1 X97.224 Y95.192 E2.31458
G1 X97.513 Y95.069 E2.33555
G1 X97.823 Y95.018 E2.35652 F1800.000
G1 X98.135 Y95.044 E2.37750
G1 X98.433 Y95.143 E2.39847
G1 X98.699 Y95.311 E2.41944
G1 X98.916 Y95.537 E2.44041
G1 X99.073 Y95.809 E2.46138
G1 X99.160 Y96.111 E2.48236
G1 X99.173 Y96.424 E2.50333
G1 X99.110 Y96.732 E2.52430
G1 X98.995 Y96.975 E2.54227
G1 X99.104 Y97.286 F7800.000
G1 X99.460 Y97.245 F7800.000
G1 X99.432 Y97.304 E2.54661 F1800.000
G1 X99.151 Y97.648 E2.57627
G1 X98.796 Y97.914 E2.60593
G1 X98.387 Y98.088 E2.63559
G1 X97.949 Y98.160 E2.66526
G1 X97.507 Y98.124 E2.69492
G1 X97.085 Y97.983 E2.72458
G1 X96.710 Y97.746 E2.75424
G1 X96.403 Y97.426 E2.78390
G1 X96.181 Y97.041 E2.81356
G1 X96.057 Y96.615 E2.84323
G1 X96.039 Y96.171 E2.87289
G1 X96.128 Y95.736 E2.90255
G1 X96.318 Y95.335 E2.93221
G1 X96.599 Y94.991 E2.96187
G1 X96.954 Y94.724 E2.99153
G1 X97.363 Y94.550 E3.02119
G1 X97.801 Y94.479 E3.05086 F1800.000
G1 X98.243 Y94.515 E3.08052
G1 X98.665 Y94.655 E3.11018
G1 X99.040 Y94.893 E3.13984
G1 X99.347 Y95.213 E3.16950
G1 X99.569 Y95.597 E3.19916
G1 X99.693 Y96.024 E3.22882
G1 X99.711 Y96.468 E3.25849
G1 X99.622 Y96.903 E3.28815
G1 X99.479 Y97.204 E3.31046
G1 X99.943 Y97.475 F7800.000
G1 X99.888 Y97.592 E3.31915 F1800.000
G1 X99.525 Y98.037 E3.35750
G1 X99.066 Y98.382 E3.39585
G1 X98.538 Y98.607 E3.43420
G1 X97.971 Y98.699 E3.47255
G1 X97.399 Y98.653 E3.51090
G1 X96.854 Y98.471 E3.54925
G1 X96.369 Y98.164 E3.58760
G1 X95.971 Y97.750 E3.62596
G1 X95.684 Y97.253 E3.66431
G1 X95.525 Y96.701 E3.70266
G1 X95.501 Y96.128 E3.74101
G1 X95.616 Y95.565 E3.77936
G1 X95.862 Y95.047 E3.81771
G1 X96.225 Y94.602 E3.85606
G1 X96.684 Y94.257 E3.89441
G1 X97.212 Y94.032 E3.93276
G1 X97.779 Y93.940 E3.97112 F1800.000
G1 X98.351 Y93.986 E4.00947
G1 X98.896 Y94.168 E4.04782
G1 X99.381 Y94.475 E4.08617
G1 X99.779 Y94.889 E4.12452
G1 X100.066 Y95.386 E4.16287
G1 X100.225 Y95.937 E4.20122
G1 X100.249 Y96.511 E4.23957
G1 X100.134 Y97.073 E4.27792
G1 X99.963 Y97.434 E4.30458
G1 X98.237 Y102.430 F7800.000
G1 X98.526 Y102.553 E4.32555 F1800.000
G1 X98.777 Y102.741 E4.34652
G1 X98.976 Y102.985 E4.36749
G1 X99.110 Y103.268 E4.38847
G1 X99.173 Y103.576 E4.40944
G1 X99.160 Y103.889 E4.43041
G1 X99.073 Y104.191 E4.45138
G1 X98.916 Y104.463 E4.47235
G1 X98.699 Y104.689 E4.49333
G1 X98.433 Y104.857 E4.51430
G1 X98.135 Y104.956 E4.53527
G1 X97.823 Y104.982 E4.55624
G1 X97.513 Y104.931 E4.57721
G1 X97.224 Y104.808 E4.59819
G1 X96.973 Y104.620 E4.61916
G1 X96.774 Y104.377 E4.64013
G1 X96.640 Y104.093 E4.66110
G1 X96.577 Y103.785 E4.68207
G1 X96.590 Y103.472 E4.70305
G1 X96.677 Y103.170 E4.72402
G1 X96.834 Y102.898 E4.74499
G1 X97.051 Y102.672 E4.76596
G1 X97.317 Y102.504 E4.78693
G1 X97.615 Y102.405 E4.80791
G1 X97.927 Y102.379 E4.82888 F1800.000
G1 X98.193 Y102.423 E4.84684
G1 X98.462 Y102.231 F7800.000
G1 X98.447 Y101.937 F7800.000
G1 X98.796 Y102.086 E4.87216 F1800.000
G1 X99.151 Y102.352 E4.90182
G1 X99.432 Y102.696 E4.93148
G1 X99.622 Y103.097 E4.96114
G1 X99.711 Y103.532 E4.99081
G1 X99.693 Y103.976 E5.02047
G1 X99.569 Y104.403 E5.05013
G1 X99.347 Y104.787 E5.07979
G1 X99.040 Y105.107 E5.10945
G1 X98.665 Y105.345 E5.13911
G1 X98.243 Y105.485 E5.16878
G1 X97.801 Y105.521 E5.19844
G1 X97.363 Y105.450 E5.22810
G1 X96.954 Y105.276 E5.25776
G1 X96.599 Y105.009 E5.28742
G1 X96.318 Y104.665 E5.31708
G1 X96.128 Y104.264 E5.34674
G1 X96.039 Y103.829 E5.37641
G1 X96.057 Y103.385 E5.40607
G1 X96.181 Y102.959 E5.43573
G1 X96.403 Y102.574 E5.46539
G1 X96.710 Y102.254 E5.49505
G1 X97.085 Y102.017 E5.52471
G1 X97.507 Y101.876 E5.55438
G1 X97.949 Y101.840 E5.58404 F1800.000
G1 X98.406 Y101.919 E5.61500
G1 X98.657 Y101.444 F7800.000
G1 X99.066 Y101.618 E5.64466 F1800.000
G1 X99.525 Y101.963 E5.68301
G1 X99.888 Y102.408 E5.72136
G1 X100.134 Y102.927 E5.75971
G1 X100.249 Y103.489 E5.79806
G1 X100.225 Y104.063 E5.83642
G1 X100.066 Y104.614 E5.87477
G1 X99.779 Y105.111 E5.91312
G1 X99.381 Y105.525 E5.95147
G1 X98.896 Y105.832 E5.98982
G1 X98.351 Y106.014 E6.02817
G1 X97.779 Y106.060 E6.06652
G1 X97.212 Y105.968 E6.10487
G1 X96.684 Y105.743 E6.14322
G1 X96.225 Y105.398 E6.18157
G1 X95.862 Y104.953 E6.21993
G1 X95.616 Y104.435 E6.25828
G1 X95.501 Y103.872 E6.29663
G1 X95.525 Y103.299 E6.33498
G1 X95.684 Y102.747 E6.37333
G1 X95.971 Y102.250 E6.41168
G1 X96.369 Y101.836 E6.45003
G1 X96.854 Y101.529 E6.48838
G1 X97.399 Y101.347 E6.52673
G1 X97.971 Y101.301 E6.56508 F1800.000
G1 X98.538 Y101.393 E6.60344
G1 X98.616 Y101.427 E6.60912
G1 X98.343 Y101.016 F7800.000
G1 X86.693 Y89.366 E7.71880 F1800.000
G1 X86.693 Y90.129 E7.77023
G1 X97.582 Y101.019 E8.80744
G1 X96.980 Y101.180 E8.84945
G1 X86.693 Y90.893 E9.82927
G1 X86.693 Y91.657 E9.88071
G1 X96.475 Y101.439 E10.81249
G1 X96.047 Y101.775 E10.84913
G1 X86.693 Y92.421 E11.74013
G1 X86.693 Y93.184 E11.79156
G1 X95.688 Y102.180 E12.64840
G1 X95.409 Y102.664 E12.68605
G1 X86.693 Y93.948 E13.51626
G1 X86.693 Y94.712 E13.56770
G1 X95.232 Y103.251 E14.38104
G1 X95.180 Y103.963 E14.42914
G1 X86.693 Y95.475 E15.23757
G1 X86.693 Y96.239 E15.28901
G1 X95.470 Y105.016 E16.12504
G1 X96.990 Y98.899 F7800.000
G1 X111.398 Y113.307 E17.49739 F1800.000
G1 X110.634 Y113.307 E17.54883
G1 X100.548 Y103.220 E18.50959
G1 X100.546 Y103.983 E18.56092
G1 X109.871 Y113.307 E19.44908
G1 X109.107 Y113.307 E19.50052
G1 X100.382 Y104.582 E20.33160
G1 X100.119 Y105.083 E20.36969
G1 X108.343 Y113.307 E21.15308
G1 X107.579 Y113.307 E21.20452
G1 X99.779 Y105.507 E21.94749
G1 X99.370 Y105.862 E21.98395
G1 X106.816 Y113.307 E22.69315
G1 X106.052 Y113.307 E22.74459
G1 X98.887 Y106.142 E23.42705
G1 X98.312 Y106.331 E23.46781
G1 X105.288 Y113.307 E24.13231
G1 X104.525 Y113.307 E24.18374
G1 X97.593 Y106.376 E24.84398
G1 X96.546 Y106.092 E24.91708
G1 X103.761 Y113.307 E25.60436
G1 X102.997 Y113.307 E25.65579
G1 X86.693 Y97.003 E27.20881
G1 X86.693 Y97.766 E27.26024
G1 X102.234 Y113.307 E28.74052
G1 X101.470 Y113.307 E28.79195
G1 X86.693 Y98.530 E30.19949
G1 X86.693 Y99.294 E30.25092
G1 X100.706 Y113.307 E31.58572
G1 X99.943 Y113.307 E31.63715
G1 X86.693 Y100.057 E32.89920
G1 X86.693 Y100.821 E32.95064
G1 X99.179 Y113.307 E34.13995
G1 X98.415 Y113.307 E34.19139
G1 X86.693 Y101.585 E35.30795
G1 X86.693 Y102.348 E35.35939
G1 X97.652 Y113.307 E36.40322
G1 X96.888 Y113.307 E36.45465
G1 X86.693 Y103.112 E37.42574
G1 X86.693 Y103.876 E37.47718
G1 X96.124 Y113.307 E38.37552
G1 X95.361 Y113.307 E38.42696
G1 X86.693 Y104.639 E39.25256
G1 X86.693 Y105.403 E39.30400
G1 X94.597 Y113.307 E40.05686
G1 X93.833 Y113.307 E40.10829
G1 X86.693 Y106.167 E40.78842
G1 X86.693 Y106.930 E40.83985
G1 X93.070 Y113.307 E41.44723
G1 X92.306 Y113.307 E41.49867
G1 X86.693 Y107.694 E42.03331
G1 X86.693 Y108.458 E42.08474
G1 X91.542 Y113.307 E42.54664
G1 X90.778 Y113.307 E42.59808
G1 X86.693 Y109.222 E42.98723
G1 X86.693 Y109.985 E43.03867
G1 X90.015 Y113.307 E43.35508
G1 X89.251 Y113.307 E43.40652
G1 X86.693 Y110.749 E43.65019
G1 X86.693 Y111.513 E43.70163
G1 X88.487 Y113.307 E43.87256
G1 X87.724 Y113.307 E43.92400
G1 X86.693 Y112.276 E44.02219
G1 X86.693 Y113.040 E44.07363
G1 X86.960 Y113.307 E44.09908
G1 X97.877 Y99.023 F7800.000
G1 X112.162 Y113.307 E45.45966 F1800.000
G1 X112.925 Y113.307 E45.51110
G1 X98.534 Y98.916 E46.88185
G1 X95.299 Y97.208 F7800.000
G1 X86.693 Y88.602 E47.70158 F1800.000
