; generated by Slic3r 1.2.9 on 2018-11-09 at 17:40:35

; external perimeters extrusion width = 0.30mm
; perimeters extrusion width = 0.40mm
; infill extrusion width = 0.40mm
; solid infill extrusion width = 0.40mm
; top infill extrusion width = 0.40mm

M107
M190 S65 ; set bed temperature
M104 S205 ; set temperature
G28 ; home all axes
G1 Z5 F5000 ; lift nozzle

M109 S205 ; wait for temperature to be reached
G21 ; set units to millimeters
G90 ; use absolute coordinates
M82 ; use absolute distances for extrusion
G92 E0
G1 Z0.300 F7800.000
G1 E-2.00000 F2400.00000
G92 E0
G1 X54.555 Y69.649 F7800.000
G1 E2.00000 F2400.00000
G1 X61.771 Y63.997 E2.61239 F1800.000
G1 X62.214 Y63.675 E2.64892
G1 X64.346 Y62.242 E2.82055
G1 X65.458 Y61.624 E2.90558
G1 X67.801 Y60.570 E3.07721
G1 X69.002 Y60.147 E3.16224
G1 X71.489 Y59.502 E3.33387
G1 X72.744 Y59.288 E3.41890
G1 X75.304 Y59.071 E3.59053
G1 X75.940 Y59.044 E3.63309
G1 X124.020 Y59.044 E6.84506
G1 X124.656 Y59.071 E6.88761
G1 X127.216 Y59.288 E7.05925 F1800.000
G1 X128.471 Y59.502 E7.14428
G1 X130.957 Y60.147 E7.31591
G1 X132.158 Y60.570 E7.40093
G1 X134.501 Y61.624 E7.57257
G1 X135.613 Y62.242 E7.65759
G1 X137.746 Y63.675 E7.82923
G1 X138.179 Y63.990 E7.86498
G1 X147.585 Y71.334 E8.66219
G1 X148.347 Y72.017 E8.73060
G1 X149.245 Y72.940 E8.81662
G1 X150.264 Y74.248 E8.92740
G1 X150.939 Y75.345 E9.01343
G1 X151.647 Y76.845 E9.12423
G1 X152.065 Y78.063 E9.21025
G1 X152.428 Y79.681 E9.32103
G1 X152.569 Y80.961 E9.40706
G1 X152.615 Y81.790 E9.46254
G1 X152.615 Y118.210 E11.89559
G1 X152.569 Y119.039 E11.95108
G1 X152.428 Y120.319 E12.03709
G1 X152.065 Y121.937 E12.14789
G1 X151.647 Y123.155 E12.23390
G1 X150.939 Y124.655 E12.34471
G1 X150.264 Y125.752 E12.43072
G1 X149.245 Y127.060 E12.54151
G1 X148.347 Y127.983 E12.62753
G1 X147.585 Y128.666 E12.69594
G1 X138.179 Y136.010 E13.49315
G1 X137.746 Y136.325 E13.52890
G1 X135.614 Y137.758 E13.70053
G1 X134.501 Y138.376 E13.78555
G1 X132.158 Y139.430 E13.95719
G1 X130.957 Y139.853 E14.04223
G1 X128.471 Y140.498 E14.21386
G1 X127.216 Y140.712 E14.29889
G1 X124.656 Y140.929 E14.47052
G1 X124.020 Y140.956 E14.51307
G1 X75.940 Y140.956 E17.72505
G1 X75.304 Y140.929 E17.76760
G1 X72.744 Y140.712 E17.93923
G1 X71.489 Y140.498 E18.02426
G1 X69.002 Y139.853 E18.19589
G1 X67.801 Y139.430 E18.28093
G1 X65.458 Y138.376 E18.45256
G1 X64.346 Y137.758 E18.53759
G1 X62.214 Y136.325 E18.70922
G1 X61.771 Y136.003 E18.74575
G1 X52.107 Y128.433 E19.56590
G1 X51.018 Y127.388 E19.66672
G1 X50.127 Y126.343 E19.75845
G1 X49.146 Y124.871 E19.87660
G1 X48.524 Y123.648 E19.96832
G1 X47.906 Y121.960 E20.08841
G1 X47.592 Y120.653 E20.17819
G1 X47.385 Y118.896 E20.29634
G1 X47.385 Y81.104 E22.82111
G1 X47.592 Y79.347 E22.93925
G1 X47.912 Y78.012 E23.03099
G1 X48.524 Y76.352 E23.14914
G1 X49.146 Y75.129 E23.24086
G1 X50.127 Y73.657 E23.35902
G1 X51.018 Y72.612 E23.45074
G1 X52.107 Y71.567 E23.55156
G1 X54.520 Y69.677 E23.75632
G1 X55.175 Y71.138 F7800.000
G1 X57.097 Y70.337 E23.89545 F1800.000
G1 X57.795 Y70.139 E23.94391
G1 X57.961 Y70.112 E23.95514
G1 X58.140 Y70.004 E23.96910
G1 X59.775 Y67.810 E24.15191
G1 X60.121 Y67.420 E24.18672
G1 X62.359 Y65.289 E24.39317
G1 X62.765 Y64.963 E24.42799
G1 X63.027 Y64.787 E24.44906
G1 X65.330 Y63.239 E24.63443
G1 X65.785 Y62.985 E24.66925
G1 X68.604 Y61.717 E24.87569
G1 X69.095 Y61.545 E24.91051
G1 X72.087 Y60.769 E25.11695
G1 X72.600 Y60.681 E25.15177
G1 X75.679 Y60.420 E25.35821
G1 X76.200 Y60.420 E25.39302
G1 X79.280 Y60.681 E25.59947
G1 X79.793 Y60.769 E25.63428
G1 X82.785 Y61.545 E25.84073
G1 X83.276 Y61.717 E25.87554
G1 X86.095 Y62.985 E26.08199
G1 X86.550 Y63.239 E26.11680
G1 X86.812 Y63.415 E26.13787
G1 X89.115 Y64.963 E26.32325
G1 X89.521 Y65.289 E26.35806
G1 X91.759 Y67.420 E26.56450
G1 X92.104 Y67.810 E26.59932
G1 X93.731 Y69.991 E26.78108
G1 X93.884 Y70.094 E26.79342
G1 X94.423 Y70.230 E26.83050
G1 X96.265 Y70.919 E26.96193
G1 X96.872 Y71.226 E27.00735
G1 X98.520 Y72.301 E27.13879
G1 X99.044 Y72.733 E27.18421
G1 X99.736 Y73.444 E27.25048
G1 X100.209 Y73.428 E27.28209
G1 X100.380 Y73.228 E27.29965
G1 X100.912 Y72.735 E27.34810
G1 X102.608 Y71.499 E27.48829
G1 X103.240 Y71.144 E27.53675
G1 X105.177 Y70.337 E27.67693
G1 X105.875 Y70.139 E27.72539
G1 X106.041 Y70.112 E27.73662
G1 X106.219 Y70.004 E27.75058
G1 X107.855 Y67.810 E27.93339
G1 X108.201 Y67.420 E27.96820
G1 X110.439 Y65.289 E28.17465
G1 X110.845 Y64.963 E28.20947
G1 X111.107 Y64.787 E28.23054
G1 X113.410 Y63.239 E28.41591
G1 X113.865 Y62.985 E28.45073
G1 X116.683 Y61.717 E28.65717
G1 X117.175 Y61.545 E28.69199
G1 X120.166 Y60.769 E28.89843
G1 X120.680 Y60.681 E28.93325
G1 X123.759 Y60.420 E29.13969
G1 X124.280 Y60.420 E29.17450
G1 X124.594 Y60.447 E29.19557
G1 X127.359 Y60.681 E29.38095 F1800.000
G1 X127.873 Y60.769 E29.41576
G1 X130.864 Y61.545 E29.62221
G1 X131.356 Y61.717 E29.65702
G1 X134.174 Y62.985 E29.86347
G1 X134.630 Y63.239 E29.89828
G1 X134.891 Y63.415 E29.91935
G1 X137.194 Y64.963 E30.10473
G1 X137.601 Y65.289 E30.13954
G1 X139.838 Y67.420 E30.34598
G1 X140.184 Y67.810 E30.38080
G1 X141.810 Y69.991 E30.56256
G1 X141.964 Y70.094 E30.57490
G1 X142.502 Y70.230 E30.61198
G1 X144.345 Y70.919 E30.74341
G1 X144.952 Y71.226 E30.78883
G1 X146.599 Y72.301 E30.92027
G1 X147.124 Y72.733 E30.96569
G1 X148.496 Y74.143 E31.09712
G1 X148.914 Y74.680 E31.14254
G1 X149.945 Y76.356 E31.27399
G1 X150.235 Y76.970 E31.31941
G1 X150.874 Y78.831 E31.45084
G1 X151.023 Y79.494 E31.49626
G1 X151.239 Y81.450 E31.62770
G1 X151.239 Y82.130 E31.67313
G1 X151.023 Y84.085 E31.80456
G1 X150.874 Y84.749 E31.84998
G1 X150.235 Y86.610 E31.98142
G1 X149.945 Y87.225 E32.02685
G1 X148.914 Y88.900 E32.15827
G1 X148.496 Y89.437 E32.20369
G1 X147.124 Y90.847 E32.33513
G1 X146.599 Y91.279 E32.38054
G1 X144.952 Y92.354 E32.51199
G1 X144.345 Y92.661 E32.55741
G1 X142.502 Y93.350 E32.68884
G1 X141.964 Y93.486 E32.72592
G1 X141.810 Y93.589 E32.73825
G1 X140.184 Y95.770 E32.92002
G1 X139.838 Y96.160 E32.95483
G1 X137.601 Y98.291 E33.16128
G1 X137.194 Y98.617 E33.19609
G1 X135.562 Y99.715 E33.32749
G1 X135.562 Y100.285 E33.36561
G1 X137.194 Y101.383 E33.49701
G1 X137.601 Y101.709 E33.53183
G1 X139.838 Y103.840 E33.73827
G1 X140.184 Y104.230 E33.77308
G1 X141.810 Y106.411 E33.95485
G1 X141.964 Y106.514 E33.96718
G1 X142.502 Y106.650 E34.00427
G1 X144.345 Y107.339 E34.13570
G1 X144.952 Y107.646 E34.18112
G1 X146.599 Y108.721 E34.31256
G1 X147.124 Y109.153 E34.35798
G1 X148.496 Y110.563 E34.48941
G1 X148.914 Y111.100 E34.53483
G1 X149.945 Y112.776 E34.66627
G1 X150.235 Y113.390 E34.71170
G1 X150.874 Y115.251 E34.84313
G1 X151.023 Y115.914 E34.88854
G1 X151.063 Y116.280 E34.91309
G1 X151.239 Y117.870 E35.01999
G1 X151.239 Y118.550 E35.06542
G1 X151.023 Y120.505 E35.19684
G1 X150.874 Y121.169 E35.24227
G1 X150.235 Y123.030 E35.37370
G1 X149.945 Y123.645 E35.41914
G1 X148.914 Y125.320 E35.55056
G1 X148.496 Y125.857 E35.59598
G1 X147.124 Y127.267 E35.72741
G1 X146.599 Y127.699 E35.77283
G1 X144.952 Y128.774 E35.90427
G1 X144.345 Y129.081 E35.94970
G1 X142.502 Y129.770 E36.08112
G1 X141.964 Y129.906 E36.11821
G1 X141.810 Y130.009 E36.13054
G1 X140.184 Y132.190 E36.31230
G1 X139.838 Y132.580 E36.34712
G1 X137.601 Y134.711 E36.55356
G1 X137.194 Y135.037 E36.58838
G1 X134.630 Y136.761 E36.79482
G1 X134.174 Y137.015 E36.82963
G1 X131.356 Y138.283 E37.03608
G1 X130.864 Y138.455 E37.07090
G1 X127.873 Y139.231 E37.27734
G1 X127.359 Y139.319 E37.31216
G1 X124.280 Y139.580 E37.51860
G1 X123.759 Y139.580 E37.55341
G1 X120.680 Y139.319 E37.75986
G1 X120.166 Y139.231 E37.79467
G1 X117.175 Y138.455 E38.00112
G1 X116.683 Y138.282 E38.03594
G1 X113.865 Y137.015 E38.24238
G1 X113.409 Y136.761 E38.27720
G1 X110.845 Y135.037 E38.48364
G1 X110.439 Y134.711 E38.51845
G1 X108.201 Y132.580 E38.72489
G1 X107.855 Y132.190 E38.75971
G1 X106.219 Y129.996 E38.94252
G1 X106.041 Y129.888 E38.95649
G1 X105.874 Y129.861 E38.96772
G1 X105.177 Y129.663 E39.01618
G1 X103.240 Y128.856 E39.15636
G1 X102.607 Y128.501 E39.20482
G1 X100.912 Y127.265 E39.34499
G1 X100.380 Y126.772 E39.39345
G1 X100.209 Y126.572 E39.41101
G1 X99.736 Y126.556 E39.44263
G1 X99.044 Y127.267 E39.50889
G1 X98.520 Y127.699 E39.55431
G1 X96.872 Y128.774 E39.68575
G1 X96.265 Y129.081 E39.73118
G1 X94.423 Y129.770 E39.86260
G1 X93.884 Y129.906 E39.89969
G1 X93.731 Y130.009 E39.91202
G1 X92.105 Y132.190 E40.09378
G1 X91.759 Y132.580 E40.12860
G1 X89.521 Y134.711 E40.33504
G1 X89.115 Y135.037 E40.36986
G1 X86.550 Y136.761 E40.57630
G1 X86.095 Y137.015 E40.61111
G1 X83.276 Y138.283 E40.81756
G1 X82.785 Y138.455 E40.85238
G1 X79.793 Y139.231 E41.05882
G1 X79.280 Y139.319 E41.09364
G1 X76.201 Y139.580 E41.30008
G1 X75.679 Y139.580 E41.33489
G1 X72.600 Y139.319 E41.54134
G1 X72.087 Y139.231 E41.57615
G1 X69.095 Y138.455 E41.78260
G1 X68.604 Y138.282 E41.81742
G1 X65.785 Y137.015 E42.02386
G1 X65.330 Y136.761 E42.05868
G1 X62.765 Y135.037 E42.26512
G1 X62.359 Y134.711 E42.29993
G1 X60.121 Y132.580 E42.50637
G1 X59.776 Y132.190 E42.54119
G1 X58.140 Y129.996 E42.72400
G1 X57.961 Y129.888 E42.73797
G1 X57.795 Y129.861 E42.74920
G1 X57.097 Y129.663 E42.79766
G1 X55.160 Y128.856 E42.93784
G1 X54.528 Y128.501 E42.98630
G1 X52.832 Y127.265 E43.12647
G1 X52.300 Y126.772 E43.17493
G1 X50.939 Y125.174 E43.31511
G1 X50.537 Y124.571 E43.36357
G1 X49.586 Y122.701 E43.50374
G1 X49.335 Y122.020 E43.55220
G1 X48.846 Y119.979 E43.69238
G1 X48.761 Y119.259 E43.74084
G1 X48.761 Y117.161 E43.88101
G1 X48.846 Y116.441 E43.92946
G1 X49.335 Y114.400 E44.06965
G1 X49.586 Y113.719 E44.11811
G1 X50.537 Y111.849 E44.25829
G1 X50.939 Y111.245 E44.30675
G1 X52.300 Y109.648 E44.44692
G1 X52.832 Y109.155 E44.49538
G1 X54.528 Y107.919 E44.63556
G1 X55.160 Y107.564 E44.68403
G1 X57.097 Y106.757 E44.82420
G1 X57.795 Y106.559 E44.87266
G1 X57.961 Y106.532 E44.88389
G1 X58.140 Y106.424 E44.89785
G1 X59.775 Y104.230 E45.08067
G1 X60.121 Y103.840 E45.11548
G1 X62.359 Y101.709 E45.32193
G1 X62.765 Y101.383 E45.35674
G1 X64.398 Y100.285 E45.48814
G1 X64.398 Y99.715 E45.52626
G1 X62.765 Y98.617 E45.65767
G1 X62.359 Y98.291 E45.69248
G1 X60.121 Y96.160 E45.89892
G1 X59.776 Y95.770 E45.93374
G1 X58.140 Y93.576 E46.11655
G1 X57.961 Y93.468 E46.13052
G1 X57.795 Y93.441 E46.14175
G1 X57.097 Y93.243 E46.19021
G1 X55.160 Y92.436 E46.33039
G1 X54.528 Y92.081 E46.37885
G1 X52.832 Y90.845 E46.51902
G1 X52.300 Y90.352 E46.56748
G1 X50.939 Y88.754 E46.70766
G1 X50.537 Y88.151 E46.75612
G1 X49.586 Y86.281 E46.89629
G1 X49.335 Y85.600 E46.94475
G1 X48.846 Y83.559 E47.08493
G1 X48.761 Y82.839 E47.13339
G1 X48.761 Y80.741 E47.27356
G1 X48.846 Y80.021 E47.32201
G1 X48.937 Y79.639 E47.34820
G1 X49.335 Y77.980 E47.46220
G1 X49.586 Y77.299 E47.51066
G1 X50.537 Y75.429 E47.65084
G1 X50.939 Y74.825 E47.69930
G1 X52.300 Y73.228 E47.83947
G1 X52.832 Y72.735 E47.88793
G1 X54.528 Y71.499 E48.02811
G1 X55.135 Y71.158 E48.07462
G1 X55.395 Y71.626 F7800.000
G1 X57.274 Y70.844 E48.21058 F1800.000
G1 X57.911 Y70.663 E48.25483
G1 X58.260 Y70.607 E48.27847
G1 X58.439 Y70.498 E48.29243
G1 X60.191 Y68.148 E48.48825
G1 X60.507 Y67.792 E48.52003
G1 X62.712 Y65.692 E48.72345
G1 X63.083 Y65.395 E48.75524
G1 X65.610 Y63.696 E48.95866
G1 X66.026 Y63.465 E48.99045
G1 X68.803 Y62.215 E49.19386
G1 X69.252 Y62.057 E49.22565
G1 X72.199 Y61.293 E49.42907
G1 X72.668 Y61.213 E49.46085
G1 X75.702 Y60.956 E49.66427
G1 X76.178 Y60.956 E49.69605
G1 X79.212 Y61.213 E49.89948
G1 X79.681 Y61.293 E49.93126
G1 X82.628 Y62.057 E50.13468
G1 X83.077 Y62.215 E50.16646
G1 X85.854 Y63.465 E50.36988
G1 X86.270 Y63.696 E50.40167
G1 X86.513 Y63.859 E50.42123
G1 X88.797 Y65.395 E50.60509
G1 X89.168 Y65.692 E50.63688
G1 X91.373 Y67.792 E50.84029
G1 X91.689 Y68.148 E50.87208
G1 X93.415 Y70.464 E51.06504
G1 X93.569 Y70.566 E51.07737
G1 X94.263 Y70.742 E51.12519
G1 X96.050 Y71.410 E51.25267
G1 X96.604 Y71.690 E51.29414
G1 X98.202 Y72.734 E51.42163
G1 X98.681 Y73.128 E51.46310
G1 X99.763 Y74.239 E51.56667
G1 X100.236 Y74.223 E51.59829
G1 X100.767 Y73.600 E51.65302
G1 X101.253 Y73.150 E51.69726
G1 X102.898 Y71.951 E51.83324
G1 X103.475 Y71.626 E51.87748
G1 X105.354 Y70.844 E52.01344
G1 X105.991 Y70.663 E52.05769
G1 X106.340 Y70.607 E52.08133
G1 X106.519 Y70.498 E52.09529
G1 X108.271 Y68.148 E52.29111
G1 X108.587 Y67.792 E52.32289
G1 X110.792 Y65.692 E52.52631
G1 X111.163 Y65.395 E52.55810
G1 X113.690 Y63.696 E52.76152
G1 X114.105 Y63.465 E52.79331
G1 X116.882 Y62.215 E52.99672
G1 X117.331 Y62.057 E53.02851
G1 X120.279 Y61.293 E53.23193
G1 X120.748 Y61.213 E53.26372
G1 X123.782 Y60.956 E53.46713
G1 X124.257 Y60.956 E53.49891
G1 X127.292 Y61.213 E53.70234 F1800.000
G1 X127.761 Y61.293 E53.73412
G1 X130.708 Y62.057 E53.93754
G1 X131.157 Y62.215 E53.96933
G1 X133.934 Y63.465 E54.17274
G1 X134.350 Y63.696 E54.20453
G1 X136.877 Y65.395 E54.40795
G1 X137.248 Y65.692 E54.43974
G1 X139.453 Y67.792 E54.64315
G1 X139.768 Y68.148 E54.67494
G1 X141.495 Y70.464 E54.86790
G1 X141.648 Y70.566 E54.88023
G1 X142.342 Y70.742 E54.92805
G1 X144.130 Y71.410 E55.05553
G1 X144.684 Y71.690 E55.09700
G1 X146.282 Y72.734 E55.22449
G1 X146.761 Y73.128 E55.26596
G1 X148.092 Y74.496 E55.39344
G1 X148.473 Y74.985 E55.43491
G1 X149.473 Y76.611 E55.56241
G1 X149.738 Y77.172 E55.60389
G1 X150.358 Y78.977 E55.73136
G1 X150.494 Y79.583 E55.77283
G1 X150.704 Y81.480 E55.90032
G1 X150.704 Y82.101 E55.94181
G1 X150.494 Y83.997 E56.06928
G1 X150.358 Y84.603 E56.11076
G1 X149.738 Y86.408 E56.23824
G1 X149.473 Y86.969 E56.27973
G1 X148.473 Y88.595 E56.40719
G1 X148.092 Y89.084 E56.44866
G1 X146.761 Y90.452 E56.57615
G1 X146.282 Y90.846 E56.61762
G1 X144.684 Y91.890 E56.74511
G1 X144.130 Y92.170 E56.78659
G1 X142.342 Y92.838 E56.91406
G1 X141.648 Y93.014 E56.96188
G1 X141.495 Y93.116 E56.97421
G1 X139.768 Y95.432 E57.16717
G1 X139.453 Y95.788 E57.19896
G1 X137.248 Y97.888 E57.40238
G1 X136.877 Y98.185 E57.43416
G1 X134.602 Y99.715 E57.61727
G1 X134.602 Y100.285 E57.65540
G1 X136.877 Y101.815 E57.83851
G1 X137.248 Y102.112 E57.87030
G1 X139.453 Y104.212 E58.07371
G1 X139.768 Y104.568 E58.10550
G1 X141.495 Y106.884 E58.29846
G1 X141.648 Y106.986 E58.31079
G1 X142.342 Y107.162 E58.35861
G1 X144.130 Y107.830 E58.48609
G1 X144.684 Y108.110 E58.52756
G1 X146.282 Y109.154 E58.65505
G1 X146.761 Y109.548 E58.69652
G1 X148.092 Y110.916 E58.82400
G1 X148.473 Y111.405 E58.86547
G1 X149.473 Y113.031 E58.99297
G1 X149.738 Y113.592 E59.03444
G1 X150.358 Y115.397 E59.16192
G1 X150.494 Y116.003 E59.20339
G1 X150.531 Y116.339 E59.22596
G1 X150.704 Y117.900 E59.33088
G1 X150.704 Y118.521 E59.37236
G1 X150.494 Y120.417 E59.49984
G1 X150.358 Y121.023 E59.54132
G1 X149.738 Y122.828 E59.66880
G1 X149.473 Y123.389 E59.71028
G1 X148.473 Y125.015 E59.83775
G1 X148.092 Y125.504 E59.87922
G1 X146.761 Y126.872 E60.00671
G1 X146.282 Y127.266 E60.04818
G1 X144.684 Y128.310 E60.17567
G1 X144.130 Y128.590 E60.21714
G1 X142.342 Y129.258 E60.34462
G1 X141.648 Y129.434 E60.39244
G1 X141.495 Y129.536 E60.40477
G1 X139.768 Y131.852 E60.59773
G1 X139.453 Y132.208 E60.62952
G1 X137.248 Y134.308 E60.83293
G1 X136.877 Y134.605 E60.86472
G1 X134.350 Y136.304 E61.06814
G1 X133.934 Y136.535 E61.09992
G1 X131.157 Y137.785 E61.30334
G1 X130.708 Y137.943 E61.33513
G1 X127.761 Y138.707 E61.53855
G1 X127.291 Y138.787 E61.57034
G1 X124.257 Y139.044 E61.77375
G1 X123.782 Y139.044 E61.80554
G1 X120.748 Y138.787 E62.00896
G1 X120.279 Y138.707 E62.04075
G1 X117.331 Y137.943 E62.24416
G1 X116.882 Y137.785 E62.27595
G1 X114.105 Y136.535 E62.47937
G1 X113.689 Y136.304 E62.51116
G1 X111.163 Y134.605 E62.71457
G1 X110.792 Y134.308 E62.74636
G1 X108.587 Y132.208 E62.94977
G1 X108.271 Y131.852 E62.98156
G1 X106.519 Y129.502 E63.17738
G1 X106.340 Y129.393 E63.19134
G1 X105.991 Y129.337 E63.21499
G1 X105.354 Y129.156 E63.25923
G1 X103.475 Y128.374 E63.39520
G1 X102.897 Y128.049 E63.43944
G1 X101.253 Y126.850 E63.57540
G1 X100.767 Y126.400 E63.61964
G1 X100.236 Y125.777 E63.67438
G1 X99.763 Y125.761 E63.70600
G1 X98.681 Y126.872 E63.80957
G1 X98.202 Y127.266 E63.85104
G1 X96.604 Y128.310 E63.97853
G1 X96.050 Y128.590 E64.02001
G1 X94.263 Y129.258 E64.14748
