; generated by Slic3r 1.2.9 on 2018-11-10 at 14:46:38

; external perimeters extrusion width = 0.30mm
; perimeters extrusion width = 0.40mm
; infill extrusion width = 0.40mm
; solid infill extrusion width = 0.40mm
; top infill extrusion width = 0.40mm

M107
M190 S65 ; set bed temperature
M104 S205 ; set temperature
G28 ; home all axes
G1 Z5 F5000 ; lift nozzle

M109 S205 ; wait for temperature to be reached
G21 ; set units to millimeters
G90 ; use absolute coordinates
M82 ; use absolute distances for extrusion
G92 E0
G1 Z0.300 F7800.000
G1 E-2.00000 F2400.00000
G92 E0
G1 X58.959 Y75.886 F7800.000
G1 E2.00000 F2400.00000
G1 X60.155 Y75.050 E2.09749 F1800.000
G1 X68.548 Y69.695 E2.76262
G1 X70.529 Y68.512 E2.91674
G1 X71.743 Y67.930 E3.00669
G1 X73.684 Y67.203 E3.14517
G1 X74.983 Y66.846 E3.23512
G1 X77.022 Y66.477 E3.37360
G1 X78.364 Y66.357 E3.46356
G1 X121.604 Y66.357 E6.35223
G1 X122.945 Y66.477 E6.44218
G1 X124.985 Y66.846 E6.58066 F1800.000
G1 X126.283 Y67.203 E6.67061
G1 X128.224 Y67.930 E6.80909
G1 X129.438 Y68.512 E6.89905
G1 X131.428 Y69.701 E7.05388
G1 X140.507 Y75.510 E7.77393
G1 X141.786 Y76.541 E7.88367
G1 X142.510 Y77.269 E7.95229
G1 X143.557 Y78.587 E8.06469
G1 X144.102 Y79.457 E8.13330
G1 X144.830 Y80.974 E8.24571
G1 X145.168 Y81.944 E8.31432
G1 X145.541 Y83.584 E8.42669
G1 X145.656 Y84.605 E8.49533
G1 X145.703 Y85.446 E8.55162
G1 X145.703 Y114.554 E10.49614
G1 X145.656 Y115.395 E10.55243
G1 X145.541 Y116.416 E10.62104
G1 X145.168 Y118.056 E10.73344
G1 X144.830 Y119.026 E10.80206
G1 X144.102 Y120.542 E10.91444
G1 X143.557 Y121.413 E10.98308
G1 X142.510 Y122.731 E11.09548
G1 X141.786 Y123.459 E11.16409
G1 X140.507 Y124.490 E11.27383
G1 X131.428 Y130.299 E11.99389
G1 X129.438 Y131.488 E12.14872
G1 X128.224 Y132.070 E12.23867
G1 X126.283 Y132.797 E12.37715
G1 X124.985 Y133.154 E12.46710
G1 X122.945 Y133.523 E12.60558
G1 X121.604 Y133.643 E12.69553
G1 X78.364 Y133.643 E15.58421
G1 X77.022 Y133.523 E15.67416
G1 X74.983 Y133.154 E15.81264
G1 X73.684 Y132.797 E15.90259
G1 X71.743 Y132.070 E16.04107
G1 X70.529 Y131.488 E16.13103
G1 X68.548 Y130.305 E16.28514
G1 X60.155 Y124.950 E16.95028
G1 X58.959 Y124.114 E17.04775
G1 X57.628 Y122.911 E17.16761
G1 X56.909 Y122.084 E17.24078
G1 X55.889 Y120.576 E17.36244
G1 X55.398 Y119.627 E17.43380
G1 X54.770 Y117.947 E17.55364
G1 X54.511 Y116.883 E17.62682
G1 X54.297 Y115.101 E17.74668
G1 X54.297 Y84.899 E19.76437
G1 X54.517 Y83.091 E19.88605
G1 X54.770 Y82.053 E19.95738
G1 X55.398 Y80.373 E20.07724
G1 X55.901 Y79.400 E20.15041
G1 X56.909 Y77.916 E20.27027
G1 X57.628 Y77.089 E20.34344
G1 X58.925 Y75.916 E20.46028
G1 X59.754 Y77.009 F7800.000
G1 X60.948 Y76.163 E20.55803 F1800.000
G1 X61.595 Y75.812 E20.60719
G1 X63.297 Y75.137 E20.72953
G1 X64.009 Y74.949 E20.77869
G1 X64.588 Y74.868 E20.81780
G1 X64.745 Y74.791 E20.82947
G1 X64.849 Y74.687 E20.83928
G1 X65.188 Y74.687 E20.86194
G1 X65.408 Y74.581 E20.87822
G1 X66.405 Y73.338 E20.98470
G1 X66.787 Y72.941 E21.02154
G1 X68.767 Y71.219 E21.19686
G1 X69.214 Y70.895 E21.23370
G1 X71.469 Y69.553 E21.40901
G1 X71.967 Y69.315 E21.44585
G1 X74.425 Y68.396 E21.62116
G1 X74.956 Y68.249 E21.65800
G1 X77.539 Y67.782 E21.83331
G1 X78.088 Y67.733 E21.87015
G1 X80.712 Y67.733 E22.04546
G1 X81.261 Y67.782 E22.08230
G1 X83.844 Y68.249 E22.25762 F1800.000
G1 X84.375 Y68.396 E22.29446
G1 X86.833 Y69.315 E22.46977
G1 X87.331 Y69.553 E22.50661
G1 X89.586 Y70.895 E22.68193
G1 X90.033 Y71.219 E22.71877
G1 X92.013 Y72.941 E22.89408
G1 X92.395 Y73.338 E22.93092
G1 X93.392 Y74.581 E23.03740
G1 X93.612 Y74.687 E23.05368
G1 X93.951 Y74.687 E23.07634
G1 X94.039 Y74.774 E23.08461
G1 X94.202 Y74.853 E23.09669
G1 X94.500 Y74.888 E23.11673
G1 X95.171 Y75.044 E23.16281
G1 X96.790 Y75.617 E23.27751
G1 X97.410 Y75.918 E23.32359
G1 X98.862 Y76.836 E23.43829
G1 X99.400 Y77.268 E23.48438
G1 X99.745 Y77.615 E23.51708
G1 X100.174 Y77.626 E23.54573
G1 X100.621 Y77.221 E23.58601
G1 X102.115 Y76.163 E23.70834
G1 X102.762 Y75.812 E23.75749
G1 X104.464 Y75.137 E23.87984
G1 X105.176 Y74.949 E23.92900
G1 X105.756 Y74.868 E23.96811
G1 X105.912 Y74.791 E23.97978
G1 X106.016 Y74.687 E23.98958
G1 X106.355 Y74.687 E24.01225
G1 X106.575 Y74.581 E24.02852
G1 X107.572 Y73.338 E24.13501
G1 X107.954 Y72.941 E24.17185
G1 X109.935 Y71.219 E24.34716
G1 X110.382 Y70.895 E24.38400
G1 X112.637 Y69.553 E24.55931
G1 X113.134 Y69.315 E24.59615
G1 X115.592 Y68.396 E24.77147
G1 X116.124 Y68.249 E24.80831
G1 X116.446 Y68.191 E24.83019
G1 X118.706 Y67.782 E24.98362
G1 X119.255 Y67.733 E25.02046
G1 X121.879 Y67.733 E25.19577
G1 X122.429 Y67.782 E25.23261
G1 X125.011 Y68.249 E25.40792
G1 X125.543 Y68.396 E25.44476
G1 X128.001 Y69.315 E25.62008
G1 X128.498 Y69.553 E25.65692
G1 X130.753 Y70.895 E25.83223
G1 X131.200 Y71.219 E25.86908
G1 X133.180 Y72.941 E26.04438
G1 X133.562 Y73.338 E26.08123
G1 X134.560 Y74.581 E26.18771
G1 X134.779 Y74.687 E26.20399
G1 X135.119 Y74.687 E26.22665
G1 X135.206 Y74.774 E26.23492
G1 X135.369 Y74.853 E26.24700
G1 X135.667 Y74.888 E26.26704
G1 X136.339 Y75.044 E26.31312
G1 X137.957 Y75.617 E26.42782
G1 X138.578 Y75.918 E26.47390
G1 X140.029 Y76.836 E26.58860
G1 X140.567 Y77.268 E26.63468
G1 X141.778 Y78.484 E26.74938
G1 X142.207 Y79.025 E26.79548
G1 X143.118 Y80.480 E26.91016
G1 X143.417 Y81.102 E26.95624
G1 X143.982 Y82.723 E27.07093
G1 X144.135 Y83.395 E27.11700
G1 X144.327 Y85.102 E27.23172
G1 X144.327 Y85.792 E27.27782
G1 X144.135 Y87.497 E27.39249
G1 X143.982 Y88.170 E27.43857
G1 X143.417 Y89.791 E27.55327
G1 X143.118 Y90.413 E27.59934
G1 X142.207 Y91.868 E27.71406
G1 X141.778 Y92.409 E27.76016
G1 X140.567 Y93.625 E27.87483
G1 X140.029 Y94.057 E27.92091
G1 X138.578 Y94.974 E28.03561
G1 X137.957 Y95.276 E28.08170
G1 X136.339 Y95.849 E28.19639
G1 X135.667 Y96.005 E28.24248
G1 X135.369 Y96.040 E28.26251
G1 X135.206 Y96.118 E28.27459
G1 X135.119 Y96.206 E28.28286
G1 X134.779 Y96.206 E28.30552
G1 X134.560 Y96.311 E28.32180
G1 X133.562 Y97.555 E28.42829
G1 X133.180 Y97.952 E28.46512
G1 X131.106 Y99.756 E28.64877
G1 X131.106 Y100.244 E28.68137
G1 X133.180 Y102.048 E28.86502
G1 X133.562 Y102.445 E28.90186
G1 X134.560 Y103.689 E29.00834
G1 X134.779 Y103.794 E29.02462
G1 X135.119 Y103.794 E29.04728
G1 X135.206 Y103.882 E29.05555
G1 X135.369 Y103.960 E29.06763
G1 X135.667 Y103.995 E29.08767
G1 X136.339 Y104.151 E29.13375
G1 X137.957 Y104.724 E29.24845
G1 X138.578 Y105.026 E29.29453
G1 X140.029 Y105.943 E29.40923
G1 X140.567 Y106.375 E29.45532
G1 X141.778 Y107.592 E29.57001
G1 X142.207 Y108.132 E29.61611
G1 X143.118 Y109.587 E29.73079
G1 X143.417 Y110.209 E29.77687
G1 X143.982 Y111.830 E29.89156
G1 X144.135 Y112.502 E29.93763
G1 X144.327 Y114.209 E30.05235
G1 X144.327 Y114.899 E30.09845
G1 X144.135 Y116.605 E30.21312
G1 X143.982 Y117.277 E30.25920
G1 X143.860 Y117.627 E30.28396
G1 X143.417 Y118.898 E30.37390
G1 X143.118 Y119.520 E30.41997
G1 X142.207 Y120.976 E30.53469
G1 X141.778 Y121.516 E30.58079
G1 X140.567 Y122.732 E30.69546
G1 X140.029 Y123.164 E30.74154
G1 X138.578 Y124.082 E30.85624
G1 X137.957 Y124.383 E30.90233
G1 X136.339 Y124.956 E31.01702
G1 X135.667 Y125.112 E31.06311
G1 X135.369 Y125.147 E31.08314
G1 X135.206 Y125.226 E31.09522
G1 X135.119 Y125.313 E31.10349
G1 X134.779 Y125.313 E31.12615
G1 X134.560 Y125.419 E31.14243
G1 X133.562 Y126.662 E31.24892
G1 X133.180 Y127.059 E31.28576
G1 X131.200 Y128.781 E31.46107
G1 X130.753 Y129.105 E31.49791
G1 X128.498 Y130.447 E31.67323
G1 X128.001 Y130.685 E31.71007
G1 X125.543 Y131.604 E31.88538
G1 X125.011 Y131.751 E31.92222
G1 X122.429 Y132.218 E32.09753
G1 X121.879 Y132.267 E32.13437
G1 X119.255 Y132.267 E32.30968
G1 X118.706 Y132.218 E32.34652
G1 X116.124 Y131.751 E32.52183
G1 X115.592 Y131.604 E32.55867
G1 X113.134 Y130.685 E32.73399
G1 X112.637 Y130.447 E32.77083
G1 X110.382 Y129.105 E32.94614
G1 X109.935 Y128.781 E32.98298
G1 X107.954 Y127.059 E33.15829
G1 X107.572 Y126.662 E33.19513
G1 X106.575 Y125.419 E33.30162
G1 X106.355 Y125.313 E33.31790
G1 X106.016 Y125.313 E33.34056
G1 X105.912 Y125.209 E33.35036
G1 X105.756 Y125.132 E33.36203
G1 X105.176 Y125.051 E33.40114
G1 X104.464 Y124.863 E33.45031
G1 X102.762 Y124.188 E33.57263
G1 X102.115 Y123.837 E33.62180
G1 X100.621 Y122.779 E33.74412
G1 X100.174 Y122.374 E33.78441
G1 X99.745 Y122.385 E33.81306
G1 X99.400 Y122.732 E33.84577
G1 X98.862 Y123.164 E33.89185
G1 X97.410 Y124.082 E34.00655
G1 X96.790 Y124.383 E34.05264
G1 X95.171 Y124.956 E34.16733
G1 X94.500 Y125.112 E34.21342
G1 X94.202 Y125.147 E34.23345
G1 X94.039 Y125.226 E34.24553
G1 X93.951 Y125.313 E34.25380
G1 X93.612 Y125.313 E34.27646
G1 X93.392 Y125.419 E34.29274
G1 X92.395 Y126.662 E34.39923
G1 X92.013 Y127.059 E34.43606
G1 X90.032 Y128.781 E34.61138
G1 X89.586 Y129.105 E34.64822
G1 X87.331 Y130.447 E34.82353
G1 X86.833 Y130.685 E34.86038
G1 X84.375 Y131.604 E35.03569
G1 X83.844 Y131.751 E35.07253
G1 X81.261 Y132.218 E35.24784
G1 X80.712 Y132.267 E35.28468
G1 X78.088 Y132.267 E35.45999
G1 X77.539 Y132.218 E35.49683
G1 X74.956 Y131.751 E35.67214
G1 X74.425 Y131.604 E35.70898
G1 X71.967 Y130.685 E35.88430
G1 X71.469 Y130.447 E35.92113
G1 X69.214 Y129.105 E36.09645
G1 X68.767 Y128.781 E36.13328
G1 X66.787 Y127.059 E36.30860
G1 X66.405 Y126.662 E36.34544
G1 X65.408 Y125.419 E36.45192
G1 X65.188 Y125.313 E36.46820
G1 X64.849 Y125.313 E36.49087
G1 X64.745 Y125.209 E36.50067
G1 X64.588 Y125.132 E36.51234
G1 X64.009 Y125.051 E36.55145
G1 X63.297 Y124.863 E36.60062
G1 X61.595 Y124.188 E36.72294
G1 X60.948 Y123.837 E36.77210
G1 X59.454 Y122.779 E36.89443
G1 X58.908 Y122.285 E36.94359
G1 X57.706 Y120.904 E37.06592
G1 X57.293 Y120.295 E37.11507
G1 X57.111 Y119.944 E37.14149
G1 X56.451 Y118.668 E37.23741
G1 X56.194 Y117.979 E37.28657
G1 X55.761 Y116.200 E37.40890
G1 X55.673 Y115.469 E37.45807
G1 X55.673 Y113.638 E37.58039
G1 X55.761 Y112.908 E37.62954
G1 X55.854 Y112.523 E37.65595
G1 X56.194 Y111.128 E37.75188
G1 X56.451 Y110.439 E37.80105
G1 X57.293 Y108.812 E37.92338
G1 X57.706 Y108.204 E37.97254
G1 X58.908 Y106.822 E38.09486
G1 X59.454 Y106.329 E38.14402
G1 X60.948 Y105.270 E38.26635
G1 X61.595 Y104.920 E38.31550
G1 X63.297 Y104.245 E38.43785
G1 X64.009 Y104.057 E38.48701
G1 X64.588 Y103.976 E38.52612
G1 X64.745 Y103.898 E38.53779
G1 X64.849 Y103.794 E38.54759
G1 X65.188 Y103.794 E38.57026
G1 X65.408 Y103.689 E38.58653
G1 X66.405 Y102.445 E38.69302
G1 X66.787 Y102.048 E38.72986
G1 X68.862 Y100.244 E38.91350
G1 X68.862 Y99.756 E38.94611
G1 X66.787 Y97.952 E39.12975
G1 X66.405 Y97.555 E39.16659
G1 X65.408 Y96.311 E39.27307
G1 X65.188 Y96.206 E39.28935
G1 X64.849 Y96.206 E39.31201
G1 X64.745 Y96.102 E39.32181
G1 X64.588 Y96.024 E39.33348
G1 X64.009 Y95.943 E39.37260
G1 X63.297 Y95.755 E39.42176
G1 X61.595 Y95.081 E39.54409
G1 X60.948 Y94.730 E39.59325
G1 X59.454 Y93.672 E39.71558
G1 X58.908 Y93.178 E39.76474
G1 X57.706 Y91.796 E39.88707
G1 X57.293 Y91.188 E39.93622
G1 X56.451 Y89.561 E40.05856
G1 X56.194 Y88.872 E40.10771
G1 X56.100 Y88.488 E40.13412
G1 X55.761 Y87.093 E40.23005
G1 X55.673 Y86.362 E40.27921
G1 X55.673 Y84.531 E40.40154
G1 X55.761 Y83.800 E40.45069
G1 X56.194 Y82.021 E40.57303
G1 X56.451 Y81.332 E40.62219
G1 X57.293 Y79.705 E40.74452
G1 X57.706 Y79.096 E40.79368
G1 X58.908 Y77.715 E40.91601
G1 X59.454 Y77.221 E40.96517
G1 X59.717 Y77.035 E40.98674
G1 X60.063 Y77.446 F7800.000
G1 X61.231 Y76.619 E41.08235 F1800.000
G1 X61.822 Y76.298 E41.12723
G1 X63.465 Y75.647 E41.24530
G1 X64.115 Y75.475 E41.29019
G1 X64.840 Y75.374 E41.33915
G1 X64.997 Y75.296 E41.35082
G1 X65.070 Y75.222 E41.35779
G1 X65.445 Y75.222 E41.38280
G1 X65.664 Y75.117 E41.39907
G1 X66.808 Y73.692 E41.52112
G1 X67.157 Y73.329 E41.55476
G1 X69.101 Y71.639 E41.72687
G1 X69.509 Y71.343 E41.76051
G1 X71.723 Y70.026 E41.93262
G1 X72.177 Y69.808 E41.96625
G1 X74.590 Y68.906 E42.13836
G1 X75.075 Y68.772 E42.17200
G1 X75.374 Y68.718 E42.19228
G1 X77.610 Y68.314 E42.34411
G1 X78.112 Y68.269 E42.37774
G1 X80.688 Y68.269 E42.54985
G1 X81.190 Y68.314 E42.58349 F1800.000
G1 X81.488 Y68.368 E42.60377
G1 X83.725 Y68.772 E42.75560
G1 X84.210 Y68.906 E42.78924
G1 X86.623 Y69.808 E42.96135
G1 X87.077 Y70.026 E42.99498
G1 X89.291 Y71.343 E43.16709
G1 X89.699 Y71.639 E43.20073
G1 X91.643 Y73.329 E43.37284
G1 X91.992 Y73.692 E43.40648
G1 X93.135 Y75.117 E43.52852
G1 X93.355 Y75.222 E43.54480
G1 X93.730 Y75.222 E43.56981
G1 X93.792 Y75.285 E43.57570
G1 X93.955 Y75.363 E43.58778
G1 X94.408 Y75.416 E43.61825
G1 X95.021 Y75.559 E43.66032
G1 X96.583 Y76.112 E43.77101
G1 X97.150 Y76.387 E43.81309
G1 X98.550 Y77.273 E43.92378
G1 X99.041 Y77.667 E43.96586
G1 X99.753 Y78.382 E44.03323
G1 X100.219 Y78.366 E44.06439
G1 X100.458 Y78.091 E44.08876
G1 X100.957 Y77.640 E44.13364
G1 X102.399 Y76.619 E44.25170
G1 X102.989 Y76.298 E44.29658
G1 X104.632 Y75.647 E44.41464
G1 X105.282 Y75.475 E44.45953
G1 X106.008 Y75.374 E44.50850
G1 X106.164 Y75.296 E44.52016
G1 X106.238 Y75.222 E44.52713
G1 X106.612 Y75.222 E44.55214
G1 X106.832 Y75.117 E44.56842
G1 X107.975 Y73.692 E44.69047
G1 X108.324 Y73.329 E44.72410
G1 X110.268 Y71.639 E44.89622
G1 X110.676 Y71.343 E44.92985
G1 X112.890 Y70.026 E45.10196
G1 X113.344 Y69.808 E45.13560
G1 X115.757 Y68.906 E45.30771
G1 X116.242 Y68.772 E45.34134
G1 X118.778 Y68.314 E45.51345
G1 X119.279 Y68.269 E45.54709
G1 X121.855 Y68.269 E45.71920
G1 X122.357 Y68.314 E45.75283
G1 X124.892 Y68.772 E45.92494
G1 X125.378 Y68.906 E45.95858
G1 X127.791 Y69.808 E46.13069
G1 X128.245 Y70.026 E46.16433
G1 X130.459 Y71.343 E46.33644
G1 X130.867 Y71.639 E46.37008
G1 X132.811 Y73.329 E46.54218
G1 X133.160 Y73.692 E46.57582
G1 X134.303 Y75.117 E46.69787
G1 X134.522 Y75.222 E46.71415
G1 X134.897 Y75.222 E46.73916
G1 X134.959 Y75.285 E46.74504
G1 X135.122 Y75.363 E46.75712
G1 X135.575 Y75.416 E46.78759
G1 X136.188 Y75.559 E46.82966
G1 X137.750 Y76.112 E46.94036
G1 X138.317 Y76.387 E46.98243
G1 X139.717 Y77.273 E47.09312
G1 X140.209 Y77.667 E47.13520
G1 X141.377 Y78.841 E47.24589
G1 X141.769 Y79.334 E47.28798
G1 X142.648 Y80.739 E47.39865
G1 X142.921 Y81.306 E47.44073
G1 X143.467 Y82.871 E47.55141
G1 X143.606 Y83.485 E47.59347
G1 X143.791 Y85.132 E47.70419
G1 X143.791 Y85.762 E47.74627
G1 X143.606 Y87.408 E47.85694
G1 X143.467 Y88.022 E47.89901
G1 X142.921 Y89.586 E48.00970
G1 X142.648 Y90.154 E48.05177
G1 X141.769 Y91.559 E48.16248
G1 X141.377 Y92.052 E48.20457
G1 X140.209 Y93.226 E48.31524
G1 X139.717 Y93.620 E48.35731
G1 X138.317 Y94.506 E48.46801
G1 X137.750 Y94.781 E48.51009
G1 X136.188 Y95.334 E48.62077
G1 X135.575 Y95.476 E48.66285
G1 X135.122 Y95.529 E48.69331
G1 X134.959 Y95.608 E48.70539
G1 X134.897 Y95.670 E48.71128
G1 X134.522 Y95.670 E48.73629
G1 X134.303 Y95.776 E48.75256
G1 X133.159 Y97.201 E48.87462
G1 X132.811 Y97.564 E48.90825
G1 X130.866 Y99.254 E49.08036
G1 X130.458 Y99.549 E49.11400
G1 X130.213 Y99.695 E49.13308
G1 X130.213 Y100.305 E49.17377
G1 X130.459 Y100.451 E49.19286
G1 X130.867 Y100.746 E49.22650
G1 X132.811 Y102.436 E49.39861
G1 X133.160 Y102.799 E49.43225
G1 X134.303 Y104.224 E49.55429
G1 X134.522 Y104.330 E49.57057
G1 X134.897 Y104.330 E49.59558
G1 X134.959 Y104.392 E49.60146
G1 X135.122 Y104.471 E49.61355
G1 X135.575 Y104.524 E49.64402
G1 X136.188 Y104.666 E49.68609
G1 X137.750 Y105.219 E49.79678
G1 X138.317 Y105.494 E49.83886
G1 X139.717 Y106.380 E49.94955
G1 X140.209 Y106.774 E49.99162
G1 X141.377 Y107.948 E50.10232
G1 X141.769 Y108.442 E50.14440
G1 X142.648 Y109.846 E50.25507
G1 X142.921 Y110.414 E50.29715
G1 X143.467 Y111.978 E50.40783
G1 X143.606 Y112.592 E50.44990
G1 X143.791 Y114.239 E50.56061
G1 X143.791 Y114.869 E50.60270
G1 X143.606 Y116.515 E50.71337
G1 X143.467 Y117.129 E50.75544
G1 X143.354 Y117.451 E50.77819
G1 X142.921 Y118.694 E50.86613
G1 X142.648 Y119.261 E50.90819
G1 X141.769 Y120.666 E51.01890
G1 X141.377 Y121.159 E51.06099
G1 X140.209 Y122.333 E51.17166
G1 X139.717 Y122.727 E51.21374
G1 X138.317 Y123.613 E51.32443
G1 X137.750 Y123.888 E51.36651
G1 X136.188 Y124.441 E51.47719
G1 X135.575 Y124.584 E51.51927
G1 X135.122 Y124.637 E51.54974
G1 X134.959 Y124.715 E51.56182
G1 X134.897 Y124.778 E51.56770
G1 X134.522 Y124.778 E51.59271
G1 X134.303 Y124.883 E51.60899
G1 X133.159 Y126.308 E51.73104
