; generated by Slic3r 1.2.9 on 2018-11-18 at 18:42:25

; external perimeters extrusion width = 0.30mm
; perimeters extrusion width = 0.40mm
; infill extrusion width = 0.40mm
; solid infill extrusion width = 0.40mm
; top infill extrusion width = 0.40mm

M107
M190 S65 ; set bed temperature
M104 S205 ; set temperature
G28 ; home all axes
G1 Z5 F5000 ; lift nozzle

M109 S205 ; wait for temperature to be reached
G21 ; set units to millimeters
G90 ; use absolute coordinates
M82 ; use absolute distances for extrusion
G92 E0
G1 Z0.300 F7800.000
G1 E-2.00000 F2400.00000
G92 E0
G1 X84.974 Y84.596 F7800.000
G1 E2.00000 F2400.00000
G1 X85.890 Y83.753 E2.08314 F1800.000
G1 X87.689 Y82.352 E2.23550
G1 X88.756 Y81.652 E2.32074
G1 X90.790 Y80.552 E2.47522
G1 X91.929 Y80.052 E2.55836
G1 X94.087 Y79.311 E2.71074
G1 X95.323 Y78.996 E2.79596
G1 X97.604 Y78.615 E2.95046
G1 X98.844 Y78.512 E3.03358
G1 X101.156 Y78.512 E3.18805
G1 X102.396 Y78.615 E3.27119
G1 X104.677 Y78.996 E3.42566 F1800.000
G1 X105.884 Y79.301 E3.50880
G1 X108.071 Y80.052 E3.66329
G1 X109.210 Y80.552 E3.74642
G1 X111.244 Y81.652 E3.90089
G1 X112.286 Y82.333 E3.98403
G1 X114.110 Y83.753 E4.13850
G1 X115.026 Y84.596 E4.22164
G1 X116.592 Y86.297 E4.37611
G1 X117.357 Y87.279 E4.45925
G1 X118.621 Y89.215 E4.61372
G1 X119.214 Y90.310 E4.69687
G1 X120.142 Y92.427 E4.85134
G1 X120.546 Y93.604 E4.93448
G1 X121.114 Y95.846 E5.08895
G1 X121.319 Y97.073 E5.17209
G1 X121.510 Y99.378 E5.32657
G1 X121.510 Y100.622 E5.40971
G1 X121.319 Y102.927 E5.56418
G1 X121.114 Y104.154 E5.64732
G1 X120.546 Y106.396 E5.80179
G1 X120.142 Y107.573 E5.88493
G1 X119.213 Y109.690 E6.03941
G1 X118.621 Y110.785 E6.12255
G1 X117.356 Y112.721 E6.27702
G1 X116.592 Y113.703 E6.36016
G1 X115.026 Y115.404 E6.51463
G1 X114.110 Y116.247 E6.59777
G1 X112.286 Y117.667 E6.75225
G1 X111.244 Y118.348 E6.83539
G1 X109.210 Y119.448 E6.98986
G1 X108.071 Y119.948 E7.07300
G1 X105.884 Y120.699 E7.22747
G1 X104.677 Y121.004 E7.31061
G1 X102.396 Y121.385 E7.46508
G1 X101.156 Y121.488 E7.54823
G1 X98.844 Y121.488 E7.70269
G1 X97.604 Y121.385 E7.78584
G1 X95.323 Y121.004 E7.94031
G1 X94.116 Y120.699 E8.02345
G1 X91.929 Y119.948 E8.17792
G1 X90.790 Y119.448 E8.26107
G1 X88.756 Y118.348 E8.41553
G1 X87.714 Y117.667 E8.49868
G1 X85.890 Y116.247 E8.65315
G1 X84.974 Y115.404 E8.73629
G1 X83.408 Y113.703 E8.89076
G1 X82.643 Y112.721 E8.97390
G1 X81.379 Y110.785 E9.12837
G1 X80.786 Y109.690 E9.21152
G1 X79.858 Y107.573 E9.36600
G1 X79.454 Y106.396 E9.44913
G1 X78.886 Y104.154 E9.60360
G1 X78.681 Y102.927 E9.68674
G1 X78.490 Y100.622 E9.84123
G1 X78.490 Y99.378 E9.92436
G1 X78.681 Y97.073 E10.07883
G1 X78.886 Y95.846 E10.16197
G1 X79.454 Y93.604 E10.31644
G1 X79.858 Y92.427 E10.39958
G1 X80.786 Y90.310 E10.55406
G1 X81.379 Y89.215 E10.63720
G1 X82.643 Y87.279 E10.79167
G1 X83.408 Y86.297 E10.87481
G1 X84.944 Y84.629 E11.02628
G1 X85.986 Y85.528 F7800.000
G1 X86.159 Y85.341 E11.04330 F1800.000
G1 X86.534 Y84.996 E11.07733
G1 X88.761 Y83.262 E11.26585
G1 X89.187 Y82.984 E11.29988
G1 X91.417 Y81.777 E11.46926
G1 X91.669 Y81.641 E11.48839
G1 X92.135 Y81.436 E11.52243
G1 X94.804 Y80.520 E11.71095
G1 X95.298 Y80.395 E11.74498
G1 X98.082 Y79.930 E11.93350
G1 X98.589 Y79.888 E11.96753
G1 X101.411 Y79.888 E12.15603
G1 X101.919 Y79.930 E12.19007
G1 X104.702 Y80.395 E12.37857 F1800.000
G1 X105.196 Y80.520 E12.41261
G1 X107.865 Y81.436 E12.60113
G1 X108.331 Y81.641 E12.63517
G1 X110.813 Y82.984 E12.82368
G1 X111.240 Y83.262 E12.85771
G1 X113.466 Y84.996 E13.04622
G1 X113.841 Y85.341 E13.08026
G1 X115.752 Y87.417 E13.26877
G1 X116.065 Y87.819 E13.30281
G1 X117.609 Y90.181 E13.49131
G1 X117.851 Y90.629 E13.52535
G1 X118.985 Y93.213 E13.71385
G1 X119.150 Y93.695 E13.74790
G1 X119.843 Y96.430 E13.93640
G1 X119.927 Y96.933 E13.97044
G1 X120.160 Y99.745 E14.15896
G1 X120.160 Y100.255 E14.19300
G1 X119.927 Y103.067 E14.38150
G1 X119.843 Y103.569 E14.41554
G1 X119.150 Y106.305 E14.60405
G1 X118.985 Y106.787 E14.63809
G1 X117.851 Y109.371 E14.82660
G1 X117.609 Y109.819 E14.86064
G1 X116.065 Y112.181 E15.04915
G1 X115.752 Y112.583 E15.08319
G1 X113.841 Y114.659 E15.27168
G1 X113.466 Y115.004 E15.30573
G1 X111.240 Y116.738 E15.49424
G1 X110.813 Y117.016 E15.52828
G1 X108.331 Y118.359 E15.71679
G1 X107.865 Y118.564 E15.75083
G1 X105.196 Y119.480 E15.93933
G1 X104.702 Y119.605 E15.97337
G1 X99.443 Y120.483 E16.32955
G1 X99.082 Y120.177 E16.36114
G1 X98.904 Y120.112 E16.37384
G1 X98.589 Y120.112 E16.39486
G1 X98.081 Y120.070 E16.42890
G1 X95.298 Y119.605 E16.61740
G1 X94.804 Y119.480 E16.65144
G1 X92.135 Y118.564 E16.83995
G1 X91.669 Y118.359 E16.87399
G1 X89.187 Y117.016 E17.06249
G1 X88.760 Y116.738 E17.09654
G1 X86.534 Y115.005 E17.28504
G1 X86.159 Y114.659 E17.31909
G1 X84.248 Y112.583 E17.50760
G1 X83.935 Y112.181 E17.54163
G1 X82.391 Y109.819 E17.73014
G1 X82.149 Y109.371 E17.76418
G1 X81.015 Y106.787 E17.95270
G1 X80.850 Y106.305 E17.98673
G1 X80.157 Y103.570 E18.17523
G1 X80.073 Y103.067 E18.20927
G1 X79.840 Y100.255 E18.39779
G1 X79.840 Y99.745 E18.43183
G1 X80.073 Y96.933 E18.62033
G1 X80.157 Y96.431 E18.65437
G1 X80.850 Y93.695 E18.84288
G1 X81.015 Y93.213 E18.87692
G1 X82.149 Y90.629 E19.06543
G1 X82.391 Y90.181 E19.09947
G1 X83.935 Y87.819 E19.28798
G1 X84.248 Y87.417 E19.32201
G1 X85.956 Y85.561 E19.49050
G1 X86.380 Y85.891 F7800.000
G1 X86.538 Y85.720 E19.50604 F1800.000
G1 X86.880 Y85.405 E19.53712
G1 X89.072 Y83.699 E19.72267
G1 X89.461 Y83.444 E19.75374
G1 X91.672 Y82.248 E19.92164
G1 X91.904 Y82.122 E19.93929
G1 X92.330 Y81.935 E19.97037
G1 X94.957 Y81.034 E20.15593
G1 X95.408 Y80.919 E20.18700
G1 X97.887 Y80.506 E20.35491
G1 X98.148 Y80.462 E20.37256
G1 X98.611 Y80.424 E20.40363
G1 X101.389 Y80.424 E20.58917
G1 X101.852 Y80.462 E20.62025 F1800.000
G1 X104.592 Y80.919 E20.80579
G1 X105.043 Y81.034 E20.83688
G1 X107.670 Y81.935 E21.02244
G1 X108.096 Y82.122 E21.05351
G1 X110.539 Y83.444 E21.23906
G1 X110.928 Y83.699 E21.27014
G1 X113.120 Y85.405 E21.45569
G1 X113.462 Y85.720 E21.48676
G1 X115.343 Y87.763 E21.67231
G1 X115.629 Y88.130 E21.70339
G1 X117.148 Y90.455 E21.88893
G1 X117.369 Y90.865 E21.92002
G1 X118.485 Y93.408 E22.10555
G1 X118.636 Y93.848 E22.13664
G1 X119.318 Y96.540 E22.32218
G1 X119.395 Y96.999 E22.35327
G1 X119.624 Y99.767 E22.53882
G1 X119.624 Y100.233 E22.56990
G1 X119.395 Y103.000 E22.75544
G1 X119.318 Y103.459 E22.78652
G1 X118.636 Y106.152 E22.97207
G1 X118.485 Y106.592 E23.00315
G1 X117.369 Y109.135 E23.18871
G1 X117.148 Y109.545 E23.21978
G1 X115.629 Y111.870 E23.40533
G1 X115.343 Y112.237 E23.43641
G1 X113.462 Y114.280 E23.62195
G1 X113.120 Y114.595 E23.65303
G1 X110.928 Y116.301 E23.83859
G1 X110.539 Y116.556 E23.86966
G1 X108.096 Y117.878 E24.05521
G1 X107.670 Y118.065 E24.08629
G1 X105.043 Y118.966 E24.27184
G1 X104.592 Y119.081 E24.30292
G1 X99.600 Y119.914 E24.64103
G1 X99.279 Y119.642 E24.66915
G1 X99.100 Y119.576 E24.68185
G1 X98.611 Y119.576 E24.71451
G1 X98.148 Y119.538 E24.74559
G1 X95.408 Y119.081 E24.93113
G1 X94.957 Y118.966 E24.96221
G1 X92.330 Y118.065 E25.14776
G1 X91.904 Y117.878 E25.17884
G1 X89.462 Y116.556 E25.36438
G1 X89.072 Y116.301 E25.39546
G1 X86.880 Y114.595 E25.58101
G1 X86.538 Y114.280 E25.61209
G1 X84.657 Y112.237 E25.79765
G1 X84.371 Y111.870 E25.82872
G1 X82.852 Y109.545 E26.01427
G1 X82.631 Y109.135 E26.04535
G1 X81.515 Y106.592 E26.23090
G1 X81.364 Y106.152 E26.26198
G1 X80.682 Y103.460 E26.44752
G1 X80.605 Y103.001 E26.47860
G1 X80.376 Y100.232 E26.66416
G1 X80.376 Y99.767 E26.69523
G1 X80.605 Y96.999 E26.88078
G1 X80.682 Y96.541 E26.91186
G1 X81.364 Y93.848 E27.09741
G1 X81.515 Y93.408 E27.12849
G1 X82.631 Y90.865 E27.31404
G1 X82.852 Y90.455 E27.34511
G1 X84.371 Y88.130 E27.53066
G1 X84.657 Y87.763 E27.56174
G1 X86.350 Y85.924 E27.72875
G1 X86.774 Y86.254 F7800.000
G1 X87.227 Y85.814 E27.77089 F1800.000
G1 X89.384 Y84.135 E27.95348
G1 X89.736 Y83.905 E27.98160
G1 X91.927 Y82.719 E28.14802
G1 X92.140 Y82.604 E28.16419
G1 X92.525 Y82.435 E28.19231
G1 X95.110 Y81.547 E28.37491
G1 X95.518 Y81.444 E28.40302
G1 X98.214 Y80.994 E28.58561
G1 X98.633 Y80.959 E28.61373
G1 X101.367 Y80.959 E28.79631
G1 X101.786 Y80.994 E28.82443
G1 X104.482 Y81.444 E29.00701 F1800.000
G1 X104.890 Y81.547 E29.03514
G1 X107.475 Y82.435 E29.21773
G1 X107.860 Y82.604 E29.24585
G1 X110.264 Y83.905 E29.42844
G1 X110.617 Y84.135 E29.45655
G1 X112.773 Y85.814 E29.63914
G1 X113.083 Y86.099 E29.66726
G1 X114.934 Y88.110 E29.84985
G1 X115.193 Y88.442 E29.87797
G1 X116.688 Y90.730 E30.06055
G1 X116.888 Y91.100 E30.08867
G1 X117.986 Y93.603 E30.27125
G1 X118.122 Y94.001 E30.29938
G1 X118.793 Y96.650 E30.48196
G1 X118.863 Y97.066 E30.51009
G1 X119.088 Y99.790 E30.69268
G1 X119.088 Y100.210 E30.72080
G1 X118.863 Y102.934 E30.90338
G1 X118.793 Y103.349 E30.93150
G1 X118.122 Y105.999 E31.11409
G1 X117.986 Y106.397 E31.14221
G1 X116.888 Y108.900 E31.32481
G1 X116.688 Y109.270 E31.35292
G1 X115.193 Y111.558 E31.53551
G1 X114.934 Y111.890 E31.56363
G1 X113.083 Y113.901 E31.74621
G1 X112.773 Y114.186 E31.77433
G1 X110.617 Y115.865 E31.95693
G1 X110.264 Y116.095 E31.98504
G1 X107.860 Y117.396 E32.16763
G1 X107.475 Y117.565 E32.19575
G1 X104.890 Y118.453 E32.37834
G1 X104.482 Y118.556 E32.40646
G1 X99.756 Y119.344 E32.72651
G1 X99.475 Y119.106 E32.75116
G1 X99.296 Y119.041 E32.76386
G1 X98.633 Y119.041 E32.80815
G1 X98.214 Y119.006 E32.83627
G1 X95.518 Y118.556 E33.01885
G1 X95.110 Y118.453 E33.04697
G1 X92.525 Y117.565 E33.22956
G1 X92.140 Y117.396 E33.25768
G1 X89.736 Y116.095 E33.44026
G1 X89.383 Y115.865 E33.46839
G1 X87.227 Y114.186 E33.65097
G1 X86.917 Y113.901 E33.67910
G1 X85.066 Y111.890 E33.86169
G1 X84.807 Y111.558 E33.88981
G1 X83.312 Y109.270 E34.07239
G1 X83.112 Y108.900 E34.10051
G1 X82.014 Y106.397 E34.28311
G1 X81.878 Y105.999 E34.31122
G1 X81.207 Y103.350 E34.49380
G1 X81.137 Y102.934 E34.52193
G1 X80.912 Y100.210 E34.70452
G1 X80.912 Y99.790 E34.73264
G1 X81.137 Y97.066 E34.91523
G1 X81.207 Y96.651 E34.94334
G1 X81.878 Y94.001 E35.12593
G1 X82.014 Y93.603 E35.15405
G1 X83.112 Y91.100 E35.33664
G1 X83.312 Y90.730 E35.36476
G1 X84.807 Y88.442 E35.54735
G1 X85.066 Y88.110 E35.57547
G1 X86.744 Y86.287 E35.74099
G1 X87.169 Y86.616 F7800.000
G1 X87.573 Y86.223 E35.77870 F1800.000
G1 X89.695 Y84.571 E35.95833
G1 X90.010 Y84.365 E35.98349
G1 X92.182 Y83.190 E36.14843
G1 X92.720 Y82.934 E36.18824
G1 X95.263 Y82.061 E36.36788
G1 X95.628 Y81.969 E36.39303
G1 X98.063 Y81.562 E36.55798
G1 X98.656 Y81.495 E36.59779
G1 X101.344 Y81.495 E36.77742
G1 X101.720 Y81.526 E36.80257 F1800.000
G1 X104.372 Y81.969 E36.98220
G1 X104.737 Y82.061 E37.00736
G1 X107.280 Y82.934 E37.18700
G1 X107.625 Y83.086 E37.21215
G1 X109.990 Y84.365 E37.39178
G1 X110.305 Y84.571 E37.41694
G1 X112.427 Y86.223 E37.59657
G1 X112.704 Y86.478 E37.62173
G1 X114.525 Y88.456 E37.80136
G1 X114.756 Y88.753 E37.82651
G1 X116.227 Y91.004 E38.00614
G1 X116.406 Y91.335 E38.03130
G1 X117.486 Y93.798 E38.21092
G1 X117.609 Y94.154 E38.23609
G1 X118.269 Y96.760 E38.41571
G1 X118.331 Y97.132 E38.44087
G1 X118.553 Y99.812 E38.62051
G1 X118.553 Y100.188 E38.64567
G1 X118.331 Y102.868 E38.82529
G1 X118.269 Y103.239 E38.85045
G1 X117.609 Y105.846 E39.03008
G1 X117.486 Y106.202 E39.05524
G1 X116.406 Y108.665 E39.23487
G1 X116.227 Y108.996 E39.26003
G1 X114.756 Y111.247 E39.43966
G1 X114.525 Y111.544 E39.46482
G1 X112.704 Y113.522 E39.64444
G1 X112.427 Y113.777 E39.66960
G1 X110.305 Y115.429 E39.84923
G1 X109.990 Y115.635 E39.87439
G1 X107.625 Y116.914 E40.05402
G1 X107.280 Y117.066 E40.07918
G1 X104.737 Y117.939 E40.25881
G1 X104.372 Y118.031 E40.28397
G1 X99.913 Y118.775 E40.58595
G1 X99.671 Y118.570 E40.60713
G1 X99.493 Y118.505 E40.61983
G1 X98.656 Y118.505 E40.67576
G1 X98.280 Y118.474 E40.70092
G1 X95.628 Y118.031 E40.88054
G1 X95.263 Y117.939 E40.90571
G1 X92.720 Y117.066 E41.08533
G1 X92.375 Y116.914 E41.11049
G1 X90.010 Y115.635 E41.29011
G1 X89.695 Y115.429 E41.31528
G1 X87.573 Y113.777 E41.49491
G1 X87.296 Y113.522 E41.52007
G1 X85.475 Y111.544 E41.69970
G1 X85.244 Y111.247 E41.72486
G1 X83.773 Y108.996 E41.90448
G1 X83.594 Y108.665 E41.92964
G1 X82.514 Y106.202 E42.10928
G1 X82.391 Y105.846 E42.13443
G1 X81.731 Y103.239 E42.31406
G1 X81.669 Y102.868 E42.33922
G1 X81.447 Y100.188 E42.51885
G1 X81.447 Y99.812 E42.54401
G1 X81.669 Y97.132 E42.72364
G1 X81.731 Y96.761 E42.74880
G1 X82.391 Y94.154 E42.92842
G1 X82.514 Y93.798 E42.95358
G1 X83.594 Y91.335 E43.13321
G1 X83.773 Y91.004 E43.15837
G1 X85.244 Y88.753 E43.33800
G1 X85.475 Y88.456 E43.36316
G1 X87.138 Y86.649 E43.52721
G1 X87.563 Y86.979 F7800.000
G1 X87.920 Y86.632 E43.56048 F1800.000
G1 X90.007 Y85.007 E43.73715
G1 X90.285 Y84.826 E43.75934
G1 X92.437 Y83.661 E43.92281
G1 X92.915 Y83.434 E43.95818
G1 X95.416 Y82.575 E44.13486
G1 X95.738 Y82.493 E44.15705
G1 X98.347 Y82.058 E44.33373
G1 X98.678 Y82.031 E44.35592
G1 X101.322 Y82.031 E44.53259
G1 X101.653 Y82.058 E44.55479
G1 X104.262 Y82.493 E44.73145 F1800.000
G1 X104.584 Y82.575 E44.75365
G1 X107.085 Y83.434 E44.93033
G1 X107.390 Y83.567 E44.95252
G1 X109.715 Y84.826 E45.12919
G1 X109.994 Y85.008 E45.15139
G1 X112.080 Y86.632 E45.32806
G1 X112.325 Y86.857 E45.35026
G1 X114.116 Y88.803 E45.52693
G1 X114.320 Y89.065 E45.54913
G1 X115.767 Y91.279 E45.72579
G1 X115.925 Y91.571 E45.74799
G1 X116.987 Y93.993 E45.92465
G1 X117.095 Y94.307 E45.94686
G1 X117.744 Y96.871 E46.12352
G1 X117.799 Y97.198 E46.14573
G1 X118.017 Y99.834 E46.32240
G1 X118.017 Y100.166 E46.34460
G1 X117.799 Y102.802 E46.52126
G1 X117.744 Y103.129 E46.54346
G1 X117.095 Y105.693 E46.72013
G1 X116.987 Y106.007 E46.74233
G1 X115.925 Y108.429 E46.91901
G1 X115.767 Y108.721 E46.94120
G1 X114.320 Y110.935 E47.11787
G1 X114.116 Y111.197 E47.14007
G1 X112.325 Y113.143 E47.31673
G1 X112.080 Y113.368 E47.33893
G1 X109.994 Y114.992 E47.51561
G1 X109.715 Y115.174 E47.53781
G1 X107.390 Y116.433 E47.71447
G1 X107.085 Y116.566 E47.73667
G1 X104.584 Y117.425 E47.91334
G1 X104.262 Y117.507 E47.93554
G1 X100.070 Y118.206 E48.21946
G1 X99.868 Y118.035 E48.23717
G1 X99.689 Y117.969 E48.24987
G1 X98.678 Y117.969 E48.31744
G1 X98.347 Y117.942 E48.33964
G1 X95.738 Y117.507 E48.51630
G1 X95.416 Y117.425 E48.53850
G1 X92.915 Y116.566 E48.71517
G1 X92.610 Y116.433 E48.73737
G1 X90.285 Y115.174 E48.91403
G1 X90.006 Y114.992 E48.93624
G1 X87.920 Y113.368 E49.11290
G1 X87.675 Y113.143 E49.13511
G1 X85.884 Y111.197 E49.31178
G1 X85.680 Y110.935 E49.33398
G1 X84.233 Y108.721 E49.51064
G1 X84.075 Y108.429 E49.53284
G1 X83.013 Y106.007 E49.70952
G1 X82.905 Y105.693 E49.73171
G1 X82.256 Y103.129 E49.90837
G1 X82.201 Y102.802 E49.93058
G1 X81.983 Y100.166 E50.10725
G1 X81.983 Y99.834 E50.12945
G1 X82.201 Y97.198 E50.30612
G1 X82.256 Y96.871 E50.32831
G1 X82.905 Y94.307 E50.50498
G1 X83.013 Y93.993 E50.52718
G1 X84.075 Y91.571 E50.70385
G1 X84.233 Y91.279 E50.72605
G1 X85.680 Y89.065 E50.90272
G1 X85.884 Y88.803 E50.92492
G1 X87.532 Y87.012 E51.08748
G1 X87.957 Y87.342 F7800.000
G1 X88.266 Y87.041 E51.11632 F1800.000
G1 X90.318 Y85.444 E51.29003
G1 X90.559 Y85.286 E51.30927
G1 X92.692 Y84.132 E51.47125
G1 X93.110 Y83.933 E51.50219
G1 X95.569 Y83.089 E51.67591
G1 X95.848 Y83.018 E51.69514
G1 X98.240 Y82.619 E51.85713
G1 X98.700 Y82.566 E51.88806
G1 X101.300 Y82.566 E52.06177
G1 X101.587 Y82.590 E52.08101 F1800.000
G1 X104.152 Y83.018 E52.25471
G1 X104.431 Y83.089 E52.27395
G1 X106.890 Y83.933 E52.44767
G1 X107.154 Y84.049 E52.46691
G1 X109.441 Y85.286 E52.64062
G1 X109.682 Y85.444 E52.65985
G1 X111.734 Y87.041 E52.83356
G1 X111.946 Y87.236 E52.85280
G1 X113.707 Y89.149 E53.02651
G1 X113.884 Y89.376 E53.04575
G1 X115.306 Y91.553 E53.21945
G1 X115.443 Y91.806 E53.23870
G1 X116.488 Y94.187 E53.41240
G1 X116.581 Y94.460 E53.43164
G1 X117.219 Y96.981 E53.60535
G1 X117.267 Y97.265 E53.62459
G1 X117.482 Y99.856 E53.79830
G1 X117.482 Y100.144 E53.81754
G1 X117.267 Y102.735 E53.99124
G1 X117.219 Y103.019 E54.01049
G1 X116.581 Y105.540 E54.18419
G1 X116.488 Y105.812 E54.20343
G1 X115.443 Y108.194 E54.37715
G1 X115.306 Y108.447 E54.39638
G1 X113.884 Y110.624 E54.57010
G1 X113.707 Y110.851 E54.58933
