; generated by Slic3r 1.2.9 on 2018-11-10 at 15:44:18

; external perimeters extrusion width = 0.30mm
; perimeters extrusion width = 0.40mm
; infill extrusion width = 0.40mm
; solid infill extrusion width = 0.40mm
; top infill extrusion width = 0.40mm

M107
M190 S65 ; set bed temperature
M104 S205 ; set temperature
G28 ; home all axes
G1 Z5 F5000 ; lift nozzle

M109 S205 ; wait for temperature to be reached
G21 ; set units to millimeters
G90 ; use absolute coordinates
M82 ; use absolute distances for extrusion
G92 E0
G1 Z0.300 F7800.000
G1 E-2.00000 F2400.00000
G92 E0
G1 X56.221 Y75.306 F7800.000
G1 E2.00000 F2400.00000
G1 X57.569 Y74.362 E2.10991 F1800.000
G1 X67.390 Y68.097 E2.88812
G1 X69.673 Y66.734 E3.06578
G1 X70.887 Y66.152 E3.15573
G1 X73.159 Y65.302 E3.31775
G1 X74.457 Y64.945 E3.40770
G1 X76.843 Y64.513 E3.56972
G1 X78.185 Y64.393 E3.65968
G1 X121.777 Y64.393 E6.57189
G1 X123.118 Y64.513 E6.66184
G1 X125.505 Y64.945 E6.82386 F1800.000
G1 X126.803 Y65.302 E6.91382
G1 X129.075 Y66.152 E7.07584
G1 X130.289 Y66.734 E7.16579
G1 X132.581 Y68.103 E7.34416
G1 X143.203 Y74.900 E8.18663
G1 X144.482 Y75.931 E8.29635
G1 X145.330 Y76.783 E8.37665
G1 X146.376 Y78.100 E8.48905
G1 X147.014 Y79.119 E8.56933
G1 X147.742 Y80.636 E8.68173
G1 X148.138 Y81.770 E8.76201
G1 X148.511 Y83.411 E8.87440
G1 X148.645 Y84.605 E8.95468
G1 X148.692 Y85.446 E9.01098
G1 X148.692 Y114.554 E10.95549
G1 X148.645 Y115.395 E11.01178
G1 X148.511 Y116.589 E11.09206
G1 X148.138 Y118.230 E11.20446
G1 X147.742 Y119.364 E11.28474
G1 X147.014 Y120.881 E11.39713
G1 X146.376 Y121.900 E11.47742
G1 X145.330 Y123.217 E11.58982
G1 X144.482 Y124.069 E11.67010
G1 X143.203 Y125.100 E11.77984
G1 X132.373 Y132.026 E12.63866
G1 X130.289 Y133.266 E12.80068
G1 X129.075 Y133.848 E12.89063
G1 X126.803 Y134.698 E13.05265
G1 X125.505 Y135.055 E13.14260
G1 X123.118 Y135.487 E13.30462
G1 X121.777 Y135.607 E13.39458
G1 X78.185 Y135.607 E16.30679
G1 X76.844 Y135.487 E16.39674
G1 X74.457 Y135.055 E16.55876
G1 X73.159 Y134.698 E16.64871
G1 X70.887 Y133.848 E16.81073
G1 X69.673 Y133.266 E16.90069
G1 X67.390 Y131.903 E17.07835
G1 X57.569 Y125.638 E17.85656
G1 X56.221 Y124.694 E17.96647
G1 X54.891 Y123.490 E18.08633
G1 X54.050 Y122.524 E18.17193
G1 X53.029 Y121.015 E18.29359
G1 X52.453 Y119.901 E18.37739
G1 X51.824 Y118.221 E18.49723
G1 X51.521 Y116.976 E18.58285
G1 X51.308 Y115.194 E18.70271
G1 X51.308 Y84.806 E20.73284
G1 X51.521 Y83.025 E20.85266
G1 X51.824 Y81.779 E20.93830
G1 X52.453 Y80.099 E21.05815
G1 X53.042 Y78.961 E21.14377
G1 X54.050 Y77.476 E21.26363
G1 X54.891 Y76.510 E21.34923
G1 X56.188 Y75.336 E21.46609
G1 X57.016 Y76.429 F7800.000
G1 X58.362 Y75.476 E21.57627 F1800.000
G1 X59.009 Y75.125 E21.62543
G1 X60.885 Y74.381 E21.76020
G1 X61.596 Y74.193 E21.80936
G1 X62.576 Y74.056 E21.87543
G1 X62.732 Y73.979 E21.88710
G1 X62.806 Y73.905 E21.89408
G1 X63.294 Y73.905 E21.92671
G1 X63.514 Y73.799 E21.94299
G1 X64.981 Y71.972 E22.09954
G1 X65.363 Y71.574 E22.13638
G1 X67.609 Y69.621 E22.33524
G1 X68.056 Y69.298 E22.37207
G1 X68.337 Y69.130 E22.39396
G1 X70.614 Y67.775 E22.57093
G1 X71.111 Y67.537 E22.60777
G1 X73.899 Y66.494 E22.80662
G1 X74.431 Y66.348 E22.84346
G1 X77.360 Y65.818 E23.04232
G1 X77.909 Y65.769 E23.07916
G1 X80.886 Y65.769 E23.27801
G1 X81.435 Y65.818 E23.31485
G1 X84.364 Y66.348 E23.51370 F1800.000
G1 X84.895 Y66.494 E23.55054
G1 X87.684 Y67.537 E23.74940
G1 X88.181 Y67.775 E23.78624
G1 X90.739 Y69.298 E23.98509
G1 X91.186 Y69.621 E24.02193
G1 X93.432 Y71.574 E24.22079
G1 X93.814 Y71.972 E24.25763
G1 X95.280 Y73.799 E24.41418
G1 X95.500 Y73.905 E24.43045
G1 X95.989 Y73.905 E24.46309
G1 X96.053 Y73.969 E24.46919
G1 X96.216 Y74.048 E24.48127
G1 X96.884 Y74.126 E24.52620
G1 X97.556 Y74.282 E24.57228
G1 X99.339 Y74.914 E24.69864
G1 X99.844 Y75.159 E24.73617
G1 X100.069 Y75.167 E24.75123
G1 X102.052 Y74.381 E24.89370
G1 X102.763 Y74.193 E24.94286
G1 X103.743 Y74.056 E25.00894
G1 X103.899 Y73.979 E25.02061
G1 X103.973 Y73.905 E25.02758
G1 X104.462 Y73.905 E25.06021
G1 X104.681 Y73.799 E25.07649
G1 X106.148 Y71.972 E25.23305
G1 X106.530 Y71.574 E25.26988
G1 X108.776 Y69.621 E25.46874
G1 X109.223 Y69.298 E25.50558
G1 X109.504 Y69.130 E25.52746
G1 X111.781 Y67.775 E25.70443
G1 X112.278 Y67.537 E25.74127
G1 X115.066 Y66.494 E25.94013
G1 X115.598 Y66.348 E25.97696
G1 X118.527 Y65.818 E26.17582
G1 X119.076 Y65.769 E26.21266
G1 X122.053 Y65.769 E26.41151
G1 X122.602 Y65.818 E26.44835
G1 X125.531 Y66.348 E26.64721
G1 X126.063 Y66.494 E26.68404
G1 X128.851 Y67.537 E26.88290
G1 X129.348 Y67.775 E26.91974
G1 X131.906 Y69.298 E27.11859
G1 X132.353 Y69.621 E27.15543
G1 X134.599 Y71.574 E27.35429
G1 X134.981 Y71.972 E27.39113
G1 X136.448 Y73.799 E27.54768
G1 X136.667 Y73.905 E27.56396
G1 X137.156 Y73.905 E27.59659
G1 X137.220 Y73.969 E27.60269
G1 X137.383 Y74.048 E27.61477
G1 X138.051 Y74.126 E27.65970
G1 X138.723 Y74.282 E27.70578
G1 X140.506 Y74.914 E27.83214
G1 X141.127 Y75.215 E27.87822
G1 X142.725 Y76.226 E28.00458
G1 X143.263 Y76.657 E28.05065
G1 X144.598 Y77.998 E28.17703
G1 X145.027 Y78.538 E28.22312
G1 X146.031 Y80.141 E28.34947
G1 X146.329 Y80.763 E28.39557
G1 X146.952 Y82.549 E28.52191
G1 X147.105 Y83.222 E28.56799
G1 X147.316 Y85.102 E28.69437
G1 X147.316 Y85.792 E28.74047
G1 X147.105 Y87.671 E28.86680
G1 X146.952 Y88.344 E28.91288
G1 X146.329 Y90.129 E29.03924
G1 X146.031 Y90.751 E29.08532
G1 X145.027 Y92.355 E29.21170
G1 X144.598 Y92.895 E29.25779
G1 X143.263 Y94.235 E29.38413
G1 X142.725 Y94.667 E29.43020
G1 X142.412 Y94.865 E29.45496
G1 X141.127 Y95.678 E29.55657
G1 X140.506 Y95.979 E29.60266
G1 X138.723 Y96.610 E29.72902
G1 X138.051 Y96.767 E29.77510
G1 X137.383 Y96.845 E29.82003
G1 X137.220 Y96.923 E29.83211
G1 X137.156 Y96.988 E29.83821
G1 X136.667 Y96.988 E29.87084
G1 X136.448 Y97.093 E29.88712
G1 X134.981 Y98.921 E30.04367
G1 X134.599 Y99.319 E30.08051
G1 X134.096 Y99.756 E30.12502
G1 X134.096 Y100.244 E30.15763
G1 X134.599 Y100.681 E30.20213
G1 X134.981 Y101.079 E30.23897
G1 X136.448 Y102.907 E30.39552
G1 X136.667 Y103.012 E30.41180
G1 X137.156 Y103.012 E30.44444
G1 X137.220 Y103.077 E30.45054
G1 X137.383 Y103.155 E30.46262
G1 X138.051 Y103.234 E30.50754
G1 X138.723 Y103.390 E30.55363
G1 X140.506 Y104.021 E30.67999
G1 X141.127 Y104.322 E30.72607
G1 X142.725 Y105.333 E30.85243
G1 X143.263 Y105.765 E30.89850
G1 X144.598 Y107.105 E31.02488
G1 X145.027 Y107.646 E31.07097
G1 X146.031 Y109.249 E31.19732
G1 X146.329 Y109.871 E31.24341
G1 X146.952 Y111.656 E31.36976
G1 X147.105 Y112.329 E31.41583
G1 X147.316 Y114.209 E31.54221
G1 X147.316 Y114.899 E31.58831
G1 X147.105 Y116.778 E31.71465
G1 X146.952 Y117.451 E31.76073
G1 X146.329 Y119.237 E31.88708
G1 X146.031 Y119.858 E31.93316
G1 X145.027 Y121.462 E32.05954
G1 X144.598 Y122.002 E32.10564
G1 X143.263 Y123.342 E32.23197
G1 X142.725 Y123.774 E32.27805
G1 X141.127 Y124.785 E32.40442
G1 X140.506 Y125.086 E32.45050
G1 X138.723 Y125.718 E32.57686
G1 X138.051 Y125.874 E32.62294
G1 X137.383 Y125.952 E32.66787
G1 X137.220 Y126.031 E32.67995
G1 X137.156 Y126.095 E32.68605
G1 X136.667 Y126.095 E32.71869
G1 X136.448 Y126.201 E32.73496
G1 X134.981 Y128.028 E32.89152
G1 X134.599 Y128.426 E32.92835
G1 X132.353 Y130.379 E33.12721
G1 X131.906 Y130.702 E33.16405
G1 X129.348 Y132.225 E33.36290
G1 X128.851 Y132.463 E33.39975
G1 X126.063 Y133.506 E33.59860
G1 X125.531 Y133.652 E33.63545
G1 X122.602 Y134.182 E33.83429
G1 X122.053 Y134.231 E33.87113
G1 X119.076 Y134.231 E34.06998
G1 X118.527 Y134.182 E34.10682
G1 X115.598 Y133.652 E34.30568
G1 X115.066 Y133.506 E34.34251
G1 X112.278 Y132.463 E34.54137
G1 X111.781 Y132.225 E34.57821
G1 X109.223 Y130.702 E34.77706
G1 X108.776 Y130.379 E34.81390
G1 X106.530 Y128.426 E35.01276
G1 X106.148 Y128.028 E35.04960
G1 X104.681 Y126.201 E35.20615
G1 X104.462 Y126.095 E35.22243
G1 X103.973 Y126.095 E35.25506
G1 X103.899 Y126.021 E35.26204
G1 X103.743 Y125.944 E35.27371
G1 X102.764 Y125.807 E35.33977
G1 X102.052 Y125.619 E35.38893
G1 X100.069 Y124.833 E35.53142
G1 X99.844 Y124.841 E35.54648
G1 X99.339 Y125.086 E35.58401
G1 X97.556 Y125.718 E35.71036
G1 X96.884 Y125.874 E35.75645
G1 X96.216 Y125.952 E35.80137
G1 X96.053 Y126.031 E35.81345
G1 X95.989 Y126.095 E35.81955
G1 X95.500 Y126.095 E35.85219
G1 X95.280 Y126.201 E35.86847
G1 X93.814 Y128.028 E36.02502
G1 X93.432 Y128.426 E36.06186
G1 X91.186 Y130.379 E36.26071
G1 X90.739 Y130.702 E36.29755
G1 X88.181 Y132.225 E36.49641
G1 X87.684 Y132.463 E36.53325
G1 X84.896 Y133.506 E36.73210
G1 X84.364 Y133.652 E36.76895
G1 X81.435 Y134.182 E36.96779
G1 X80.886 Y134.231 E37.00463
G1 X77.909 Y134.231 E37.20348
G1 X77.360 Y134.182 E37.24032
G1 X74.431 Y133.652 E37.43918
G1 X73.899 Y133.506 E37.47601
G1 X71.111 Y132.463 E37.67487
G1 X70.614 Y132.225 E37.71171
G1 X68.056 Y130.702 E37.91056
G1 X67.609 Y130.379 E37.94740
G1 X65.363 Y128.426 E38.14626
G1 X64.981 Y128.028 E38.18310
G1 X63.514 Y126.201 E38.33965
G1 X63.294 Y126.095 E38.35593
G1 X62.806 Y126.095 E38.38856
G1 X62.732 Y126.021 E38.39554
G1 X62.576 Y125.944 E38.40721
G1 X61.596 Y125.807 E38.47327
G1 X60.885 Y125.619 E38.52243
G1 X59.009 Y124.875 E38.65720
G1 X58.363 Y124.524 E38.70636
G1 X56.716 Y123.359 E38.84114
G1 X56.170 Y122.865 E38.89030
G1 X54.846 Y121.343 E39.02506
G1 X54.433 Y120.734 E39.07421
G1 X53.506 Y118.942 E39.20899
G1 X53.248 Y118.253 E39.25814
G1 X52.771 Y116.293 E39.39292
G1 X52.684 Y115.562 E39.44208
G1 X52.684 Y113.545 E39.57684
G1 X52.771 Y112.815 E39.62599
G1 X53.248 Y110.854 E39.76078
G1 X53.506 Y110.165 E39.80993
G1 X54.433 Y108.373 E39.94471
G1 X54.846 Y107.764 E39.99387
G1 X56.170 Y106.242 E40.12863
G1 X56.716 Y105.749 E40.17780
G1 X58.362 Y104.583 E40.31256
G1 X59.009 Y104.232 E40.36171
G1 X60.885 Y103.488 E40.49649
G1 X61.596 Y103.301 E40.54565
G1 X62.576 Y103.164 E40.61172
G1 X62.732 Y103.086 E40.62339
G1 X62.806 Y103.012 E40.63037
G1 X63.294 Y103.012 E40.66300
G1 X63.514 Y102.907 E40.67928
G1 X64.981 Y101.079 E40.83583
G1 X65.363 Y100.681 E40.87267
G1 X65.865 Y100.244 E40.91718
G1 X65.865 Y99.756 E40.94979
G1 X65.363 Y99.319 E40.99429
G1 X64.981 Y98.921 E41.03113
G1 X63.514 Y97.093 E41.18768
G1 X63.294 Y96.988 E41.20396
G1 X62.806 Y96.988 E41.23660
G1 X62.732 Y96.914 E41.24357
G1 X62.576 Y96.836 E41.25524
G1 X61.596 Y96.699 E41.32131
G1 X60.885 Y96.512 E41.37047
G1 X59.009 Y95.768 E41.50524
G1 X58.363 Y95.417 E41.55440
G1 X56.716 Y94.251 E41.68917
G1 X56.170 Y93.758 E41.73834
G1 X54.846 Y92.236 E41.87309
G1 X54.433 Y91.627 E41.92225
G1 X53.506 Y89.835 E42.05702
G1 X53.248 Y89.146 E42.10618
G1 X52.771 Y87.186 E42.24095
G1 X52.684 Y86.455 E42.29012
G1 X52.684 Y84.438 E42.42488
G1 X52.771 Y83.707 E42.47402
G1 X53.248 Y81.747 E42.60881
G1 X53.506 Y81.058 E42.65796
G1 X53.688 Y80.707 E42.68437
G1 X54.433 Y79.266 E42.79274
G1 X54.846 Y78.657 E42.84190
G1 X56.170 Y77.135 E42.97667
G1 X56.716 Y76.641 E43.02583
G1 X56.980 Y76.455 E43.04741
G1 X57.326 Y76.866 F7800.000
G1 X58.646 Y75.931 E43.15545 F1800.000
G1 X59.236 Y75.611 E43.20033
G1 X61.052 Y74.891 E43.33083
G1 X61.702 Y74.719 E43.37572
G1 X62.827 Y74.562 E43.45164
G1 X62.984 Y74.484 E43.46331
G1 X63.028 Y74.440 E43.46745
G1 X63.551 Y74.440 E43.50243
G1 X63.771 Y74.335 E43.51871
G1 X65.383 Y72.325 E43.69083
G1 X65.732 Y71.962 E43.72446
G1 X67.942 Y70.041 E43.92011
G1 X68.350 Y69.746 E43.95375
G1 X68.611 Y69.590 E43.97403
G1 X70.867 Y68.248 E44.14940
G1 X71.321 Y68.030 E44.18303
G1 X74.064 Y67.004 E44.37869
G1 X74.549 Y66.871 E44.41232
G1 X74.848 Y66.817 E44.43260
G1 X77.431 Y66.350 E44.60797
G1 X77.933 Y66.305 E44.64161
G1 X80.862 Y66.305 E44.83726
G1 X81.363 Y66.350 E44.87089 F1800.000
G1 X81.662 Y66.404 E44.89117
G1 X84.245 Y66.871 E45.06654
G1 X84.730 Y67.004 E45.10018
G1 X87.474 Y68.030 E45.29583
G1 X87.927 Y68.248 E45.32947
G1 X90.444 Y69.746 E45.52512
G1 X90.852 Y70.041 E45.55876
G1 X93.062 Y71.962 E45.75441
G1 X93.411 Y72.325 E45.78805
G1 X95.023 Y74.335 E45.96016
G1 X95.243 Y74.440 E45.97644
G1 X95.767 Y74.440 E46.01142
G1 X95.806 Y74.480 E46.01513
G1 X95.969 Y74.559 E46.02721
G1 X96.792 Y74.655 E46.08257
G1 X97.405 Y74.797 E46.12465
G1 X99.132 Y75.409 E46.24700
G1 X99.698 Y75.684 E46.28907
G1 X99.820 Y75.760 E46.29866
G1 X100.110 Y75.770 E46.31809
G1 X100.404 Y75.611 E46.34039
G1 X102.220 Y74.891 E46.47089
G1 X102.869 Y74.719 E46.51577
G1 X103.995 Y74.562 E46.59170
G1 X104.151 Y74.484 E46.60336
G1 X104.195 Y74.440 E46.60751
G1 X104.719 Y74.440 E46.64249
G1 X104.938 Y74.335 E46.65876
G1 X106.551 Y72.325 E46.83088
G1 X106.899 Y71.962 E46.86452
G1 X109.110 Y70.041 E47.06017
G1 X109.517 Y69.746 E47.09380
G1 X109.778 Y69.590 E47.11408
G1 X112.034 Y68.248 E47.28945
G1 X112.488 Y68.030 E47.32309
G1 X115.231 Y67.004 E47.51874
G1 X115.717 Y66.871 E47.55238
G1 X118.599 Y66.350 E47.74803
G1 X119.100 Y66.305 E47.78166
G1 X122.029 Y66.305 E47.97731
G1 X122.530 Y66.350 E48.01095
G1 X125.412 Y66.871 E48.20660
G1 X125.898 Y67.004 E48.24023
G1 X128.641 Y68.030 E48.43589
G1 X129.095 Y68.248 E48.46953
G1 X131.612 Y69.746 E48.66518
G1 X132.020 Y70.041 E48.69881
G1 X134.230 Y71.962 E48.89446
G1 X134.578 Y72.325 E48.92810
G1 X136.191 Y74.335 E49.10022
G1 X136.410 Y74.440 E49.11649
G1 X136.934 Y74.440 E49.15147
G1 X136.973 Y74.480 E49.15519
G1 X137.136 Y74.559 E49.16727
G1 X137.959 Y74.655 E49.22263
G1 X138.573 Y74.797 E49.26470
G1 X140.299 Y75.409 E49.38705
G1 X140.866 Y75.684 E49.42913
G1 X142.414 Y76.663 E49.55148
G1 X142.905 Y77.057 E49.59355
G1 X144.197 Y78.355 E49.71592
G1 X144.589 Y78.848 E49.75800
G1 X145.561 Y80.400 E49.88034
G1 X145.833 Y80.968 E49.92243
G1 X146.436 Y82.697 E50.04477
G1 X146.576 Y83.311 E50.08684
G1 X146.781 Y85.132 E50.20921
G1 X146.780 Y85.762 E50.25130
G1 X146.576 Y87.581 E50.37363
G1 X146.436 Y88.195 E50.41570
G1 X145.833 Y89.925 E50.53805
G1 X145.561 Y90.492 E50.58012
G1 X144.589 Y92.045 E50.70249
G1 X144.197 Y92.538 E50.74458
G1 X142.905 Y93.836 E50.86691
G1 X142.414 Y94.230 E50.90898
G1 X142.126 Y94.412 E50.93173
G1 X140.866 Y95.209 E51.03134
G1 X140.299 Y95.484 E51.07342
G1 X138.573 Y96.095 E51.19577
G1 X137.959 Y96.238 E51.23785
G1 X137.136 Y96.334 E51.29321
G1 X136.973 Y96.413 E51.30529
G1 X136.934 Y96.452 E51.30900
G1 X136.410 Y96.452 E51.34398
G1 X136.191 Y96.558 E51.36026
G1 X134.578 Y98.567 E51.53238
G1 X134.230 Y98.930 E51.56601
G1 X133.280 Y99.756 E51.65007
G1 X133.280 Y100.244 E51.68268
G1 X134.230 Y101.070 E51.76673
G1 X134.578 Y101.433 E51.80037
G1 X136.191 Y103.442 E51.97249
G1 X136.410 Y103.548 E51.98876
G1 X136.934 Y103.548 E52.02374
G1 X136.973 Y103.587 E52.02746
G1 X137.136 Y103.666 E52.03954
G1 X137.959 Y103.762 E52.09490
G1 X138.573 Y103.905 E52.13697
G1 X140.299 Y104.516 E52.25932
G1 X140.866 Y104.791 E52.30140
G1 X142.414 Y105.770 E52.42375
G1 X142.905 Y106.164 E52.46582
G1 X144.197 Y107.462 E52.58819
G1 X144.589 Y107.955 E52.63027
G1 X145.561 Y109.507 E52.75261
G1 X145.833 Y110.075 E52.79470
G1 X146.436 Y111.805 E52.91704
G1 X146.576 Y112.419 E52.95911
G1 X146.781 Y114.239 E53.08148
G1 X146.780 Y114.869 E53.12357
G1 X146.576 Y116.689 E53.24590
G1 X146.436 Y117.303 E53.28797
G1 X145.833 Y119.032 E53.41032
G1 X145.561 Y119.600 E53.45239
G1 X144.589 Y121.152 E53.57476
G1 X144.197 Y121.646 E53.61685
G1 X142.905 Y122.943 E53.73918
G1 X142.414 Y123.337 E53.78125
G1 X140.866 Y124.316 E53.90361
G1 X140.299 Y124.592 E53.94569
G1 X138.573 Y125.203 E54.06804
G1 X137.959 Y125.345 E54.11012
G1 X137.136 Y125.442 E54.16548
G1 X136.973 Y125.520 E54.17756
G1 X136.934 Y125.560 E54.18127
G1 X136.410 Y125.560 E54.21625
G1 X136.191 Y125.665 E54.23253
G1 X134.578 Y127.675 E54.40464
G1 X134.230 Y128.038 E54.43828
G1 X132.019 Y129.959 E54.63393
G1 X131.612 Y130.254 E54.66757
G1 X129.095 Y131.752 E54.86322
G1 X128.641 Y131.970 E54.89686
G1 X125.898 Y132.996 E55.09251
G1 X125.412 Y133.129 E55.12615
G1 X122.530 Y133.650 E55.32179
G1 X122.029 Y133.695 E55.35543
G1 X119.100 Y133.695 E55.55108
G1 X118.599 Y133.650 E55.58471
G1 X115.717 Y133.129 E55.78036
G1 X115.231 Y132.996 E55.81400
G1 X112.488 Y131.970 E56.00965
G1 X112.034 Y131.752 E56.04329
G1 X109.517 Y130.254 E56.23894
G1 X109.110 Y129.959 E56.27257
G1 X106.899 Y128.038 E56.46822
G1 X106.551 Y127.675 E56.50186
