; generated by Slic3r 1.2.9 on 2018-11-11 at 15:39:57

; external perimeters extrusion width = 0.30mm
; perimeters extrusion width = 0.40mm
; infill extrusion width = 0.40mm
; solid infill extrusion width = 0.40mm
; top infill extrusion width = 0.40mm

M107
M190 S65 ; set bed temperature
M104 S205 ; set temperature
G28 ; home all axes
G1 Z5 F5000 ; lift nozzle

M109 S205 ; wait for temperature to be reached
G21 ; set units to millimeters
G90 ; use absolute coordinates
M82 ; use absolute distances for extrusion
G92 E0
G1 Z0.300 F7800.000
G1 E-2.00000 F2400.00000
G92 E0
G1 X71.730 Y71.730 F7800.000
G1 E2.00000 F2400.00000
G1 X72.451 Y71.009 E2.06813 F1800.000
G1 X73.457 Y70.165 E2.15587
G1 X75.128 Y68.995 E2.29212
G1 X76.265 Y68.338 E2.37986
G1 X78.114 Y67.476 E2.51612
G1 X79.348 Y67.027 E2.60387
G1 X81.318 Y66.499 E2.74012
G1 X82.612 Y66.271 E2.82787
G1 X84.643 Y66.093 E2.96412
G1 X85.300 Y66.064 E3.00803
G1 X114.700 Y66.064 E4.97211
G1 X115.356 Y66.093 E5.01601
G1 X117.388 Y66.271 E5.15228 F1800.000
G1 X118.682 Y66.499 E5.24002
G1 X120.652 Y67.027 E5.37627
G1 X121.886 Y67.476 E5.46403
G1 X123.735 Y68.338 E5.60027
G1 X124.872 Y68.995 E5.68802
G1 X126.543 Y70.164 E5.82427
G1 X127.549 Y71.009 E5.91202
G1 X128.991 Y72.451 E6.04827
G1 X129.836 Y73.457 E6.13602
G1 X131.005 Y75.128 E6.27227
G1 X131.662 Y76.265 E6.36002
G1 X132.524 Y78.114 E6.49626
G1 X132.973 Y79.348 E6.58400
G1 X133.501 Y81.318 E6.72026
G1 X133.729 Y82.612 E6.80801
G1 X133.907 Y84.643 E6.94426
G1 X133.936 Y85.300 E6.98818
G1 X133.936 Y114.700 E8.95226
G1 X133.907 Y115.357 E8.99617
G1 X133.729 Y117.388 E9.13242
G1 X133.501 Y118.682 E9.22017
G1 X132.973 Y120.652 E9.35642
G1 X132.524 Y121.886 E9.44417
G1 X131.662 Y123.735 E9.58042
G1 X131.005 Y124.872 E9.66817
G1 X129.836 Y126.543 E9.80441
G1 X128.991 Y127.549 E9.89217
G1 X127.549 Y128.991 E10.02841
G1 X126.543 Y129.836 E10.11616
G1 X124.872 Y131.005 E10.25241
G1 X123.735 Y131.662 E10.34016
G1 X121.886 Y132.524 E10.47641
G1 X120.652 Y132.973 E10.56414
G1 X118.682 Y133.501 E10.70040
G1 X117.388 Y133.729 E10.78816
G1 X115.357 Y133.907 E10.92440
G1 X114.700 Y133.936 E10.96832
G1 X85.300 Y133.936 E12.93240
G1 X84.643 Y133.907 E12.97631
G1 X82.612 Y133.729 E13.11256
G1 X81.318 Y133.501 E13.20031
G1 X79.348 Y132.973 E13.33656
G1 X78.114 Y132.524 E13.42431
G1 X76.265 Y131.662 E13.56056
G1 X75.128 Y131.005 E13.64831
G1 X73.457 Y129.836 E13.78456
G1 X72.451 Y128.991 E13.87230
G1 X71.009 Y127.549 E14.00855
G1 X70.165 Y126.543 E14.09629
G1 X68.995 Y124.872 E14.23255
G1 X68.338 Y123.735 E14.32030
G1 X67.476 Y121.886 E14.45655
G1 X67.027 Y120.652 E14.54429
G1 X66.499 Y118.682 E14.68055
G1 X66.271 Y117.388 E14.76830
G1 X66.093 Y115.357 E14.90455
G1 X66.064 Y114.700 E14.94846
G1 X66.064 Y85.300 E16.91254
G1 X66.093 Y84.644 E16.95644
G1 X66.271 Y82.612 E17.09271
G1 X66.499 Y81.318 E17.18044
G1 X67.027 Y79.348 E17.31670
G1 X67.476 Y78.114 E17.40445
G1 X68.338 Y76.265 E17.54070
G1 X68.995 Y75.128 E17.62844
G1 X70.164 Y73.457 E17.76470
G1 X71.009 Y72.451 E17.85243
G1 X71.698 Y71.762 E17.91757
G1 X72.703 Y72.703 F7800.000
G1 X73.614 Y71.792 E18.00366 F1800.000
G1 X74.026 Y71.446 E18.03958
G1 X76.137 Y69.968 E18.21177
G1 X76.603 Y69.699 E18.24769
G1 X78.939 Y68.609 E18.41988
G1 X79.444 Y68.425 E18.45582
G1 X81.934 Y67.758 E18.62799
G1 X82.464 Y67.665 E18.66394
G1 X85.031 Y67.440 E18.83610
G1 X85.569 Y67.440 E18.87202
G1 X88.136 Y67.665 E19.04421
G1 X88.666 Y67.758 E19.08014
G1 X88.957 Y67.836 E19.10029
G1 X91.156 Y68.425 E19.25232
G1 X91.661 Y68.609 E19.28826
G1 X93.997 Y69.699 E19.46043
G1 X94.463 Y69.968 E19.49637
G1 X94.710 Y70.141 E19.51652
G1 X96.574 Y71.446 E19.66855
G1 X96.986 Y71.792 E19.70448
G1 X98.808 Y73.614 E19.87666
G1 X99.154 Y74.026 E19.91259
G1 X99.721 Y74.836 E19.97863
G1 X100.279 Y74.836 E20.01589
G1 X100.846 Y74.026 E20.08193
G1 X101.191 Y73.614 E20.11785
G1 X103.014 Y71.792 E20.29004
G1 X103.426 Y71.446 E20.32597
G1 X103.673 Y71.273 E20.34612
G1 X105.537 Y69.968 E20.49815
G1 X106.003 Y69.699 E20.53408
G1 X108.339 Y68.609 E20.70627
G1 X108.844 Y68.425 E20.74221
G1 X111.334 Y67.758 E20.91438
G1 X111.864 Y67.665 E20.95032
G1 X114.431 Y67.440 E21.12248
G1 X114.969 Y67.440 E21.15841
G1 X115.269 Y67.467 E21.17856
G1 X117.536 Y67.665 E21.33060 F1800.000
G1 X118.066 Y67.758 E21.36653
G1 X120.556 Y68.425 E21.53871
G1 X121.061 Y68.609 E21.57465
G1 X123.397 Y69.699 E21.74682
G1 X123.863 Y69.968 E21.78275
G1 X125.974 Y71.446 E21.95493
G1 X126.386 Y71.792 E21.99087
G1 X128.208 Y73.614 E22.16304
G1 X128.554 Y74.026 E22.19898
G1 X130.032 Y76.137 E22.37116
G1 X130.301 Y76.603 E22.40709
G1 X131.391 Y78.939 E22.57926
G1 X131.574 Y79.444 E22.61519
G1 X132.242 Y81.934 E22.78738
G1 X132.335 Y82.464 E22.82332
G1 X132.560 Y85.031 E22.99549
G1 X132.560 Y85.569 E23.03142
G1 X132.335 Y88.137 E23.20360
G1 X132.242 Y88.666 E23.23955
G1 X131.575 Y91.156 E23.41171
G1 X131.391 Y91.661 E23.44764
G1 X130.301 Y93.997 E23.61982
G1 X130.032 Y94.463 E23.65576
G1 X128.554 Y96.574 E23.82793
G1 X128.208 Y96.986 E23.86386
G1 X126.386 Y98.808 E24.03604
G1 X125.974 Y99.154 E24.07198
G1 X125.164 Y99.721 E24.13802
G1 X125.164 Y100.279 E24.17527
G1 X125.974 Y100.846 E24.24132
G1 X126.386 Y101.192 E24.27725
G1 X128.208 Y103.014 E24.44943
G1 X128.554 Y103.426 E24.48537
G1 X130.032 Y105.537 E24.65754
G1 X130.301 Y106.003 E24.69348
G1 X131.391 Y108.339 E24.86565
G1 X131.574 Y108.844 E24.90158
G1 X132.242 Y111.334 E25.07377
G1 X132.335 Y111.864 E25.10971
G1 X132.560 Y114.431 E25.28187
G1 X132.560 Y114.969 E25.31780
G1 X132.335 Y117.537 E25.48999
G1 X132.242 Y118.066 E25.52593
G1 X131.575 Y120.556 E25.69810
G1 X131.391 Y121.061 E25.73403
G1 X130.301 Y123.397 E25.90621
G1 X130.032 Y123.863 E25.94214
G1 X128.554 Y125.974 E26.11432
G1 X128.208 Y126.386 E26.15025
G1 X126.386 Y128.208 E26.32243
G1 X125.974 Y128.554 E26.35836
G1 X123.863 Y130.032 E26.53054
G1 X123.397 Y130.301 E26.56648
G1 X121.061 Y131.391 E26.73865
G1 X120.556 Y131.574 E26.77457
G1 X118.066 Y132.242 E26.94677
G1 X117.536 Y132.335 E26.98271
G1 X114.969 Y132.560 E27.15487
G1 X114.431 Y132.560 E27.19080
G1 X111.863 Y132.335 E27.36299
G1 X111.334 Y132.242 E27.39893
G1 X108.844 Y131.575 E27.57109
G1 X108.339 Y131.391 E27.60702
G1 X106.003 Y130.301 E27.77921
G1 X105.537 Y130.032 E27.81514
G1 X103.426 Y128.554 E27.98732
G1 X103.014 Y128.208 E28.02324
G1 X101.192 Y126.386 E28.19543
G1 X100.846 Y125.974 E28.23135
G1 X100.279 Y125.164 E28.29741
G1 X99.721 Y125.164 E28.33466
G1 X99.154 Y125.974 E28.40070
G1 X98.808 Y126.386 E28.43664
G1 X96.986 Y128.208 E28.60882
G1 X96.574 Y128.554 E28.64475
G1 X94.463 Y130.032 E28.81693
G1 X93.997 Y130.301 E28.85286
G1 X91.661 Y131.391 E29.02503
G1 X91.156 Y131.574 E29.06096
G1 X88.666 Y132.242 E29.23315
G1 X88.136 Y132.335 E29.26910
G1 X85.569 Y132.560 E29.44126
G1 X85.031 Y132.560 E29.47719
G1 X82.463 Y132.335 E29.64938
G1 X81.934 Y132.242 E29.68532
G1 X79.444 Y131.575 E29.85748
G1 X78.939 Y131.391 E29.89341
G1 X76.603 Y130.301 E30.06559
G1 X76.137 Y130.032 E30.10153
G1 X74.026 Y128.554 E30.27370
G1 X73.614 Y128.208 E30.30963
G1 X71.792 Y126.386 E30.48181
G1 X71.446 Y125.974 E30.51774
G1 X69.968 Y123.863 E30.68993
G1 X69.699 Y123.397 E30.72585
G1 X68.609 Y121.061 E30.89804
G1 X68.425 Y120.556 E30.93397
G1 X68.347 Y120.264 E30.95412
G1 X67.758 Y118.066 E31.10615
G1 X67.665 Y117.536 E31.14209
G1 X67.440 Y114.969 E31.31426
G1 X67.440 Y114.431 E31.35018
G1 X67.665 Y111.864 E31.52237
G1 X67.758 Y111.334 E31.55829
G1 X68.425 Y108.844 E31.73048
G1 X68.609 Y108.339 E31.76641
G1 X69.699 Y106.003 E31.93859
G1 X69.968 Y105.537 E31.97452
G1 X71.446 Y103.426 E32.14670
G1 X71.791 Y103.014 E32.18262
G1 X73.614 Y101.192 E32.35481
G1 X74.026 Y100.846 E32.39074
G1 X74.836 Y100.279 E32.45679
G1 X74.836 Y99.721 E32.49405
G1 X74.026 Y99.154 E32.56009
G1 X73.614 Y98.808 E32.59602
G1 X71.792 Y96.986 E32.76820
G1 X71.446 Y96.574 E32.80413
G1 X71.273 Y96.327 E32.82428
G1 X69.968 Y94.463 E32.97631
G1 X69.699 Y93.997 E33.01224
G1 X68.609 Y91.661 E33.18442
G1 X68.425 Y91.156 E33.22035
G1 X67.758 Y88.666 E33.39254
G1 X67.665 Y88.136 E33.42847
G1 X67.440 Y85.569 E33.60064
G1 X67.440 Y85.031 E33.63657
G1 X67.665 Y82.464 E33.80875
G1 X67.758 Y81.934 E33.84468
G1 X68.425 Y79.444 E34.01687
G1 X68.609 Y78.939 E34.05280
G1 X69.699 Y76.603 E34.22498
G1 X69.968 Y76.137 E34.26091
G1 X71.446 Y74.026 E34.43309
G1 X71.791 Y73.614 E34.46901
G1 X72.671 Y72.735 E34.55210
G1 X73.082 Y73.082 F7800.000
G1 X73.976 Y72.187 E34.63663 F1800.000
G1 X74.352 Y71.871 E34.66944
G1 X76.425 Y70.420 E34.83849
G1 X76.851 Y70.174 E34.87129
G1 X79.144 Y69.105 E35.04036
G1 X79.606 Y68.937 E35.07317
G1 X82.050 Y68.282 E35.24222
G1 X82.534 Y68.197 E35.27504
G1 X85.054 Y67.976 E35.44408
G1 X85.545 Y67.976 E35.47688
G1 X88.066 Y68.197 E35.64594
G1 X88.550 Y68.282 E35.67875
G1 X90.994 Y68.937 E35.84781
G1 X91.456 Y69.105 E35.88062
G1 X93.749 Y70.174 E36.04967
G1 X94.175 Y70.420 E36.08247
G1 X96.248 Y71.871 E36.25153
G1 X96.624 Y72.187 E36.28434
G1 X98.413 Y73.976 E36.45339
G1 X98.729 Y74.352 E36.48620
G1 X99.721 Y75.770 E36.60178
G1 X100.279 Y75.770 E36.63904
G1 X101.271 Y74.352 E36.75462
G1 X101.587 Y73.976 E36.78742
G1 X103.376 Y72.187 E36.95648
G1 X103.752 Y71.871 E36.98929
G1 X103.980 Y71.712 E37.00787
G1 X105.825 Y70.420 E37.15834
G1 X106.251 Y70.174 E37.19115
G1 X108.544 Y69.105 E37.36021
G1 X109.006 Y68.937 E37.39302
G1 X111.450 Y68.282 E37.56207
G1 X111.934 Y68.197 E37.59489
G1 X114.454 Y67.976 E37.76393
G1 X114.945 Y67.976 E37.79673
G1 X117.466 Y68.197 E37.96579 F1800.000
G1 X117.950 Y68.282 E37.99860
G1 X120.394 Y68.937 E38.16766
G1 X120.856 Y69.105 E38.20047
G1 X123.149 Y70.174 E38.36952
G1 X123.575 Y70.420 E38.40232
G1 X125.648 Y71.871 E38.57138
G1 X126.024 Y72.187 E38.60419
G1 X127.813 Y73.976 E38.77324
G1 X128.129 Y74.352 E38.80605
G1 X129.580 Y76.425 E38.97510
G1 X129.826 Y76.851 E39.00792
G1 X130.895 Y79.144 E39.17696
G1 X131.063 Y79.605 E39.20977
G1 X131.718 Y82.050 E39.37883
G1 X131.803 Y82.534 E39.41165
G1 X132.024 Y85.054 E39.58069
G1 X132.024 Y85.545 E39.61349
G1 X131.803 Y88.067 E39.78256
G1 X131.718 Y88.550 E39.81537
G1 X131.063 Y90.994 E39.98441
G1 X130.895 Y91.456 E40.01722
G1 X129.826 Y93.749 E40.18628
G1 X129.580 Y94.175 E40.21909
G1 X128.129 Y96.248 E40.38814
G1 X127.813 Y96.624 E40.42094
G1 X126.024 Y98.413 E40.59000
G1 X125.648 Y98.729 E40.62281
G1 X124.230 Y99.721 E40.73839
G1 X124.230 Y100.279 E40.77565
G1 X125.648 Y101.271 E40.89123
G1 X126.024 Y101.587 E40.92404
G1 X127.813 Y103.376 E41.09309
G1 X128.129 Y103.752 E41.12590
G1 X129.580 Y105.825 E41.29495
G1 X129.826 Y106.251 E41.32777
G1 X130.895 Y108.544 E41.49681
G1 X131.063 Y109.005 E41.52962
G1 X131.718 Y111.450 E41.69868
G1 X131.803 Y111.934 E41.73150
G1 X132.024 Y114.454 E41.90054
G1 X132.024 Y114.945 E41.93334
G1 X131.803 Y117.467 E42.10241
G1 X131.718 Y117.950 E42.13522
G1 X131.063 Y120.394 E42.30426
G1 X130.895 Y120.856 E42.33707
G1 X129.826 Y123.149 E42.50613
G1 X129.580 Y123.575 E42.53894
G1 X128.129 Y125.648 E42.70799
G1 X127.813 Y126.024 E42.74080
G1 X126.024 Y127.813 E42.90985
G1 X125.648 Y128.129 E42.94266
G1 X123.575 Y129.580 E43.11171
G1 X123.149 Y129.826 E43.14452
G1 X120.856 Y130.895 E43.31357
G1 X120.395 Y131.063 E43.34637
G1 X117.950 Y131.718 E43.51544
G1 X117.466 Y131.803 E43.54826
G1 X114.946 Y132.024 E43.71730
G1 X114.455 Y132.024 E43.75010
G1 X111.933 Y131.803 E43.91916
G1 X111.450 Y131.718 E43.95198
G1 X109.006 Y131.063 E44.12102
G1 X108.544 Y130.895 E44.15383
G1 X106.251 Y129.826 E44.32288
G1 X105.825 Y129.580 E44.35569
G1 X103.752 Y128.129 E44.52474
G1 X103.376 Y127.813 E44.55755
G1 X101.587 Y126.024 E44.72660
G1 X101.271 Y125.648 E44.75941
G1 X100.279 Y124.230 E44.87500
G1 X99.721 Y124.230 E44.91225
G1 X98.729 Y125.648 E45.02784
G1 X98.413 Y126.024 E45.06065
G1 X96.624 Y127.813 E45.22970
G1 X96.248 Y128.129 E45.26251
G1 X94.175 Y129.580 E45.43156
G1 X93.749 Y129.826 E45.46437
G1 X91.456 Y130.895 E45.63342
G1 X90.995 Y131.063 E45.66622
G1 X88.550 Y131.718 E45.83529
G1 X88.066 Y131.803 E45.86811
G1 X85.546 Y132.024 E46.03715
G1 X85.055 Y132.024 E46.06995
G1 X82.533 Y131.803 E46.23901
G1 X82.050 Y131.718 E46.27183
G1 X79.606 Y131.063 E46.44087
G1 X79.144 Y130.895 E46.47368
G1 X78.892 Y130.778 E46.49226
G1 X76.851 Y129.826 E46.64273
G1 X76.425 Y129.580 E46.67554
G1 X74.352 Y128.129 E46.84459
G1 X73.976 Y127.813 E46.87740
G1 X73.780 Y127.616 E46.89598
G1 X72.187 Y126.024 E47.04645
G1 X71.871 Y125.648 E47.07926
G1 X70.420 Y123.575 E47.24832
G1 X70.174 Y123.149 E47.28112
G1 X69.105 Y120.856 E47.45018
G1 X68.937 Y120.394 E47.48298
G1 X68.865 Y120.126 E47.50158
G1 X68.282 Y117.950 E47.65204
G1 X68.197 Y117.466 E47.68486
G1 X67.976 Y114.946 E47.85390
G1 X67.976 Y114.455 E47.88670
G1 X68.197 Y111.934 E48.05576
G1 X68.282 Y111.450 E48.08857
G1 X68.937 Y109.006 E48.25763
G1 X69.105 Y108.544 E48.29044
G1 X70.174 Y106.251 E48.45949
G1 X70.420 Y105.825 E48.49229
G1 X71.871 Y103.752 E48.66135
G1 X72.187 Y103.376 E48.69415
G1 X73.976 Y101.587 E48.86321
G1 X74.352 Y101.271 E48.89602
G1 X75.770 Y100.279 E49.01161
G1 X75.770 Y99.721 E49.04886
G1 X74.352 Y98.729 E49.16444
G1 X73.976 Y98.413 E49.19725
G1 X72.187 Y96.624 E49.36630
G1 X71.871 Y96.248 E49.39911
G1 X71.712 Y96.020 E49.41770
G1 X70.420 Y94.175 E49.56817
G1 X70.174 Y93.749 E49.60097
G1 X69.105 Y91.456 E49.77003
G1 X68.937 Y90.994 E49.80283
G1 X68.282 Y88.550 E49.97189
G1 X68.197 Y88.066 E50.00471
G1 X67.976 Y85.546 E50.17375
G1 X67.976 Y85.055 E50.20655
G1 X68.197 Y82.534 E50.37561
G1 X68.282 Y82.050 E50.40842
G1 X68.937 Y79.606 E50.57748
G1 X69.105 Y79.144 E50.61029
G1 X70.174 Y76.851 E50.77934
G1 X70.420 Y76.425 E50.81214
G1 X71.871 Y74.352 E50.98120
G1 X72.187 Y73.976 E51.01400
G1 X73.050 Y73.113 E51.09553
G1 X73.460 Y73.460 F7800.000
G1 X74.338 Y72.582 E51.17850 F1800.000
G1 X74.679 Y72.297 E51.20818
G1 X76.713 Y70.872 E51.37411
G1 X77.098 Y70.650 E51.40379
G1 X79.349 Y69.600 E51.56972
G1 X79.767 Y69.448 E51.59941
G1 X82.166 Y68.805 E51.76534
G1 X82.604 Y68.728 E51.79503
G1 X85.078 Y68.512 E51.96094
G1 X85.522 Y68.512 E51.99062
G1 X87.996 Y68.728 E52.15656
G1 X88.434 Y68.805 E52.18624
G1 X90.833 Y69.448 E52.35217
G1 X91.251 Y69.600 E52.38186
G1 X93.502 Y70.650 E52.54779
G1 X93.887 Y70.872 E52.57747
G1 X95.921 Y72.297 E52.74340
G1 X96.262 Y72.582 E52.77308
G1 X98.018 Y74.338 E52.93901
G1 X98.303 Y74.679 E52.96870
G1 X99.721 Y76.704 E53.13382
G1 X100.279 Y76.704 E53.17107
G1 X101.697 Y74.679 E53.33619
G1 X101.982 Y74.339 E53.36587
G1 X103.738 Y72.582 E53.53181
G1 X104.079 Y72.297 E53.56149
G1 X104.288 Y72.150 E53.57852
G1 X106.113 Y70.872 E53.72742
G1 X106.498 Y70.650 E53.75710
G1 X108.749 Y69.600 E53.92304
G1 X109.167 Y69.448 E53.95273
G1 X111.566 Y68.805 E54.11865
G1 X112.004 Y68.728 E54.14834
G1 X114.478 Y68.512 E54.31426
G1 X114.922 Y68.512 E54.34393
G1 X115.176 Y68.534 E54.36096
G1 X117.396 Y68.728 E54.50987 F1800.000
G1 X117.834 Y68.805 E54.53956
G1 X120.233 Y69.448 E54.70549
G1 X120.651 Y69.600 E54.73517
G1 X122.902 Y70.650 E54.90110
G1 X123.287 Y70.872 E54.93078
G1 X125.321 Y72.297 E55.09671
G1 X125.662 Y72.582 E55.12640
G1 X127.418 Y74.338 E55.29233
G1 X127.703 Y74.679 E55.32201
G1 X129.128 Y76.713 E55.48794
G1 X129.350 Y77.098 E55.51763
G1 X130.400 Y79.349 E55.68355
G1 X130.552 Y79.767 E55.71323
G1 X131.195 Y82.166 E55.87917
G1 X131.272 Y82.604 E55.90886
G1 X131.488 Y85.078 E56.07478
G1 X131.488 Y85.522 E56.10446
G1 X131.272 Y87.997 E56.27040
G1 X131.195 Y88.434 E56.30009
G1 X130.552 Y90.833 E56.46600
G1 X130.400 Y91.251 E56.49569
G1 X129.350 Y93.502 E56.66162
G1 X129.128 Y93.887 E56.69130
G1 X127.703 Y95.921 E56.85723
G1 X127.418 Y96.262 E56.88691
G1 X125.662 Y98.018 E57.05284
G1 X125.321 Y98.303 E57.08253
G1 X123.296 Y99.721 E57.24765
G1 X123.296 Y100.279 E57.28490
G1 X125.321 Y101.697 E57.45003
G1 X125.662 Y101.982 E57.47971
G1 X127.418 Y103.738 E57.64564
G1 X127.703 Y104.079 E57.67533
G1 X129.128 Y106.113 E57.84125
G1 X129.350 Y106.498 E57.87094
G1 X130.400 Y108.749 E58.03686
G1 X130.552 Y109.167 E58.06654
G1 X131.195 Y111.566 E58.23248
G1 X131.272 Y112.004 E58.26217
G1 X131.488 Y114.478 E58.42809
G1 X131.488 Y114.922 E58.45777
