; generated by Slic3r 1.2.9 on 2018-11-08 at 20:43:30

; external perimeters extrusion width = 0.30mm
; perimeters extrusion width = 0.40mm
; infill extrusion width = 0.40mm
; solid infill extrusion width = 0.40mm
; top infill extrusion width = 0.40mm

M107
M190 S65 ; set bed temperature
M104 S205 ; set temperature
G28 ; home all axes
G1 Z5 F5000 ; lift nozzle

M109 S205 ; wait for temperature to be reached
G21 ; set units to millimeters
G90 ; use absolute coordinates
M82 ; use absolute distances for extrusion
G92 E0
G1 Z0.300 F7800.000
G1 E-2.00000 F2400.00000
G92 E0
G1 X78.937 Y90.400 F7800.000
G1 E2.00000 F2400.00000
G1 X87.198 Y83.930 E2.70099 F1800.000
G1 X87.640 Y83.609 E2.73752
G1 X89.462 Y82.384 E2.88421
G1 X90.575 Y81.765 E2.96924
G1 X92.577 Y80.864 E3.11593
G1 X93.778 Y80.442 E3.20097
G1 X95.904 Y79.891 E3.34766
G1 X97.158 Y79.677 E3.43268
G1 X99.346 Y79.491 E3.57938
G1 X100.674 Y79.496 E3.66807
G1 X102.807 Y79.677 E3.81109 F1800.000
G1 X104.062 Y79.891 E3.89612
G1 X106.187 Y80.442 E4.04282
G1 X107.388 Y80.864 E4.12785
G1 X109.391 Y81.765 E4.27454
G1 X110.503 Y82.384 E4.35957
G1 X112.325 Y83.609 E4.50627
G1 X112.759 Y83.923 E4.54202
G1 X120.798 Y90.200 E5.22340
G1 X121.560 Y90.883 E5.29181
G1 X122.328 Y91.672 E5.36532
G1 X123.347 Y92.981 E5.47612
G1 X123.923 Y93.918 E5.54963
G1 X124.631 Y95.418 E5.66043
G1 X124.989 Y96.459 E5.73395
G1 X125.351 Y98.077 E5.84475
G1 X125.473 Y99.171 E5.91826
G1 X125.473 Y100.829 E6.02907
G1 X125.351 Y101.923 E6.10258
G1 X124.989 Y103.541 E6.21338
G1 X124.631 Y104.582 E6.28690
G1 X123.923 Y106.082 E6.39770
G1 X123.347 Y107.019 E6.47121
G1 X122.328 Y108.328 E6.58200
G1 X121.560 Y109.117 E6.65553
G1 X120.798 Y109.800 E6.72394
G1 X112.759 Y116.077 E7.40531
G1 X112.325 Y116.391 E7.44107
G1 X110.503 Y117.616 E7.58776
G1 X109.391 Y118.235 E7.67278
G1 X107.388 Y119.136 E7.81948
G1 X106.187 Y119.558 E7.90451
G1 X104.062 Y120.109 E8.05121
G1 X102.807 Y120.323 E8.13624
G1 X100.619 Y120.509 E8.28293
G1 X99.346 Y120.509 E8.36796
G1 X97.158 Y120.323 E8.51465
G1 X95.904 Y120.109 E8.59969
G1 X93.778 Y119.558 E8.74638
G1 X92.577 Y119.136 E8.83141
G1 X90.575 Y118.235 E8.97810
G1 X89.462 Y117.616 E9.06313
G1 X87.640 Y116.391 E9.20983
G1 X87.198 Y116.070 E9.24636
G1 X78.937 Y109.600 E9.94734
G1 X77.848 Y108.555 E10.04816
G1 X77.087 Y107.661 E10.12656
G1 X76.106 Y106.190 E10.24471
G1 X75.574 Y105.144 E10.32311
G1 X74.963 Y103.484 E10.44126
G1 X74.689 Y102.343 E10.51966
G1 X74.482 Y100.587 E10.63781
G1 X74.482 Y99.413 E10.71621
G1 X74.689 Y97.657 E10.83434
G1 X74.963 Y96.516 E10.91275
G1 X75.574 Y94.856 E11.03089
G1 X76.106 Y93.810 E11.10930
G1 X77.087 Y92.339 E11.22746
G1 X77.848 Y91.445 E11.30585
G1 X78.905 Y90.432 E11.40367
G1 X79.745 Y91.509 F7800.000
G1 X81.197 Y90.450 E11.52372 F1800.000
G1 X81.829 Y90.095 E11.57218
G1 X83.582 Y89.365 E11.69903
G1 X84.113 Y89.214 E11.73588
G1 X84.258 Y89.114 E11.74767
G1 X85.472 Y87.486 E11.88332
G1 X85.818 Y87.096 E11.91814
G1 X87.785 Y85.222 E12.09964
G1 X88.192 Y84.896 E12.13446
G1 X88.453 Y84.720 E12.15553
G1 X90.446 Y83.380 E12.31596
G1 X90.902 Y83.127 E12.35078
G1 X93.380 Y82.012 E12.53229
G1 X93.871 Y81.839 E12.56710
G1 X96.501 Y81.158 E12.74861
G1 X97.015 Y81.070 E12.78342
G1 X99.722 Y80.840 E12.96493
G1 X100.243 Y80.840 E12.99974
G1 X100.558 Y80.867 E13.02082
G1 X102.951 Y81.070 E13.18125 F1800.000
G1 X103.464 Y81.158 E13.21607
G1 X106.094 Y81.839 E13.39757
G1 X106.586 Y82.012 E13.43239
G1 X109.064 Y83.127 E13.61389
G1 X109.519 Y83.380 E13.64871
G1 X111.774 Y84.896 E13.83022
G1 X112.180 Y85.222 E13.86503
G1 X114.148 Y87.096 E14.04654
G1 X114.493 Y87.486 E14.08135
G1 X115.708 Y89.114 E14.21705
G1 X115.861 Y89.217 E14.22938
G1 X116.047 Y89.264 E14.24220
G1 X117.715 Y89.888 E14.36113
G1 X118.321 Y90.194 E14.40656
G1 X119.812 Y91.168 E14.52549
G1 X120.337 Y91.600 E14.57092
G1 X121.579 Y92.875 E14.68984
G1 X121.997 Y93.412 E14.73527
G1 X122.929 Y94.928 E14.85420
G1 X123.219 Y95.543 E14.89963
G1 X123.798 Y97.227 E15.01856
G1 X123.946 Y97.891 E15.06399
G1 X124.142 Y99.660 E15.18293
G1 X124.142 Y100.340 E15.22836
G1 X124.036 Y101.300 E15.29287
G1 X124.069 Y101.464 E15.30405
G1 X124.583 Y102.383 E15.37436
G1 X121.997 Y106.588 E15.70418
G1 X121.579 Y107.124 E15.74960
G1 X121.323 Y107.388 E15.77414
G1 X120.337 Y108.400 E15.86854
G1 X119.812 Y108.832 E15.91395
G1 X118.321 Y109.806 E16.03290
G1 X117.715 Y110.112 E16.07831
G1 X116.047 Y110.736 E16.19726
G1 X115.861 Y110.783 E16.21007
G1 X115.708 Y110.886 E16.22240
G1 X114.493 Y112.514 E16.35809
G1 X114.148 Y112.904 E16.39291
G1 X112.180 Y114.778 E16.57442
G1 X111.774 Y115.104 E16.60924
G1 X109.519 Y116.620 E16.79074
G1 X109.064 Y116.873 E16.82555
G1 X106.586 Y117.988 E17.00706
G1 X106.094 Y118.161 E17.04188
G1 X103.464 Y118.842 E17.22338
G1 X102.951 Y118.930 E17.25820
G1 X100.243 Y119.160 E17.43970
G1 X99.722 Y119.160 E17.47452
G1 X97.015 Y118.930 E17.65603
G1 X96.501 Y118.842 E17.69084
G1 X93.871 Y118.161 E17.87235
G1 X93.379 Y117.988 E17.90717
G1 X90.902 Y116.873 E18.08867
G1 X90.446 Y116.620 E18.12349
G1 X88.192 Y115.104 E18.30499
G1 X87.785 Y114.778 E18.33981
G1 X85.818 Y112.904 E18.52131
G1 X85.472 Y112.514 E18.55613
G1 X84.258 Y110.886 E18.69177
G1 X84.113 Y110.786 E18.70356
G1 X83.582 Y110.635 E18.74042
G1 X81.829 Y109.905 E18.86727
G1 X81.197 Y109.550 E18.91573
G1 X79.663 Y108.431 E19.04258
G1 X79.131 Y107.938 E19.09103
G1 X77.899 Y106.493 E19.21789
G1 X77.497 Y105.889 E19.26635
G1 X76.636 Y104.197 E19.39320
G1 X76.385 Y103.516 E19.44166
G1 X75.943 Y101.670 E19.56850
G1 X75.858 Y100.949 E19.61696
G1 X75.858 Y99.051 E19.74381
G1 X75.943 Y98.330 E19.79226
G1 X76.385 Y96.484 E19.91912
G1 X76.636 Y95.803 E19.96757
G1 X77.497 Y94.111 E20.09443
G1 X77.899 Y93.507 E20.14289
G1 X79.131 Y92.062 E20.26974
G1 X79.709 Y91.535 E20.32196
G1 X80.060 Y91.942 F7800.000
G1 X81.487 Y90.902 E20.43991 F1800.000
G1 X82.064 Y90.577 E20.48415
G1 X83.759 Y89.871 E20.60679
G1 X84.434 Y89.680 E20.65366
G1 X84.579 Y89.579 E20.66545
G1 X85.888 Y87.824 E20.81170
G1 X86.204 Y87.468 E20.84349
G1 X88.138 Y85.626 E21.02197
G1 X88.509 Y85.328 E21.05375
G1 X88.752 Y85.165 E21.07332
G1 X90.726 Y83.837 E21.23223
G1 X91.142 Y83.606 E21.26402
G1 X93.579 Y82.510 E21.44250
G1 X94.028 Y82.352 E21.47429
G1 X96.614 Y81.682 E21.65277
G1 X97.083 Y81.602 E21.68455
G1 X97.374 Y81.577 E21.70412
G1 X99.745 Y81.376 E21.86304
G1 X100.221 Y81.376 E21.89482
G1 X102.883 Y81.602 E22.07330 F1800.000
G1 X103.352 Y81.682 E22.10509
G1 X105.938 Y82.352 E22.28357
G1 X106.387 Y82.510 E22.31536
G1 X108.823 Y83.606 E22.49384
G1 X109.239 Y83.837 E22.52562
G1 X111.456 Y85.328 E22.70410
G1 X111.827 Y85.626 E22.73589
G1 X113.762 Y87.468 E22.91437
G1 X114.078 Y87.824 E22.94616
G1 X115.392 Y89.587 E23.09305
G1 X115.545 Y89.690 E23.10538
G1 X115.887 Y89.776 E23.12893
G1 X117.499 Y90.379 E23.24391
G1 X118.053 Y90.659 E23.28539
G1 X119.495 Y91.600 E23.40037
G1 X119.974 Y91.994 E23.44185
G1 X121.174 Y93.228 E23.55683
G1 X121.556 Y93.718 E23.59830
G1 X122.457 Y95.184 E23.71329
G1 X122.722 Y95.745 E23.75477
G1 X123.282 Y97.373 E23.86975
G1 X123.417 Y97.979 E23.91122
G1 X123.607 Y99.690 E24.02621
G1 X123.607 Y100.311 E24.06769
G1 X123.485 Y101.412 E24.14170
G1 X123.518 Y101.576 E24.15288
G1 X123.962 Y102.370 E24.21365
G1 X121.556 Y106.282 E24.52051
G1 X121.174 Y106.772 E24.56198
G1 X120.939 Y107.014 E24.58455
G1 X119.974 Y108.006 E24.67697
G1 X119.495 Y108.400 E24.71843
G1 X118.053 Y109.341 E24.83343
G1 X117.499 Y109.621 E24.87489
G1 X115.887 Y110.224 E24.98989
G1 X115.545 Y110.310 E25.01343
G1 X115.392 Y110.413 E25.02576
G1 X114.078 Y112.176 E25.17265
G1 X113.762 Y112.532 E25.20444
G1 X111.827 Y114.374 E25.38292
G1 X111.456 Y114.672 E25.41471
G1 X109.239 Y116.163 E25.59319
G1 X108.823 Y116.394 E25.62497
G1 X106.387 Y117.490 E25.80346
G1 X105.938 Y117.648 E25.83525
G1 X103.352 Y118.318 E26.01372
G1 X102.883 Y118.398 E26.04551
G1 X100.221 Y118.624 E26.22399
G1 X99.745 Y118.624 E26.25578
G1 X97.083 Y118.398 E26.43426
G1 X96.614 Y118.318 E26.46605
G1 X94.028 Y117.648 E26.64452
G1 X93.579 Y117.490 E26.67632
G1 X91.142 Y116.394 E26.85479
G1 X90.726 Y116.163 E26.88658
G1 X88.509 Y114.672 E27.06506
G1 X88.138 Y114.374 E27.09685
G1 X86.204 Y112.532 E27.27532
G1 X85.888 Y112.176 E27.30711
G1 X84.579 Y110.421 E27.45336
G1 X84.434 Y110.320 E27.46515
G1 X83.759 Y110.129 E27.51202
G1 X82.064 Y109.423 E27.63466
G1 X81.487 Y109.098 E27.67890
G1 X80.004 Y108.017 E27.80154
G1 X79.518 Y107.567 E27.84578
G1 X78.327 Y106.170 E27.96842
G1 X77.960 Y105.619 E28.01267
G1 X77.128 Y103.982 E28.13531
G1 X76.899 Y103.361 E28.17955
G1 X76.471 Y101.576 E28.30219
G1 X76.393 Y100.918 E28.34643
G1 X76.393 Y99.082 E28.46906
G1 X76.471 Y98.425 E28.51330
G1 X76.899 Y96.639 E28.63594
G1 X77.128 Y96.018 E28.68018
G1 X77.960 Y94.381 E28.80283
G1 X78.327 Y93.830 E28.84707
G1 X79.518 Y92.433 E28.96971
G1 X80.024 Y91.968 E29.01563
G1 X80.376 Y92.375 F7800.000
G1 X81.777 Y91.353 E29.13147 F1800.000
G1 X82.299 Y91.060 E29.17149
G1 X83.936 Y90.378 E29.28992
G1 X84.512 Y90.214 E29.32996
G1 X84.698 Y90.184 E29.34254
G1 X84.877 Y90.076 E29.35651
G1 X86.304 Y88.163 E29.51594
G1 X86.589 Y87.841 E29.54470
G1 X88.491 Y86.029 E29.72015
G1 X88.827 Y85.760 E29.74891
G1 X89.051 Y85.609 E29.76696
G1 X91.006 Y84.295 E29.92436
G1 X91.383 Y84.085 E29.95312
G1 X93.778 Y83.008 E30.12858
G1 X94.184 Y82.865 E30.15734
G1 X96.726 Y82.206 E30.33279
G1 X97.150 Y82.133 E30.36155
G1 X99.767 Y81.912 E30.53700
G1 X100.198 Y81.912 E30.56576
G1 X100.467 Y81.934 E30.58381
G1 X102.815 Y82.133 E30.74121 F1800.000
G1 X103.239 Y82.206 E30.76997
G1 X105.782 Y82.865 E30.94543
G1 X106.188 Y83.008 E30.97419
G1 X108.583 Y84.085 E31.14964
G1 X108.959 Y84.295 E31.17840
G1 X111.139 Y85.760 E31.35385
G1 X111.474 Y86.029 E31.38261
G1 X113.376 Y87.841 E31.55806
G1 X113.662 Y88.163 E31.58682
G1 X115.076 Y90.060 E31.74491
G1 X115.230 Y90.162 E31.75724
G1 X115.727 Y90.288 E31.79152
G1 X117.284 Y90.870 E31.90256
G1 X117.785 Y91.124 E31.94008
G1 X119.177 Y92.032 E32.05112
G1 X119.611 Y92.389 E32.08864
G1 X120.770 Y93.580 E32.19967
G1 X121.115 Y94.023 E32.23720
G1 X121.986 Y95.439 E32.34824
G1 X122.225 Y95.947 E32.38576
G1 X122.765 Y97.519 E32.49680
G1 X122.888 Y98.067 E32.53432
G1 X123.071 Y99.719 E32.64536
G1 X123.071 Y100.281 E32.68289
G1 X122.934 Y101.523 E32.76638
G1 X122.967 Y101.687 E32.77756
G1 X123.341 Y102.357 E32.82881
G1 X121.115 Y105.977 E33.11270
G1 X120.770 Y106.420 E33.15022
G1 X120.555 Y106.641 E33.17081
G1 X119.611 Y107.611 E33.26126
G1 X119.177 Y107.968 E33.29877
G1 X117.785 Y108.876 E33.40982
G1 X117.284 Y109.130 E33.44733
G1 X115.727 Y109.712 E33.55838
G1 X115.230 Y109.838 E33.59266
G1 X115.076 Y109.940 E33.60499
G1 X113.662 Y111.837 E33.76307
G1 X113.376 Y112.159 E33.79183
G1 X111.474 Y113.971 E33.96729
G1 X111.139 Y114.240 E33.99605
G1 X108.959 Y115.705 E34.17150
G1 X108.583 Y115.915 E34.20025
G1 X106.188 Y116.992 E34.37571
G1 X105.781 Y117.135 E34.40447
G1 X103.239 Y117.794 E34.57992
G1 X102.815 Y117.867 E34.60868
G1 X100.198 Y118.088 E34.78414
G1 X99.767 Y118.088 E34.81290
G1 X97.151 Y117.867 E34.98835
G1 X96.726 Y117.794 E35.01711
G1 X94.184 Y117.135 E35.19256
G1 X93.778 Y116.992 E35.22133
G1 X91.383 Y115.915 E35.39677
G1 X91.006 Y115.705 E35.42553
G1 X88.827 Y114.240 E35.60098
G1 X88.491 Y113.971 E35.62974
G1 X86.589 Y112.159 E35.80520
G1 X86.304 Y111.837 E35.83396
G1 X84.877 Y109.924 E35.99339
G1 X84.698 Y109.816 E36.00735
G1 X84.512 Y109.786 E36.01995
G1 X83.936 Y109.622 E36.05998
G1 X82.299 Y108.940 E36.17840
G1 X81.777 Y108.647 E36.21843
G1 X80.345 Y107.603 E36.33685
G1 X79.905 Y107.195 E36.37688
G1 X78.755 Y105.846 E36.49531
G1 X78.423 Y105.348 E36.53534
G1 X77.619 Y103.768 E36.65376
G1 X77.412 Y103.205 E36.69380
G1 X76.999 Y101.481 E36.81222
G1 X76.929 Y100.886 E36.85225
G1 X76.929 Y99.114 E36.97067
G1 X76.999 Y98.519 E37.01069
G1 X77.412 Y96.795 E37.12912
G1 X77.619 Y96.233 E37.16915
G1 X78.423 Y94.652 E37.28758
G1 X78.755 Y94.154 E37.32761
G1 X79.905 Y92.805 E37.44603
G1 X80.340 Y92.402 E37.48564
G1 X80.691 Y92.807 F7800.000
G1 X82.067 Y91.805 E37.59937 F1800.000
G1 X82.535 Y91.542 E37.63519
G1 X84.113 Y90.885 E37.74940
G1 X84.629 Y90.738 E37.78522
G1 X84.998 Y90.679 E37.81022
G1 X85.177 Y90.570 E37.82418
G1 X86.720 Y88.501 E37.99662
G1 X86.975 Y88.213 E38.02235
G1 X88.844 Y86.433 E38.19478
G1 X89.145 Y86.192 E38.22051
G1 X91.286 Y84.752 E38.39293
G1 X91.623 Y84.565 E38.41866
G1 X93.977 Y83.506 E38.59109
G1 X94.340 Y83.378 E38.61682
G1 X96.839 Y82.730 E38.78925
G1 X97.218 Y82.665 E38.81498
G1 X97.465 Y82.644 E38.83151
G1 X99.790 Y82.447 E38.98741
G1 X100.175 Y82.447 E39.01314
G1 X102.747 Y82.665 E39.18556 F1800.000
G1 X103.127 Y82.730 E39.21129
G1 X105.625 Y83.378 E39.38372
G1 X105.989 Y83.506 E39.40945
G1 X108.342 Y84.565 E39.58188
G1 X108.679 Y84.752 E39.60761
G1 X110.821 Y86.192 E39.78004
G1 X111.121 Y86.433 E39.80577
G1 X112.990 Y88.213 E39.97819
G1 X113.246 Y88.501 E40.00393
G1 X114.774 Y90.551 E40.17474
G1 X114.959 Y90.660 E40.18911
G1 X115.567 Y90.800 E40.23078
G1 X117.069 Y91.362 E40.33786
G1 X117.517 Y91.588 E40.37144
G1 X118.859 Y92.465 E40.47852
G1 X119.247 Y92.784 E40.51210
G1 X120.365 Y93.933 E40.61918
G1 X120.674 Y94.329 E40.65275
G1 X121.514 Y95.695 E40.75984
G1 X121.729 Y96.149 E40.79342
G1 X122.249 Y97.665 E40.90051
G1 X122.359 Y98.156 E40.93408
G1 X122.535 Y99.749 E41.04117
G1 X122.535 Y100.251 E41.07475
G1 X122.382 Y101.635 E41.16773
G1 X122.416 Y101.799 E41.17891
G1 X122.720 Y102.344 E41.22063
G1 X120.674 Y105.671 E41.48155
G1 X120.366 Y106.067 E41.51512
G1 X119.247 Y107.216 E41.62221
G1 X118.860 Y107.535 E41.65578
G1 X117.517 Y108.412 E41.76287
G1 X117.069 Y108.638 E41.79644
G1 X115.567 Y109.200 E41.90354
G1 X114.959 Y109.340 E41.94520
G1 X114.774 Y109.449 E41.95957
G1 X113.246 Y111.499 E42.13038
G1 X112.990 Y111.787 E42.15611
G1 X111.121 Y113.567 E42.32854
G1 X110.821 Y113.808 E42.35428
G1 X108.679 Y115.248 E42.52670
G1 X108.342 Y115.435 E42.55243
G1 X105.989 Y116.494 E42.72486
G1 X105.625 Y116.622 E42.75059
G1 X103.127 Y117.270 E42.92301
G1 X102.747 Y117.335 E42.94875
G1 X100.175 Y117.553 E43.12117
G1 X99.790 Y117.553 E43.14691
G1 X97.218 Y117.335 E43.31933
G1 X96.839 Y117.270 E43.34506
G1 X94.340 Y116.622 E43.51749
G1 X93.977 Y116.494 E43.54322
G1 X91.623 Y115.435 E43.71564
G1 X91.286 Y115.248 E43.74138
G1 X89.145 Y113.808 E43.91380
G1 X88.844 Y113.567 E43.93953
G1 X86.975 Y111.787 E44.11196
G1 X86.720 Y111.499 E44.13769
G1 X85.177 Y109.430 E44.31013
G1 X84.998 Y109.321 E44.32409
G1 X84.628 Y109.262 E44.34909
G1 X84.113 Y109.115 E44.38491
G1 X82.535 Y108.458 E44.49912
G1 X82.067 Y108.195 E44.53494
G1 X80.686 Y107.188 E44.64914
G1 X80.292 Y106.824 E44.68496
G1 X79.184 Y105.523 E44.79917
G1 X78.886 Y105.077 E44.83499
G1 X78.111 Y103.553 E44.94920
G1 X77.926 Y103.050 E44.98502
G1 X77.527 Y101.387 E45.09923
G1 X77.465 Y100.855 E45.13504
G1 X77.465 Y99.145 E45.24925
G1 X77.527 Y98.613 E45.28506
G1 X77.926 Y96.950 E45.39928
G1 X78.111 Y96.447 E45.43509
G1 X78.886 Y94.923 E45.54931
G1 X79.184 Y94.477 E45.58512
G1 X80.292 Y93.176 E45.69933
G1 X80.658 Y92.837 E45.73262
G1 X81.027 Y93.226 F7800.000
G1 X82.357 Y92.256 E45.84262 F1800.000
G1 X82.770 Y92.024 E45.87422
G1 X84.290 Y91.391 E45.98422
G1 X84.745 Y91.262 E46.01583
G1 X85.322 Y91.169 E46.05486
G1 X85.515 Y91.040 E46.07040
G1 X85.620 Y90.872 E46.08363
G1 X87.135 Y88.839 E46.25302
G1 X87.361 Y88.585 E46.27573
G1 X89.197 Y86.836 E46.44512
G1 X89.649 Y86.498 E46.48282
G1 X91.566 Y85.209 E46.63719
G1 X91.864 Y85.044 E46.65990
G1 X94.176 Y84.003 E46.82930
G1 X94.497 Y83.891 E46.85200
G1 X96.951 Y83.254 E47.02140
G1 X97.286 Y83.197 E47.04410
G1 X99.813 Y82.983 E47.21350
G1 X100.377 Y83.002 E47.25120
G1 X102.679 Y83.197 E47.40557 F1800.000
G1 X103.014 Y83.254 E47.42828
G1 X105.469 Y83.891 E47.59768
G1 X105.789 Y84.003 E47.62038
G1 X108.102 Y85.044 E47.78978
G1 X108.399 Y85.209 E47.81248
G1 X110.503 Y86.624 E47.98188
G1 X110.768 Y86.836 E48.00459
G1 X112.605 Y88.585 E48.17398
G1 X112.830 Y88.839 E48.19669
G1 X114.346 Y90.872 E48.36609
G1 X114.442 Y91.027 E48.37827
G1 X114.642 Y91.157 E48.39422
G1 X114.977 Y91.203 E48.41683
G1 X115.407 Y91.312 E48.44645
