; generated by Slic3r 1.2.9 on 2018-11-11 at 11:47:13

; external perimeters extrusion width = 0.30mm
; perimeters extrusion width = 0.40mm
; infill extrusion width = 0.40mm
; solid infill extrusion width = 0.40mm
; top infill extrusion width = 0.40mm

M107
M190 S65 ; set bed temperature
M104 S205 ; set temperature
G28 ; home all axes
G1 Z5 F5000 ; lift nozzle

M109 S205 ; wait for temperature to be reached
G21 ; set units to millimeters
G90 ; use absolute coordinates
M82 ; use absolute distances for extrusion
G92 E0
G1 Z0.300 F7800.000
G1 E-2.00000 F2400.00000
G92 E0
G1 X71.624 Y71.800 F7800.000
G1 E2.00000 F2400.00000
G1 X72.543 Y70.929 E2.08463 F1800.000
G1 X73.165 Y70.401 E2.13914
G1 X74.174 Y69.634 E2.22377
G1 X74.849 Y69.176 E2.27828
G1 X75.935 Y68.523 E2.36292
G1 X76.656 Y68.141 E2.41743
G1 X77.805 Y67.609 E2.50206
G1 X78.563 Y67.307 E2.55657
G1 X79.764 Y66.902 E2.64120
G1 X80.550 Y66.684 E2.69571
G1 X81.787 Y66.412 E2.78034
G1 X82.592 Y66.280 E2.83484
G1 X83.852 Y66.143 E2.91948
G1 X84.667 Y66.099 E2.97399
G1 X115.333 Y66.099 E5.02270
G1 X116.148 Y66.143 E5.07720
G1 X117.408 Y66.280 E5.16185 F1800.000
G1 X118.213 Y66.412 E5.21635
G1 X119.450 Y66.684 E5.30099
G1 X120.236 Y66.902 E5.35550
G1 X121.437 Y67.307 E5.44013
G1 X122.195 Y67.609 E5.49463
G1 X123.345 Y68.141 E5.57927
G1 X124.065 Y68.523 E5.63377
G1 X125.151 Y69.176 E5.71841
G1 X125.852 Y69.654 E5.77509
G1 X126.835 Y70.401 E5.85755
G1 X127.457 Y70.929 E5.91206
G1 X128.376 Y71.800 E5.99669
G1 X128.937 Y72.392 E6.05119
G1 X129.758 Y73.358 E6.13583
G1 X130.251 Y74.008 E6.19033
G1 X130.962 Y75.056 E6.27498
G1 X131.383 Y75.755 E6.32948
G1 X131.976 Y76.875 E6.41412
G1 X132.319 Y77.615 E6.46861
G1 X132.788 Y78.792 E6.55326
G1 X133.048 Y79.565 E6.60777
G1 X133.387 Y80.786 E6.69240
G1 X133.563 Y81.583 E6.74690
G1 X133.768 Y82.833 E6.83154
G1 X133.856 Y83.644 E6.88605
G1 X133.936 Y85.317 E6.99794
G1 X133.925 Y115.091 E8.98697
G1 X133.856 Y116.356 E9.07162
G1 X133.768 Y117.167 E9.12612
G1 X133.563 Y118.417 E9.21076
G1 X133.387 Y119.214 E9.26527
G1 X133.048 Y120.435 E9.34990
G1 X132.788 Y121.208 E9.40441
G1 X132.319 Y122.385 E9.48904
G1 X131.976 Y123.125 E9.54355
G1 X131.383 Y124.245 E9.62818
G1 X130.962 Y124.944 E9.68269
G1 X130.251 Y125.992 E9.76732
G1 X129.758 Y126.642 E9.82183
G1 X128.938 Y127.607 E9.90647
G1 X128.376 Y128.200 E9.96098
G1 X127.457 Y129.071 E10.04561
G1 X126.835 Y129.599 E10.10012
G1 X125.826 Y130.366 E10.18475
G1 X125.151 Y130.824 E10.23926
G1 X124.065 Y131.477 E10.32389
G1 X123.345 Y131.859 E10.37840
G1 X122.195 Y132.391 E10.46303
G1 X121.437 Y132.693 E10.51754
G1 X120.236 Y133.098 E10.60217
G1 X119.450 Y133.316 E10.65668
G1 X118.213 Y133.588 E10.74132
G1 X117.408 Y133.720 E10.79583
G1 X116.148 Y133.857 E10.88046
G1 X115.333 Y133.901 E10.93497
G1 X84.667 Y133.901 E12.98368
G1 X83.852 Y133.857 E13.03819
G1 X82.592 Y133.720 E13.12282
G1 X81.787 Y133.588 E13.17732
G1 X80.550 Y133.316 E13.26196
G1 X79.764 Y133.098 E13.31647
G1 X78.563 Y132.693 E13.40110
G1 X77.805 Y132.391 E13.45561
G1 X76.656 Y131.859 E13.54024
G1 X75.907 Y131.460 E13.59691
G1 X74.849 Y130.824 E13.67938
G1 X74.174 Y130.366 E13.73389
G1 X73.165 Y129.599 E13.81853
G1 X72.543 Y129.071 E13.87303
G1 X71.624 Y128.200 E13.95767
G1 X71.062 Y127.607 E14.01218
G1 X70.242 Y126.642 E14.09681
G1 X69.749 Y125.992 E14.15132
G1 X69.038 Y124.944 E14.23595
G1 X68.602 Y124.216 E14.29263
G1 X68.024 Y123.125 E14.37509
G1 X67.681 Y122.385 E14.42960
G1 X67.212 Y121.208 E14.51423
G1 X66.952 Y120.435 E14.56873
G1 X66.613 Y119.214 E14.65337
G1 X66.437 Y118.417 E14.70788
G1 X66.232 Y117.167 E14.79251
G1 X66.144 Y116.356 E14.84702
G1 X66.064 Y114.683 E14.95891
G1 X66.075 Y84.910 E16.94793
G1 X66.144 Y83.644 E17.03259
G1 X66.232 Y82.833 E17.08710
G1 X66.437 Y81.583 E17.17173
G1 X66.613 Y80.786 E17.22624
G1 X66.952 Y79.565 E17.31087
G1 X67.212 Y78.792 E17.36538
G1 X67.681 Y77.615 E17.45001
G1 X68.024 Y76.875 E17.50452
G1 X68.617 Y75.755 E17.58915
G1 X69.038 Y75.056 E17.64365
G1 X69.749 Y74.008 E17.72829
G1 X70.242 Y73.358 E17.78280
G1 X71.062 Y72.393 E17.86744
G1 X71.593 Y71.833 E17.91894
G1 X72.570 Y72.799 F7800.000
G1 X73.611 Y71.813 E18.01472 F1800.000
G1 X73.865 Y71.597 E18.03702
G1 X75.139 Y70.629 E18.14394
G1 X75.416 Y70.441 E18.16624
G1 X76.787 Y69.616 E18.27316
G1 X77.082 Y69.460 E18.29546
G1 X78.534 Y68.788 E18.40238
G1 X78.844 Y68.664 E18.42468
G1 X80.361 Y68.153 E18.53160
G1 X80.683 Y68.064 E18.55390
G1 X82.246 Y67.720 E18.66082
G1 X82.575 Y67.666 E18.68311
G1 X84.166 Y67.493 E18.79005
G1 X85.215 Y67.475 E18.86011
G1 X85.388 Y67.414 E18.87234
G1 X85.727 Y67.141 E18.90139
G1 X89.917 Y68.064 E19.18804
G1 X90.239 Y68.153 E19.21033
G1 X91.755 Y68.664 E19.31726
G1 X92.065 Y68.788 E19.33954
G1 X93.518 Y69.460 E19.44648
G1 X93.984 Y69.719 E19.48207
G1 X95.184 Y70.441 E19.57569
G1 X95.461 Y70.629 E19.59798
G1 X96.735 Y71.597 E19.70491
G1 X96.989 Y71.813 E19.72720
G1 X98.151 Y72.914 E19.83413
G1 X98.381 Y73.156 E19.85641
G1 X99.417 Y74.376 E19.96335
G1 X99.734 Y74.794 E19.99839
G1 X100.266 Y74.794 E20.03388
G1 X100.583 Y74.376 E20.06893
G1 X101.619 Y73.156 E20.17585
G1 X101.993 Y72.777 E20.21145
G1 X103.011 Y71.813 E20.30506
G1 X103.265 Y71.597 E20.32735
G1 X104.539 Y70.629 E20.43428
G1 X104.816 Y70.441 E20.45658
G1 X106.187 Y69.616 E20.56350
G1 X106.482 Y69.460 E20.58580
G1 X107.934 Y68.788 E20.69272
G1 X108.244 Y68.664 E20.71501
G1 X109.761 Y68.153 E20.82194
G1 X110.083 Y68.064 E20.84424
G1 X111.646 Y67.720 E20.95116
G1 X111.975 Y67.666 E20.97345
G1 X113.566 Y67.493 E21.08038
G1 X114.615 Y67.475 E21.15045
G1 X114.788 Y67.414 E21.16268
G1 X115.127 Y67.141 E21.19173
G1 X117.747 Y67.718 E21.37096
G1 X119.317 Y68.064 E21.47837 F1800.000
G1 X119.639 Y68.153 E21.50067
G1 X121.155 Y68.664 E21.60759
G1 X121.465 Y68.788 E21.62988
G1 X122.918 Y69.460 E21.73682
G1 X123.384 Y69.719 E21.77241
G1 X124.584 Y70.441 E21.86602
G1 X124.861 Y70.629 E21.88832
G1 X126.135 Y71.597 E21.99525
G1 X126.389 Y71.813 E22.01754
G1 X127.551 Y72.914 E22.12446
G1 X127.910 Y73.308 E22.16006
G1 X128.817 Y74.376 E22.25367
G1 X129.019 Y74.642 E22.27596
G1 X129.917 Y75.967 E22.38290
G1 X130.089 Y76.253 E22.40519
G1 X130.839 Y77.667 E22.51211
G1 X130.979 Y77.969 E22.53440
G1 X131.571 Y79.456 E22.64134
G1 X131.678 Y79.773 E22.66364
G1 X132.106 Y81.315 E22.77056
G1 X132.178 Y81.641 E22.79285
G1 X132.437 Y83.220 E22.89979
G1 X132.473 Y83.552 E22.92209
G1 X132.560 Y85.150 E23.02900
G1 X132.560 Y85.484 E23.05129
G1 X132.473 Y87.082 E23.15823
G1 X132.437 Y87.414 E23.18054
G1 X132.178 Y88.993 E23.28745
G1 X132.106 Y89.319 E23.30974
G1 X131.678 Y90.862 E23.41667
G1 X131.571 Y91.178 E23.43897
G1 X130.979 Y92.665 E23.54589
G1 X130.839 Y92.968 E23.56819
G1 X130.089 Y94.382 E23.67511
G1 X129.917 Y94.668 E23.69741
G1 X129.019 Y95.993 E23.80433
G1 X128.817 Y96.258 E23.82663
G1 X127.781 Y97.478 E23.93355
G1 X127.551 Y97.720 E23.95584
G1 X126.389 Y98.821 E24.06277
G1 X126.135 Y99.037 E24.08507
G1 X125.218 Y99.734 E24.16204
G1 X125.218 Y100.266 E24.19753
G1 X126.135 Y100.963 E24.27450
G1 X126.389 Y101.179 E24.29679
G1 X127.551 Y102.280 E24.40372
G1 X127.781 Y102.522 E24.42600
G1 X128.817 Y103.742 E24.53294
G1 X129.019 Y104.007 E24.55523
G1 X129.917 Y105.332 E24.66216
G1 X130.089 Y105.618 E24.68445
G1 X130.839 Y107.032 E24.79138
G1 X130.979 Y107.335 E24.81366
G1 X131.571 Y108.822 E24.92060
G1 X131.678 Y109.138 E24.94290
G1 X132.106 Y110.681 E25.04982
G1 X132.178 Y111.006 E25.07211
G1 X132.437 Y112.586 E25.17905
G1 X132.473 Y112.918 E25.20135
G1 X132.560 Y114.516 E25.30826
G1 X132.560 Y114.850 E25.33055
G1 X132.473 Y116.448 E25.43749
G1 X132.437 Y116.780 E25.45980
G1 X132.178 Y118.359 E25.56671
G1 X132.106 Y118.685 E25.58901
G1 X131.678 Y120.227 E25.69593
G1 X131.571 Y120.544 E25.71824
G1 X130.979 Y122.030 E25.82515
G1 X130.839 Y122.333 E25.84745
G1 X130.089 Y123.747 E25.95437
G1 X129.917 Y124.033 E25.97667
G1 X129.019 Y125.358 E26.08359
G1 X128.817 Y125.624 E26.10589
G1 X127.781 Y126.844 E26.21281
G1 X127.551 Y127.086 E26.23511
G1 X126.389 Y128.187 E26.34204
G1 X126.135 Y128.403 E26.36433
G1 X124.861 Y129.371 E26.47126
G1 X124.584 Y129.559 E26.49356
G1 X123.213 Y130.384 E26.60048
G1 X122.918 Y130.540 E26.62277
G1 X121.466 Y131.212 E26.72970
G1 X121.156 Y131.336 E26.75199
G1 X119.639 Y131.847 E26.85892
G1 X119.317 Y131.936 E26.88122
G1 X117.754 Y132.280 E26.98814
G1 X117.425 Y132.334 E27.01043
G1 X115.834 Y132.507 E27.11736
G1 X115.500 Y132.525 E27.13965
G1 X113.900 Y132.525 E27.24658
G1 X113.566 Y132.507 E27.26888
G1 X111.975 Y132.334 E27.37580
G1 X111.451 Y132.237 E27.41140
G1 X110.083 Y131.936 E27.50501
G1 X109.761 Y131.847 E27.52731
G1 X108.244 Y131.336 E27.63423
G1 X107.934 Y131.212 E27.65653
G1 X106.482 Y130.540 E27.76345
G1 X106.187 Y130.384 E27.78574
G1 X104.816 Y129.559 E27.89267
G1 X104.539 Y129.371 E27.91497
G1 X103.265 Y128.403 E28.02190
G1 X103.011 Y128.187 E28.04419
G1 X101.849 Y127.086 E28.15112
G1 X101.619 Y126.844 E28.17342
G1 X100.583 Y125.624 E28.28034
G1 X100.266 Y125.206 E28.31538
G1 X99.734 Y125.206 E28.35087
G1 X99.417 Y125.624 E28.38591
G1 X98.381 Y126.844 E28.49284
G1 X98.151 Y127.086 E28.51513
G1 X96.989 Y128.187 E28.62206
G1 X96.735 Y128.403 E28.64436
G1 X95.461 Y129.371 E28.75128
G1 X95.184 Y129.559 E28.77358
G1 X93.813 Y130.384 E28.88050
G1 X93.518 Y130.540 E28.90280
G1 X92.066 Y131.212 E29.00972
G1 X91.756 Y131.336 E29.03201
G1 X90.239 Y131.847 E29.13894
G1 X89.917 Y131.936 E29.16124
G1 X88.354 Y132.280 E29.26816
G1 X88.025 Y132.334 E29.29046
G1 X86.434 Y132.507 E29.39738
G1 X86.100 Y132.525 E29.41968
G1 X84.500 Y132.525 E29.52661
G1 X84.166 Y132.507 E29.54891
G1 X82.575 Y132.334 E29.65582
G1 X82.246 Y132.280 E29.67811
G1 X80.683 Y131.936 E29.78505
G1 X80.361 Y131.847 E29.80734
G1 X78.844 Y131.336 E29.91427
G1 X78.534 Y131.212 E29.93657
G1 X77.082 Y130.540 E30.04349
G1 X76.616 Y130.281 E30.07908
G1 X75.416 Y129.559 E30.17270
G1 X75.139 Y129.371 E30.19499
G1 X73.865 Y128.403 E30.30192
G1 X73.611 Y128.187 E30.32421
G1 X72.449 Y127.086 E30.43114
G1 X72.219 Y126.844 E30.45344
G1 X71.183 Y125.624 E30.56036
G1 X70.981 Y125.358 E30.58265
G1 X70.083 Y124.033 E30.68958
G1 X69.911 Y123.748 E30.71187
G1 X69.161 Y122.333 E30.81880
G1 X69.021 Y122.030 E30.84110
G1 X68.429 Y120.544 E30.94802
G1 X68.322 Y120.227 E30.97031
G1 X67.894 Y118.685 E31.07724
G1 X67.822 Y118.359 E31.09954
G1 X67.563 Y116.780 E31.20646
G1 X67.527 Y116.448 E31.22876
G1 X67.440 Y114.850 E31.33568
G1 X67.451 Y114.317 E31.37127
G1 X67.527 Y112.918 E31.46490
G1 X67.563 Y112.586 E31.48720
G1 X67.822 Y111.006 E31.59412
G1 X67.894 Y110.681 E31.61642
G1 X68.322 Y109.138 E31.72334
G1 X68.429 Y108.822 E31.74563
G1 X69.021 Y107.335 E31.85256
G1 X69.161 Y107.032 E31.87486
G1 X69.911 Y105.618 E31.98178
G1 X70.083 Y105.332 E32.00406
G1 X70.981 Y104.007 E32.11100
G1 X71.183 Y103.742 E32.13330
G1 X72.219 Y102.522 E32.24022
G1 X72.449 Y102.280 E32.26252
G1 X73.611 Y101.179 E32.36944
G1 X73.865 Y100.963 E32.39174
G1 X74.782 Y100.266 E32.46871
G1 X74.782 Y99.734 E32.50420
G1 X73.865 Y99.037 E32.58117
G1 X73.611 Y98.821 E32.60346
G1 X72.449 Y97.720 E32.71039
G1 X72.219 Y97.478 E32.73269
G1 X71.183 Y96.258 E32.83961
G1 X70.981 Y95.993 E32.86190
G1 X70.083 Y94.668 E32.96883
G1 X69.911 Y94.382 E32.99112
G1 X69.161 Y92.968 E33.09805
G1 X69.021 Y92.665 E33.12035
G1 X68.429 Y91.178 E33.22727
G1 X68.322 Y90.862 E33.24956
G1 X67.894 Y89.319 E33.35650
G1 X67.822 Y88.993 E33.37879
G1 X67.563 Y87.414 E33.48572
G1 X67.516 Y86.883 E33.52131
G1 X67.440 Y85.484 E33.61492
G1 X67.440 Y85.151 E33.63721
G1 X67.527 Y83.552 E33.74415
G1 X67.563 Y83.220 E33.76645
G1 X67.822 Y81.641 E33.87337
G1 X67.894 Y81.315 E33.89567
G1 X68.322 Y79.773 E34.00259
G1 X68.429 Y79.456 E34.02488
G1 X69.021 Y77.970 E34.13181
G1 X69.161 Y77.667 E34.15411
G1 X69.911 Y76.253 E34.26103
G1 X70.083 Y75.967 E34.28332
G1 X70.981 Y74.642 E34.39025
G1 X71.183 Y74.376 E34.41255
G1 X72.219 Y73.156 E34.51947
G1 X72.537 Y72.830 E34.54990
G1 X72.938 Y73.188 F7800.000
G1 X73.969 Y72.212 E34.64471 F1800.000
G1 X74.201 Y72.015 E34.66507
G1 X75.452 Y71.064 E34.77005
G1 X75.704 Y70.893 E34.79041
G1 X77.051 Y70.083 E34.89540
G1 X77.320 Y69.940 E34.91576
G1 X78.746 Y69.280 E35.02074
G1 X79.029 Y69.167 E35.04110
G1 X80.519 Y68.665 E35.14608
G1 X80.812 Y68.584 E35.16644
G1 X82.347 Y68.246 E35.27143
G1 X82.648 Y68.197 E35.29178
G1 X84.210 Y68.027 E35.39677
G1 X85.404 Y68.010 E35.47653
G1 X85.576 Y67.950 E35.48876
G1 X85.862 Y67.720 E35.51326
G1 X89.788 Y68.584 E35.78179
G1 X90.081 Y68.665 E35.80215
G1 X91.571 Y69.167 E35.90713
G1 X91.854 Y69.280 E35.92748
G1 X93.280 Y69.940 E36.03248
G1 X93.549 Y70.083 E36.05283
G1 X94.896 Y70.893 E36.15782
G1 X95.148 Y71.064 E36.17817
G1 X96.399 Y72.015 E36.28317
G1 X96.631 Y72.212 E36.30352
G1 X97.772 Y73.293 E36.40851
G1 X97.982 Y73.514 E36.42886
G1 X98.999 Y74.712 E36.53385
G1 X99.716 Y75.740 E36.61755
G1 X100.284 Y75.740 E36.65549
G1 X101.001 Y74.712 E36.73920
G1 X102.018 Y73.514 E36.84418
G1 X102.228 Y73.293 E36.86454
G1 X103.369 Y72.212 E36.96953
G1 X103.601 Y72.015 E36.98989
G1 X104.852 Y71.064 E37.09487
G1 X105.104 Y70.893 E37.11523
G1 X106.451 Y70.083 E37.22022
G1 X106.720 Y69.940 E37.24057
G1 X108.146 Y69.280 E37.34556
G1 X108.604 Y69.108 E37.37825
G1 X109.919 Y68.665 E37.47089
G1 X110.212 Y68.584 E37.49125
G1 X111.747 Y68.246 E37.59623
G1 X112.048 Y68.197 E37.61658
G1 X113.610 Y68.027 E37.72158
G1 X114.804 Y68.010 E37.80133
G1 X114.976 Y67.950 E37.81357
G1 X115.262 Y67.720 E37.83806
G1 X119.188 Y68.584 E38.10660 F1800.000
G1 X119.481 Y68.665 E38.12695
G1 X120.971 Y69.167 E38.23194
G1 X121.254 Y69.280 E38.25229
G1 X122.680 Y69.940 E38.35728
G1 X123.108 Y70.178 E38.38997
G1 X124.296 Y70.893 E38.48262
G1 X124.548 Y71.064 E38.50297
G1 X125.799 Y72.015 E38.60796
G1 X126.031 Y72.212 E38.62832
G1 X127.172 Y73.293 E38.73330
G1 X127.382 Y73.514 E38.75365
G1 X128.399 Y74.712 E38.85865
G1 X128.687 Y75.107 E38.89134
G1 X129.466 Y76.255 E38.98398
G1 X129.623 Y76.516 E39.00434
G1 X130.359 Y77.905 E39.10932
G1 X130.487 Y78.181 E39.12967
G1 X131.069 Y79.641 E39.23467
G1 X131.166 Y79.930 E39.25503
G1 X131.586 Y81.444 E39.36001
G1 X131.652 Y81.742 E39.38036
G1 X131.906 Y83.293 E39.48536
G1 X131.939 Y83.596 E39.50573
G1 X132.024 Y85.165 E39.61070
G1 X132.024 Y85.469 E39.63105
G1 X131.939 Y87.039 E39.73605
G1 X131.906 Y87.342 E39.75642
G1 X131.652 Y88.893 E39.86139
G1 X131.586 Y89.190 E39.88175
G1 X131.166 Y90.704 E39.98674
G1 X131.068 Y90.993 E40.00710
G1 X130.487 Y92.453 E40.11208
G1 X130.359 Y92.730 E40.13244
G1 X129.623 Y94.118 E40.23742
G1 X129.466 Y94.379 E40.25778
G1 X128.584 Y95.680 E40.36276
G1 X128.399 Y95.923 E40.38312
G1 X127.382 Y97.120 E40.48811
G1 X127.172 Y97.341 E40.50846
G1 X126.031 Y98.422 E40.61345
G1 X125.799 Y98.620 E40.63381
G1 X124.333 Y99.734 E40.75688
G1 X124.333 Y100.266 E40.79237
G1 X125.799 Y101.381 E40.91544
G1 X126.031 Y101.578 E40.93580
G1 X127.172 Y102.658 E41.04078
G1 X127.501 Y103.021 E41.07347
G1 X128.399 Y104.077 E41.16612
G1 X128.584 Y104.320 E41.18647
G1 X129.466 Y105.621 E41.29146
G1 X129.623 Y105.882 E41.31182
G1 X130.359 Y107.270 E41.41680
G1 X130.555 Y107.719 E41.44949
G1 X131.069 Y109.007 E41.54214
G1 X131.166 Y109.296 E41.56250
G1 X131.586 Y110.810 E41.66748
G1 X131.652 Y111.107 E41.68783
G1 X131.906 Y112.658 E41.79283
G1 X131.939 Y112.961 E41.81319
G1 X132.024 Y114.530 E41.91817
G1 X132.024 Y114.835 E41.93852
G1 X131.939 Y116.405 E42.04352
G1 X131.906 Y116.708 E42.06388
G1 X131.652 Y118.258 E42.16886
G1 X131.586 Y118.556 E42.18922
G1 X131.166 Y120.070 E42.29420
G1 X131.068 Y120.359 E42.31457
G1 X130.487 Y121.819 E42.41955
G1 X130.359 Y122.095 E42.43991
G1 X129.623 Y123.484 E42.54489
G1 X129.466 Y123.745 E42.56525
G1 X128.584 Y125.046 E42.67023
G1 X128.399 Y125.288 E42.69059
G1 X127.382 Y126.486 E42.79558
G1 X127.172 Y126.707 E42.81593
G1 X126.031 Y127.788 E42.92092
G1 X125.799 Y127.985 E42.94128
G1 X124.548 Y128.936 E43.04626
G1 X124.296 Y129.107 E43.06662
G1 X122.949 Y129.917 E43.17161
G1 X122.680 Y130.060 E43.19197
G1 X121.254 Y130.720 E43.29695
G1 X120.971 Y130.833 E43.31731
G1 X119.481 Y131.335 E43.42230
G1 X119.188 Y131.416 E43.44266
