(.../Programs/eagle-7.6.0/ulp/pcb-gcode.ulp)
(Copyright 2005 - 2012 by John Johnson)
(See readme.txt for licensing terms.)
(This file generated from the board:)
(.../arthurdent/eagle/Royer/royer.brd)
(Current profile is .../eagle-7.6.0/ulp/profiles/emc.pp  )
(This file generated 2/10/18 1:49 PM)
(Settings from pcb-machine.h)
(spindle on time = 3.0000)
(spindle speed = 20000.0000)
(tool change at 0.0000 0.0000 25.4000 )
(feed rate xy = F0.00  )
(feed rate z  = F508.00 )
(Z Axis Settings)
(  High     Up        Down     Drill)
(2.5400 	2.5400 	-0.1778 	-0.8128 )
(Settings from pcb-defaults.h)
(isolate min = 0.0254)
(isolate max = 0.5080)
(isolate step = 0.1270)
(Generated bottom outlines, bottom drill, )
(Unit of measure: mm)
( Tool|       Size       |  Min Sub |  Max Sub |   Count )
( T01 | 0.800mm 0.0315in | 0.0000in | 0.0000in |       0 )
( T02 | 0.900mm 0.0354in | 0.0000in | 0.0000in |       0 )
( T03 | 1.016mm 0.0400in | 0.0000in | 0.0000in |       0 )
( T04 | 3.200mm 0.1260in | 0.0000in | 0.0000in |       0 )
( T05 | 3.810mm 0.1500in | 0.0000in | 0.0000in |       0 )
(Metric Mode)
G21
(Absolute Coordinates)
G90
S20000
G00 Z2.5400 
G00 X0.0000 Y0.0000 
M03
G04 P3.000000
M05
G00 Z25.4000 
M06 T01 (0.8000 )
G01 Z0.0000 F508.00 
M06 
G00 Z2.5400 
M03
G04 P3.000000
G82 X11.4300 Y10.7080 Z-0.8128 F508.00 R2.5400 P0.500000
G82 X11.4300 Y15.7080 
G82 X25.1460 Y23.3880 
G82 X25.1460 Y25.8880 
G82 X38.1000 Y15.7080 
G82 X38.1000 Y10.7080 
M05
G00 Z25.4000 
G00 X0.0000 Y0.0000 
M06 T02 (0.9000 )
G01 Z0.0000 F508.00 
M06 
G00 Z2.5400 
M03
G04 P3.000000
G82 X11.4300 Y36.5760 Z-0.8128 F508.00 R2.5400 P0.500000
G82 X21.5900 Y29.4640 
G82 X22.8600 Y30.4800 
G82 X27.4320 Y30.4800 
G82 X28.5750 Y29.4640 
G82 X28.5750 Y22.3520 
G82 X21.5900 Y22.3520 
G82 X38.8620 Y36.5760 
M05
G00 Z25.4000 
G00 X0.0000 Y0.0000 
M06 T03 (1.0160 )
G01 Z0.0000 F508.00 
M06 
G00 Z2.5400 
M03
G04 P3.000000
G82 X11.4300 Y33.5280 Z-0.8128 F508.00 R2.5400 P0.500000
G82 X13.9700 Y33.5280 
G82 X16.5100 Y33.5280 
G82 X17.7800 Y27.1780 
G82 X17.7800 Y24.6380 
G82 X17.7800 Y22.0980 
G82 X31.7500 Y22.0980 
G82 X31.7500 Y24.6380 
G82 X31.7500 Y27.1780 
G82 X33.6550 Y32.8930 
G82 X36.1950 Y32.8930 
G82 X38.7350 Y32.8930 
M05
G00 Z25.4000 
G00 X0.0000 Y0.0000 
M06 T04 (3.2000 )
G01 Z0.0000 F508.00 
M06 
G00 Z2.5400 
M03
G04 P3.000000
G82 X25.1460 Y17.7800 Z-0.8128 F508.00 R2.5400 P0.500000
M05
G00 Z25.4000 
G00 X0.0000 Y0.0000 
M06 T05 (3.8100 )
G01 Z0.0000 F508.00 
M06 
G00 Z2.5400 
M03
G04 P3.000000
G82 X6.3500 Y24.6380 Z-0.8128 F508.00 R2.5400 P0.500000
G82 X24.6380 Y6.3246 
G82 X42.9700 Y24.6380 
T01 
M05
M02
