(Exported by FreeCAD)
(Post Processor: linuxcnc_post)
(Output Time:2018-07-30 13:53:43.235779)
(begin preamble)
G17 G54 G40 G49 G80 G90
G21
(begin operation: T3: 063 End Mill)
(machine: not set, mm/min)
(T3: 063 End Mill)
M6 T3
M3 S24000
(finish operation: T3: 063 End Mill)
(begin operation: Pocket_Shape)
(machine: not set, mm/min)
(Pocket_Shape)
G0 Z5.000
G0 X6.177 Y6.177
G0 Z3.000
G1 X6.177 Y6.177 Z-0.500 F900.000
G2 X0.000 Y-8.725 Z-0.500 I-6.173 J-6.173 F42000.000
G1 X0.000 Y-7.934 Z-0.500 F42000.000
G1 X0.000 Y-8.725 Z-0.500 F42000.000
G1 X-0.392 Y-8.725 Z-0.500 F42000.000
G2 X0.392 Y8.725 Z-0.500 I0.392 J8.725 F42000.000
G2 X6.177 Y6.177 Z-0.500 I-0.387 J-8.721 F42000.000
G0 X6.177 Y6.177 Z5.000
G0 X5.610 Y5.609 Z5.000
G0 X5.610 Y5.609 Z2.500
G1 X5.610 Y5.609 Z-0.500 F900.000
G3 X0.041 Y7.933 Z-0.500 I-5.609 J-5.610 F42000.000
G3 X-7.933 Y0.020 Z-0.500 I-0.042 J-7.933 F42000.000
G3 X0.000 Y-7.934 Z-0.500 I7.933 J-0.021 F42000.000
G3 X5.610 Y5.609 Z-0.500 I0.000 J7.933 F42000.000
G1 X5.610 Y5.609 Z-1.000 F900.000
G3 X0.041 Y7.933 Z-1.000 I-5.609 J-5.610 F42000.000
G3 X-7.933 Y0.020 Z-1.000 I-0.042 J-7.933 F42000.000
G3 X0.000 Y-7.934 Z-1.000 I7.933 J-0.021 F42000.000
G3 X5.610 Y5.609 Z-1.000 I0.000 J7.933 F42000.000
G0 X5.610 Y5.609 Z5.000
G0 X6.177 Y6.177 Z5.000
G0 X6.177 Y6.177 Z2.000
G1 X6.177 Y6.177 Z-1.000 F900.000
G2 X0.000 Y-8.725 Z-1.000 I-6.173 J-6.173 F42000.000
G1 X0.000 Y-7.934 Z-1.000 F42000.000
G1 X0.000 Y-8.725 Z-1.000 F42000.000
G1 X-0.392 Y-8.725 Z-1.000 F42000.000
G2 X0.392 Y8.725 Z-1.000 I0.392 J8.725 F42000.000
G2 X6.177 Y6.177 Z-1.000 I-0.387 J-8.721 F42000.000
G1 X6.177 Y6.177 Z-1.500 F900.000
G2 X0.000 Y-8.725 Z-1.500 I-6.173 J-6.173 F42000.000
G1 X0.000 Y-7.934 Z-1.500 F42000.000
G1 X0.000 Y-8.725 Z-1.500 F42000.000
G1 X-0.392 Y-8.725 Z-1.500 F42000.000
G2 X0.392 Y8.725 Z-1.500 I0.392 J8.725 F42000.000
G2 X6.177 Y6.177 Z-1.500 I-0.387 J-8.721 F42000.000
G0 X6.177 Y6.177 Z5.000
G0 X5.610 Y5.609 Z5.000
G0 X5.610 Y5.609 Z1.500
G1 X5.610 Y5.609 Z-1.500 F900.000
G3 X0.041 Y7.933 Z-1.500 I-5.609 J-5.610 F42000.000
G3 X-7.933 Y0.020 Z-1.500 I-0.042 J-7.933 F42000.000
G3 X0.000 Y-7.934 Z-1.500 I7.933 J-0.021 F42000.000
G3 X5.610 Y5.609 Z-1.500 I0.000 J7.933 F42000.000
G0 Z5.000
(finish operation: Pocket_Shape)
(begin postamble)
M05
G17 G54 G90 G80 G40
M2
