(Exported by FreeCAD)
(Post Processor: linuxcnc_post)
(Output Time:2018-09-29 18:32:01.839027)
(begin preamble)
G17 G54 G40 G49 G80 G90
G21
(begin operation: T1: 063 End Mill)
(machine: not set, mm/min)
(T1: 063 End Mill)
M6 T1
M3 S24000
G4 P10
(finish operation: T1: 063 End Mill)
(begin operation: Pocket_Shape)
(machine: not set, mm/min)
(Pocket_Shape)
G0 Z5.000
G0 X6.177 Y6.177
G0 Z3.000
G1 X6.177 Y6.177 Z-0.500 F36.000
G2 X-0.000 Y-8.725 Z-0.500 I-6.173 J-6.173 F240.000
G1 X-0.000 Y-7.934 Z-0.500 F240.000
G2 X-7.933 Y0.020 Z-0.500 I-0.000 J7.933 F240.000
G2 X0.041 Y7.933 Z-0.500 I7.933 J-0.021 F240.000
G2 X0.000 Y-7.934 Z-0.500 I-0.041 J-7.933 F240.000
G1 X-0.000 Y-8.725 Z-0.500 F240.000
G1 X-0.392 Y-8.725 Z-0.500 F240.000
G2 X0.392 Y8.725 Z-0.500 I0.392 J8.725 F240.000
G2 X6.177 Y6.177 Z-0.500 I-0.387 J-8.721 F240.000
G1 X6.177 Y6.177 Z-1.000 F36.000
G2 X-0.000 Y-8.725 Z-1.000 I-6.173 J-6.173 F240.000
G1 X-0.000 Y-7.934 Z-1.000 F240.000
G2 X-7.933 Y0.020 Z-1.000 I-0.000 J7.933 F240.000
G2 X0.041 Y7.933 Z-1.000 I7.933 J-0.021 F240.000
G2 X0.000 Y-7.934 Z-1.000 I-0.041 J-7.933 F240.000
G1 X-0.000 Y-8.725 Z-1.000 F240.000
G1 X-0.392 Y-8.725 Z-1.000 F240.000
G2 X0.392 Y8.725 Z-1.000 I0.392 J8.725 F240.000
G2 X6.177 Y6.177 Z-1.000 I-0.387 J-8.721 F240.000
G1 X6.177 Y6.177 Z-1.500 F36.000
G2 X-0.000 Y-8.725 Z-1.500 I-6.173 J-6.173 F240.000
G1 X-0.000 Y-7.934 Z-1.500 F240.000
G2 X-7.933 Y0.020 Z-1.500 I-0.000 J7.933 F240.000
G2 X0.041 Y7.933 Z-1.500 I7.933 J-0.021 F240.000
G2 X0.000 Y-7.934 Z-1.500 I-0.041 J-7.933 F240.000
G1 X-0.000 Y-8.725 Z-1.500 F240.000
G1 X-0.392 Y-8.725 Z-1.500 F240.000
G2 X0.392 Y8.725 Z-1.500 I0.392 J8.725 F240.000
G2 X6.177 Y6.177 Z-1.500 I-0.387 J-8.721 F240.000
G0 Z5.000
(finish operation: Pocket_Shape)
(begin postamble)
M05
G17 G54 G90 G80 G40
M2
