; generated by Slic3r 1.2.9 on 2018-11-20 at 22:28:40

; external perimeters extrusion width = 0.30mm
; perimeters extrusion width = 0.40mm
; infill extrusion width = 0.40mm
; solid infill extrusion width = 0.40mm
; top infill extrusion width = 0.40mm

M107
M190 S65 ; set bed temperature
M104 S205 ; set temperature
G28 ; home all axes
G1 Z5 F5000 ; lift nozzle

M109 S205 ; wait for temperature to be reached
G21 ; set units to millimeters
G90 ; use absolute coordinates
M82 ; use absolute distances for extrusion
G92 E0
G1 Z0.300 F7800.000
G1 E-2.00000 F2400.00000
G92 E0
G1 X81.871 Y82.013 F7800.000
G1 E2.00000 F2400.00000
G1 X82.662 Y81.250 E2.07347 F1800.000
G1 X84.682 Y79.569 E2.24902
G1 X85.577 Y78.928 E2.32251
G1 X87.820 Y77.559 E2.49807
G1 X88.798 Y77.056 E2.57156
G1 X91.217 Y76.029 E2.74713
G1 X92.258 Y75.673 E2.82061
G1 X94.801 Y75.009 E2.99616
G1 X95.882 Y74.809 E3.06966
G1 X98.496 Y74.521 E3.24529
G1 X99.594 Y74.481 E3.31871
G1 X102.220 Y74.577 E3.49426
G1 X103.313 Y74.698 E3.56775 F1800.000
G1 X105.898 Y75.175 E3.74331
G1 X106.962 Y75.453 E3.81680
G1 X109.449 Y76.302 E3.99238
G1 X110.461 Y76.732 E4.06585
G1 X112.799 Y77.934 E4.24143
G1 X113.738 Y78.507 E4.31490
G1 X115.865 Y80.029 E4.48968
G1 X116.720 Y80.739 E4.56394
G1 X118.612 Y82.563 E4.73950
G1 X119.346 Y83.383 E4.81299
G1 X120.952 Y85.463 E4.98854
G1 X121.559 Y86.380 E5.06204
G1 X122.846 Y88.672 E5.23765
G1 X123.312 Y89.668 E5.31109
G1 X124.252 Y92.123 E5.48672
G1 X124.568 Y93.176 E5.56013
G1 X125.137 Y95.729 E5.73491
G1 X125.300 Y96.828 E5.80911
G1 X125.492 Y99.450 E5.98474
G1 X125.492 Y100.550 E6.05823
G1 X125.300 Y103.171 E6.23378
G1 X125.137 Y104.270 E6.30802
G1 X124.568 Y106.824 E6.48283
G1 X124.251 Y107.878 E6.55632
G1 X123.312 Y110.332 E6.73188
G1 X122.846 Y111.327 E6.80530
G1 X121.559 Y113.620 E6.98092
G1 X120.952 Y114.537 E7.05442
G1 X119.346 Y116.618 E7.22999
G1 X118.612 Y117.437 E7.30347
G1 X116.720 Y119.261 E7.47904
G1 X115.875 Y119.964 E7.55252
G1 X113.738 Y121.493 E7.72807
G1 X112.799 Y122.066 E7.80156
G1 X110.461 Y123.268 E7.97712
G1 X109.449 Y123.698 E8.05061
G1 X106.962 Y124.547 E8.22617
G1 X105.898 Y124.825 E8.29966
G1 X103.313 Y125.302 E8.47525
G1 X102.220 Y125.423 E8.54871
G1 X99.594 Y125.519 E8.72426
G1 X98.494 Y125.478 E8.79776
G1 X95.882 Y125.191 E8.97331
G1 X94.801 Y124.991 E9.04680
G1 X92.258 Y124.327 E9.22236
G1 X91.217 Y123.971 E9.29585
G1 X88.797 Y122.943 E9.47150
G1 X87.820 Y122.441 E9.54490
G1 X85.577 Y121.071 E9.72047
G1 X84.682 Y120.431 E9.79395
G1 X82.671 Y118.758 E9.96873
G1 X81.870 Y117.987 E10.04299
G1 X80.117 Y116.030 E10.21855
G1 X79.444 Y115.159 E10.29204
G1 X77.994 Y112.967 E10.46760
G1 X77.456 Y112.008 E10.54109
G1 X76.341 Y109.629 E10.71665
G1 X75.948 Y108.601 E10.79014
G1 X75.194 Y106.096 E10.96492
G1 X74.951 Y105.011 E11.03918
G1 X74.569 Y102.411 E11.21474
G1 X74.488 Y101.314 E11.28823
G1 X74.488 Y98.686 E11.46379
G1 X74.569 Y97.589 E11.53728
G1 X74.951 Y94.989 E11.71284
G1 X75.191 Y93.915 E11.78633
G1 X75.944 Y91.410 E11.96111
G1 X76.341 Y90.371 E12.03537
G1 X77.456 Y87.992 E12.21095
G1 X77.994 Y87.033 E12.28442
G1 X79.444 Y84.841 E12.45998
G1 X80.117 Y83.970 E12.53347
G1 X81.841 Y82.046 E12.70605
G1 X82.895 Y82.931 F7800.000
G1 X83.370 Y82.451 E12.75112 F1800.000
G1 X85.735 Y80.482 E12.95674
G1 X86.102 Y80.220 E12.98682
G1 X88.729 Y78.617 E13.19245
G1 X89.129 Y78.411 E13.22253
G1 X91.962 Y77.207 E13.42816
G1 X92.388 Y77.062 E13.45824
G1 X95.366 Y76.283 E13.66385
G1 X95.809 Y76.201 E13.69394
G1 X98.869 Y75.865 E13.89962
G1 X99.319 Y75.848 E13.92967
G1 X102.158 Y75.952 E14.11946
G1 X102.842 Y76.010 E14.16533 F1800.000
G1 X105.869 Y76.569 E14.37095
G1 X106.304 Y76.683 E14.40104
G1 X109.218 Y77.677 E14.60668
G1 X109.632 Y77.853 E14.63675
G1 X112.370 Y79.260 E14.84240
G1 X112.754 Y79.495 E14.87246
G1 X115.065 Y81.148 E15.06228
G1 X115.603 Y81.574 E15.10814
G1 X117.819 Y83.710 E15.31376
G1 X118.120 Y84.045 E15.34384
G1 X120.001 Y86.482 E15.54947
G1 X120.249 Y86.857 E15.57955
G1 X121.756 Y89.542 E15.78522
G1 X121.947 Y89.949 E15.81527
G1 X123.047 Y92.825 E16.02094
G1 X123.176 Y93.255 E16.05099
G1 X123.845 Y96.260 E16.25660
G1 X123.911 Y96.704 E16.28664
G1 X124.136 Y99.775 E16.49233
G1 X124.136 Y100.226 E16.52244
G1 X123.911 Y103.295 E16.72801
G1 X123.845 Y103.740 E16.75807
G1 X123.176 Y106.745 E16.96373
G1 X123.046 Y107.176 E16.99380
G1 X121.947 Y110.050 E17.19938
G1 X121.640 Y110.664 E17.24525
G1 X120.249 Y113.143 E17.43511
G1 X120.001 Y113.518 E17.46519
G1 X118.120 Y115.955 E17.67083
G1 X117.819 Y116.290 E17.70090
G1 X115.603 Y118.426 E17.90654
G1 X115.257 Y118.714 E17.93661
G1 X112.754 Y120.505 E18.14221
G1 X112.370 Y120.740 E18.17231
G1 X109.632 Y122.147 E18.37794
G1 X109.218 Y122.323 E18.40802
G1 X106.305 Y123.317 E18.61361
G1 X105.869 Y123.431 E18.64372
G1 X102.842 Y123.990 E18.84939
G1 X102.394 Y124.039 E18.87945
G1 X99.319 Y124.152 E19.08503
G1 X98.869 Y124.135 E19.11513
G1 X95.809 Y123.799 E19.32078
G1 X95.366 Y123.717 E19.35086
G1 X92.389 Y122.938 E19.55646
G1 X91.962 Y122.793 E19.58656
G1 X89.129 Y121.589 E19.79225
G1 X88.729 Y121.383 E19.82229
G1 X86.101 Y119.780 E20.02792
G1 X85.735 Y119.518 E20.05798
G1 X83.369 Y117.549 E20.26362
G1 X83.045 Y117.236 E20.29369
G1 X80.992 Y114.944 E20.49930
G1 X80.716 Y114.588 E20.52939
G1 X79.018 Y112.021 E20.73500
G1 X78.797 Y111.628 E20.76510
G1 X77.491 Y108.841 E20.97074
G1 X77.330 Y108.420 E21.00081
G1 X76.443 Y105.473 E21.20645
G1 X76.345 Y105.033 E21.23652
G1 X75.897 Y101.988 E21.44215
G1 X75.864 Y101.539 E21.47223
G1 X75.864 Y98.461 E21.67786
G1 X75.897 Y98.012 E21.70794
G1 X76.345 Y94.967 E21.91357
G1 X76.443 Y94.527 E21.94365
G1 X77.262 Y91.806 E22.13347
G1 X77.491 Y91.159 E22.17933
G1 X78.798 Y88.372 E22.38497
G1 X79.018 Y87.979 E22.41504
G1 X80.716 Y85.413 E22.62064
G1 X80.991 Y85.056 E22.65073
G1 X82.865 Y82.965 E22.83835
G1 X83.294 Y83.288 F7800.000
G1 X83.727 Y82.850 E22.87950 F1800.000
G1 X86.063 Y80.906 E23.08251
G1 X86.397 Y80.667 E23.10997
G1 X88.991 Y79.084 E23.31299
G1 X89.357 Y78.896 E23.34045
G1 X92.154 Y77.708 E23.54347
G1 X92.543 Y77.575 E23.57093
G1 X95.483 Y76.806 E23.77393
G1 X95.887 Y76.732 E23.80140
G1 X98.692 Y76.423 E23.98993
G1 X99.319 Y76.384 E24.03187
G1 X102.355 Y76.495 E24.23487 F1800.000
G1 X102.764 Y76.540 E24.26233
G1 X105.752 Y77.092 E24.46534
G1 X106.150 Y77.196 E24.49281
G1 X108.821 Y78.107 E24.68133
G1 X109.405 Y78.338 E24.72327
G1 X112.107 Y79.728 E24.92630
G1 X112.458 Y79.942 E24.95375
G1 X114.930 Y81.710 E25.15676
G1 X115.246 Y81.973 E25.18422
G1 X117.433 Y84.082 E25.38723
G1 X117.708 Y84.388 E25.41469
G1 X119.565 Y86.793 E25.61770
G1 X119.792 Y87.136 E25.64517
G1 X121.279 Y89.787 E25.84822
G1 X121.454 Y90.159 E25.87566
G1 X122.539 Y92.998 E26.07871
G1 X122.658 Y93.391 E26.10614
G1 X123.271 Y96.145 E26.29464
G1 X123.378 Y96.763 E26.33654
G1 X123.600 Y99.795 E26.53961
G1 X123.600 Y100.206 E26.56710
G1 X123.378 Y103.236 E26.77007
G1 X123.318 Y103.643 E26.79752
G1 X122.658 Y106.609 E27.00055
G1 X122.539 Y107.003 E27.02801
G1 X121.454 Y109.841 E27.23098
G1 X121.279 Y110.213 E27.25844
G1 X119.792 Y112.864 E27.46151
G1 X119.565 Y113.206 E27.48897
G1 X117.708 Y115.612 E27.69199
G1 X117.433 Y115.918 E27.71945
G1 X115.246 Y118.027 E27.92247
G1 X114.930 Y118.290 E27.94993
G1 X112.458 Y120.058 E28.15292
G1 X112.107 Y120.272 E28.18039
G1 X109.405 Y121.662 E28.38341
G1 X109.026 Y121.823 E28.41088
G1 X106.151 Y122.804 E28.61385
G1 X105.753 Y122.908 E28.64134
G1 X102.764 Y123.460 E28.84439
G1 X102.355 Y123.505 E28.87184
G1 X99.319 Y123.616 E29.07481
G1 X98.908 Y123.601 E29.10230
G1 X95.887 Y123.268 E29.30532
G1 X95.483 Y123.194 E29.33279
G1 X92.543 Y122.425 E29.53578
G1 X92.154 Y122.292 E29.56326
G1 X89.356 Y121.103 E29.76633
G1 X88.991 Y120.916 E29.79376
G1 X86.397 Y119.333 E29.99677
G1 X86.063 Y119.094 E30.02422
G1 X83.727 Y117.150 E30.22724
G1 X83.431 Y116.864 E30.25470
G1 X81.403 Y114.601 E30.45769
G1 X81.152 Y114.276 E30.48517
G1 X79.475 Y111.742 E30.68817
G1 X79.274 Y111.383 E30.71564
G1 X77.984 Y108.631 E30.91867
G1 X77.837 Y108.247 E30.94613
G1 X76.962 Y105.337 E31.14914
G1 X76.872 Y104.936 E31.17661
G1 X76.430 Y101.929 E31.37962
G1 X76.400 Y101.519 E31.40708
G1 X76.400 Y98.481 E31.61010
G1 X76.430 Y98.071 E31.63756
G1 X76.872 Y95.064 E31.84058
G1 X76.962 Y94.663 E31.86804
G1 X77.775 Y91.961 E32.05655
G1 X77.984 Y91.369 E32.09849
G1 X79.274 Y88.617 E32.30152
G1 X79.475 Y88.259 E32.32897
G1 X81.152 Y85.725 E32.53195
G1 X81.403 Y85.399 E32.55943
G1 X83.264 Y83.322 E32.74574
G1 X83.693 Y83.646 F7800.000
G1 X84.085 Y83.249 E32.78298 F1800.000
G1 X86.391 Y81.331 E32.98337
G1 X86.693 Y81.114 E33.00822
G1 X89.254 Y79.552 E33.20861
G1 X89.584 Y79.382 E33.23346
G1 X92.345 Y78.208 E33.43387
G1 X92.697 Y78.088 E33.45871
G1 X95.599 Y77.330 E33.65909
G1 X95.965 Y77.262 E33.68395
G1 X98.948 Y76.934 E33.88440
G1 X99.319 Y76.920 E33.90922
G1 X102.119 Y77.023 E34.09640
G1 X102.686 Y77.070 E34.13442 F1800.000
G1 X105.636 Y77.615 E34.33482
G1 X105.996 Y77.709 E34.35967
G1 X108.835 Y78.678 E34.56008
G1 X109.177 Y78.823 E34.58492
G1 X111.845 Y80.195 E34.78533
G1 X112.162 Y80.389 E34.81017
G1 X114.441 Y82.019 E34.99737
G1 X114.888 Y82.372 E35.03539
G1 X117.047 Y84.454 E35.23578
G1 X117.296 Y84.731 E35.26063
G1 X119.129 Y87.105 E35.46103
G1 X119.334 Y87.416 E35.48588
G1 X120.803 Y90.032 E35.68631
G1 X120.960 Y90.369 E35.71114
G1 X122.032 Y93.171 E35.91157
G1 X122.139 Y93.527 E35.93639
G1 X122.791 Y96.454 E36.13677
G1 X122.845 Y96.822 E36.16159
G1 X123.064 Y99.814 E36.36203
G1 X123.064 Y100.187 E36.38691
G1 X122.845 Y103.178 E36.58726
G1 X122.791 Y103.545 E36.61210
G1 X122.139 Y106.474 E36.81251
G1 X122.032 Y106.830 E36.83736
G1 X120.960 Y109.631 E37.03772
G1 X120.706 Y110.140 E37.07574
G1 X119.334 Y112.584 E37.26298
G1 X119.129 Y112.895 E37.28783
G1 X117.296 Y115.269 E37.48824
G1 X117.047 Y115.546 E37.51308
G1 X114.888 Y117.628 E37.71348
G1 X114.602 Y117.866 E37.73833
G1 X112.163 Y119.611 E37.93870
G1 X111.845 Y119.805 E37.96356
G1 X109.177 Y121.177 E38.16396
G1 X108.835 Y121.322 E38.18881
G1 X105.996 Y122.290 E38.38918
G1 X105.636 Y122.385 E38.41405
G1 X102.686 Y122.930 E38.61448
G1 X102.316 Y122.970 E38.63931
G1 X99.319 Y123.080 E38.83967
G1 X98.947 Y123.066 E38.86454
G1 X95.965 Y122.738 E39.06495
G1 X95.599 Y122.671 E39.08980
G1 X92.698 Y121.912 E39.29018
G1 X92.345 Y121.792 E39.31504
G1 X89.584 Y120.618 E39.51549
G1 X89.253 Y120.448 E39.54031
G1 X86.693 Y118.886 E39.74070
G1 X86.391 Y118.669 E39.76554
G1 X84.085 Y116.750 E39.96594
G1 X83.817 Y116.492 E39.99079
G1 X81.815 Y114.258 E40.19117
G1 X81.588 Y113.964 E40.21603
G1 X79.933 Y111.462 E40.41641
G1 X79.751 Y111.138 E40.44127
G1 X78.477 Y108.422 E40.64168
G1 X78.345 Y108.074 E40.66653
G1 X77.480 Y105.202 E40.86693
G1 X77.400 Y104.839 E40.89177
G1 X76.963 Y101.871 E41.09217
G1 X76.936 Y101.500 E41.11702
G1 X76.936 Y98.500 E41.31742
G1 X76.963 Y98.129 E41.34227
G1 X77.400 Y95.161 E41.54267
G1 X77.480 Y94.798 E41.56751
G1 X78.288 Y92.115 E41.75472
G1 X78.478 Y91.578 E41.79274
G1 X79.751 Y88.862 E41.99315
G1 X79.933 Y88.538 E42.01799
G1 X81.588 Y86.036 E42.21836
G1 X81.815 Y85.742 E42.24322
G1 X83.663 Y83.679 E42.42822
G1 X84.092 Y84.003 F7800.000
G1 X84.443 Y83.649 E42.46153 F1800.000
G1 X86.718 Y81.755 E42.65931
G1 X86.989 Y81.561 E42.68154
G1 X89.516 Y80.019 E42.87932
G1 X89.812 Y79.867 E42.90156
G1 X92.537 Y78.709 E43.09935
G1 X92.852 Y78.601 E43.12158
G1 X95.716 Y77.853 E43.31934
G1 X96.043 Y77.792 E43.34159
G1 X98.809 Y77.488 E43.52750
G1 X99.319 Y77.456 E43.56160
G1 X102.277 Y77.564 E43.75936 F1800.000
G1 X102.608 Y77.601 E43.78160
G1 X105.519 Y78.138 E43.97938
G1 X105.841 Y78.223 E44.00161
G1 X108.475 Y79.121 E44.18751
G1 X108.950 Y79.309 E44.22161
G1 X111.583 Y80.663 E44.41941
G1 X111.867 Y80.836 E44.44163
G1 X114.275 Y82.558 E44.63941
G1 X114.530 Y82.771 E44.66164
G1 X116.662 Y84.826 E44.85942
G1 X116.884 Y85.074 E44.88165
G1 X118.693 Y87.417 E45.07943
G1 X118.877 Y87.695 E45.10167
G1 X120.326 Y90.277 E45.29948
G1 X120.467 Y90.578 E45.32170
G1 X121.525 Y93.344 E45.51951
G1 X121.620 Y93.662 E45.54172
G1 X122.226 Y96.378 E45.72760
G1 X122.313 Y96.880 E45.76167
G1 X122.529 Y99.834 E45.95950
G1 X122.529 Y100.167 E45.98175
G1 X122.313 Y103.119 E46.17949
G1 X122.264 Y103.448 E46.20172
G1 X121.620 Y106.338 E46.39952
G1 X121.525 Y106.657 E46.42175
G1 X120.467 Y109.422 E46.61949
G1 X120.326 Y109.723 E46.64172
G1 X118.877 Y112.305 E46.83955
G1 X118.693 Y112.583 E46.86178
G1 X116.884 Y114.926 E47.05957
G1 X116.662 Y115.174 E47.08180
G1 X114.530 Y117.229 E47.27958
G1 X114.274 Y117.442 E47.30181
G1 X111.867 Y119.164 E47.49957
G1 X111.583 Y119.338 E47.52182
G1 X108.950 Y120.691 E47.71960
G1 X108.643 Y120.821 E47.74184
G1 X105.842 Y121.777 E47.93959
G1 X105.520 Y121.861 E47.96184
G1 X102.608 Y122.399 E48.15966
G1 X102.277 Y122.436 E48.18188
G1 X99.319 Y122.544 E48.37962
G1 X98.986 Y122.532 E48.40188
G1 X96.043 Y122.208 E48.59967
G1 X95.716 Y122.147 E48.62190
G1 X92.852 Y121.399 E48.81967
G1 X92.537 Y121.291 E48.84191
G1 X89.811 Y120.133 E49.03974
G1 X89.516 Y119.981 E49.06195
G1 X86.989 Y118.439 E49.25973
G1 X86.718 Y118.245 E49.28195
G1 X84.442 Y116.351 E49.47974
G1 X84.203 Y116.120 E49.50197
G1 X82.227 Y113.916 E49.69973
G1 X82.024 Y113.652 E49.72197
G1 X80.390 Y111.183 E49.91975
G1 X80.227 Y110.893 E49.94199
G1 X78.971 Y108.212 E50.13978
G1 X78.852 Y107.901 E50.16201
G1 X77.999 Y105.066 E50.35980
G1 X77.927 Y104.741 E50.38203
G1 X77.496 Y101.812 E50.57981
G1 X77.471 Y101.480 E50.60204
G1 X77.471 Y98.520 E50.79983
G1 X77.496 Y98.188 E50.82206
G1 X77.927 Y95.259 E51.01984
G1 X77.999 Y94.934 E51.04207
G1 X78.801 Y92.269 E51.22797
G1 X78.971 Y91.788 E51.26207
G1 X80.228 Y89.107 E51.45986
G1 X80.390 Y88.817 E51.48209
G1 X82.024 Y86.348 E51.67985
G1 X82.227 Y86.085 E51.70209
G1 X84.062 Y84.037 E51.88578
G1 X84.491 Y84.361 F7800.000
G1 X84.800 Y84.048 E51.91517 F1800.000
G1 X87.046 Y82.179 E52.11034
G1 X87.285 Y82.008 E52.12995
G1 X89.778 Y80.486 E52.32512
G1 X90.039 Y80.352 E52.34474
G1 X92.728 Y79.209 E52.53991
G1 X93.006 Y79.115 E52.55953
G1 X95.832 Y78.376 E52.75468
G1 X96.121 Y78.322 E52.77430
G1 X99.026 Y78.003 E52.96951
G1 X99.319 Y77.992 E52.98910
G1 X102.080 Y78.093 E53.17368
G1 X102.530 Y78.131 E53.20386 F1800.000
G1 X105.403 Y78.662 E53.39902
G1 X105.687 Y78.736 E53.41864
G1 X108.452 Y79.679 E53.61382
G1 X108.722 Y79.794 E53.63343
G1 X111.320 Y81.130 E53.82861
G1 X111.571 Y81.283 E53.84822
G1 X113.818 Y82.891 E54.03280
G1 X114.173 Y83.171 E54.06298
G1 X116.276 Y85.198 E54.25814
G1 X116.472 Y85.417 E54.27776
G1 X118.257 Y87.729 E54.47293
G1 X118.419 Y87.974 E54.49255
G1 X119.849 Y90.522 E54.68774
G1 X119.974 Y90.788 E54.70734
G1 X121.017 Y93.517 E54.90254
G1 X121.102 Y93.798 E54.92213
G1 X121.737 Y96.649 E55.11729
G1 X121.780 Y96.939 E55.13688
G1 X121.993 Y99.853 E55.33208
G1 X121.993 Y100.147 E55.35172
G1 X121.780 Y103.060 E55.54685
G1 X121.737 Y103.351 E55.56646
G1 X121.102 Y106.203 E55.76164
G1 X121.017 Y106.484 E55.78126
G1 X119.974 Y109.212 E55.97640
G1 X119.772 Y109.616 E56.00658
G1 X118.419 Y112.026 E56.19119
G1 X118.257 Y112.271 E56.21081
G1 X116.472 Y114.583 E56.40599
G1 X116.276 Y114.802 E56.42560
G1 X114.173 Y116.830 E56.62077
G1 X113.947 Y117.017 E56.64038
G1 X111.571 Y118.717 E56.83553
G1 X111.320 Y118.870 E56.85516
G1 X108.722 Y120.206 E57.05033
G1 X108.452 Y120.321 E57.06995
G1 X105.687 Y121.264 E57.26509
G1 X105.403 Y121.338 E57.28472
G1 X102.530 Y121.869 E57.47992
G1 X102.238 Y121.901 E57.49952
G1 X99.319 Y122.008 E57.69466
G1 X99.025 Y121.997 E57.71429
G1 X96.121 Y121.678 E57.90947
G1 X95.832 Y121.624 E57.92909
G1 X93.006 Y120.885 E58.12424
G1 X92.728 Y120.791 E58.14387
G1 X90.039 Y119.648 E58.33908
G1 X89.778 Y119.514 E58.35867
G1 X87.284 Y117.992 E58.55383
G1 X87.046 Y117.821 E58.57344
G1 X84.800 Y115.952 E58.76861
G1 X84.589 Y115.748 E58.78823
G1 X82.639 Y113.573 E58.98338
G1 X82.460 Y113.340 E59.00301
G1 X80.848 Y110.904 E59.19816
G1 X80.704 Y110.648 E59.21779
G1 X79.464 Y108.002 E59.41297
G1 X79.359 Y107.728 E59.43258
G1 X78.518 Y104.930 E59.62775
G1 X78.454 Y104.644 E59.64737
G1 X78.028 Y101.754 E59.84253
G1 X78.007 Y101.461 E59.86215
