; generated by Slic3r 1.2.9 on 2018-11-07 at 18:40:26

; external perimeters extrusion width = 0.30mm
; perimeters extrusion width = 0.40mm
; infill extrusion width = 0.40mm
; solid infill extrusion width = 0.40mm
; top infill extrusion width = 0.40mm

M107
M190 S65 ; set bed temperature
M104 S205 ; set temperature
G28 ; home all axes
G1 Z5 F5000 ; lift nozzle

M109 S205 ; wait for temperature to be reached
G21 ; set units to millimeters
G90 ; use absolute coordinates
M82 ; use absolute distances for extrusion
G92 E0
G1 Z0.300 F7800.000
G1 E-2.00000 F2400.00000
G92 E0
G1 X51.672 Y70.639 F7800.000
G1 E2.00000 F2400.00000
G1 X52.923 Y69.872 E2.09804 F1800.000
G1 X54.673 Y68.999 E2.22866
G1 X55.971 Y68.496 E2.32163
G1 X57.924 Y67.940 E2.45734
G1 X59.292 Y67.684 E2.55031
G1 X61.315 Y67.497 E2.68602
G1 X62.011 Y67.464 E2.73255
G1 X137.967 Y67.464 E7.80684
G1 X138.663 Y67.497 E7.85337
G1 X140.686 Y67.684 E7.98908 F1800.000
G1 X142.127 Y67.961 E8.08712
G1 X144.007 Y68.496 E8.21774
G1 X145.305 Y68.999 E8.31071
G1 X147.123 Y69.906 E8.44642
G1 X148.306 Y70.639 E8.53939
G1 X149.999 Y71.919 E8.68122
G1 X157.455 Y77.699 E9.31141
G1 X158.166 Y78.326 E9.37476
G1 X158.641 Y78.801 E9.41965
G1 X159.693 Y80.120 E9.53237
G1 X160.051 Y80.689 E9.57726
G1 X160.783 Y82.210 E9.68999
G1 X161.005 Y82.844 E9.73487
G1 X161.380 Y84.489 E9.84760
G1 X161.455 Y85.156 E9.89248
G1 X161.503 Y86.000 E9.94893
G1 X161.503 Y114.000 E11.81949
G1 X161.455 Y114.844 E11.87594
G1 X161.380 Y115.511 E11.92082
G1 X161.005 Y117.156 E12.03354
G1 X160.783 Y117.790 E12.07843
G1 X160.051 Y119.311 E12.19116
G1 X159.693 Y119.880 E12.23604
G1 X158.641 Y121.199 E12.34877
G1 X158.166 Y121.674 E12.39365
G1 X157.455 Y122.301 E12.45701
G1 X149.999 Y128.081 E13.08720
G1 X148.306 Y129.361 E13.22903
G1 X147.123 Y130.094 E13.32200
G1 X145.305 Y131.001 E13.45771
G1 X144.007 Y131.504 E13.55067
G1 X142.054 Y132.060 E13.68639
G1 X140.686 Y132.316 E13.77936
G1 X138.663 Y132.503 E13.91507
G1 X137.967 Y132.536 E13.96160
G1 X62.011 Y132.536 E19.03589
G1 X61.315 Y132.503 E19.08242
G1 X59.292 Y132.316 E19.21813
G1 X57.924 Y132.060 E19.31110
G1 X55.971 Y131.504 E19.44681
G1 X54.673 Y131.001 E19.53978
G1 X52.855 Y130.094 E19.67549
G1 X51.672 Y129.361 E19.76846
G1 X49.975 Y128.078 E19.91062
G1 X42.401 Y122.198 E20.55117
G1 X41.381 Y121.243 E20.64452
G1 X40.901 Y120.701 E20.69285
G1 X39.870 Y119.206 E20.81421
G1 X39.533 Y118.566 E20.86252
G1 X38.889 Y116.867 E20.98388
G1 X38.716 Y116.165 E21.03220
G1 X38.497 Y114.362 E21.15356
G1 X38.497 Y85.638 E23.07243
G1 X38.716 Y83.835 E23.19378
G1 X38.889 Y83.133 E23.24210
G1 X39.533 Y81.434 E23.36347
G1 X39.870 Y80.794 E23.41178
G1 X40.901 Y79.299 E23.53314
G1 X41.381 Y78.757 E23.58146
G1 X42.401 Y77.802 E23.67482
G1 X49.975 Y71.922 E24.31537
G1 X51.636 Y70.666 E24.45452
G1 X52.502 Y71.736 F7800.000
G1 X52.729 Y71.564 E24.47356 F1800.000
G1 X53.214 Y71.264 E24.51164
G1 X55.542 Y70.104 E24.68543
G1 X56.073 Y69.898 E24.72351
G1 X58.575 Y69.185 E24.89730
G1 X59.136 Y69.081 E24.93538
G1 X61.726 Y68.840 E25.10916
G1 X62.296 Y68.840 E25.14723
G1 X64.886 Y69.081 E25.32103
G1 X65.446 Y69.185 E25.35910
G1 X67.948 Y69.898 E25.53289
G1 X68.480 Y70.104 E25.57097
G1 X70.808 Y71.264 E25.74476
G1 X71.293 Y71.564 E25.78283
G1 X71.581 Y71.782 E25.80696
G1 X73.368 Y73.133 E25.95662
G1 X73.789 Y73.517 E25.99470
G1 X75.540 Y75.441 E26.16849
G1 X75.883 Y75.896 E26.20657
G1 X76.475 Y76.854 E26.28179
G1 X76.650 Y76.979 E26.29616
G1 X77.387 Y77.147 E26.34660
G1 X78.674 Y77.597 E26.43769
G1 X79.297 Y77.898 E26.48392
G1 X80.451 Y78.623 E26.57501
G1 X80.808 Y78.907 E26.60544
G1 X81.162 Y78.919 E26.62910
G1 X82.402 Y78.063 E26.72983
G1 X83.062 Y77.716 E26.77961
G1 X84.435 Y77.196 E26.87771
G1 X85.159 Y77.017 E26.92748
G1 X85.311 Y76.999 E26.93771
G1 X85.516 Y76.867 E26.95402
G1 X86.117 Y75.896 E27.03030
G1 X86.460 Y75.441 E27.06838
G1 X88.211 Y73.517 E27.24217
G1 X88.632 Y73.133 E27.28024
G1 X90.707 Y71.564 E27.45403
G1 X91.192 Y71.264 E27.49211
G1 X93.520 Y70.104 E27.66590
G1 X94.052 Y69.898 E27.70398
G1 X96.554 Y69.185 E27.87777
G1 X97.114 Y69.081 E27.91585
G1 X99.704 Y68.840 E28.08963
G1 X100.274 Y68.840 E28.12770
G1 X102.864 Y69.081 E28.30150
G1 X103.425 Y69.185 E28.33957
G1 X105.927 Y69.898 E28.51336
G1 X106.458 Y70.104 E28.55144
G1 X108.786 Y71.264 E28.72523
G1 X109.271 Y71.564 E28.76330
G1 X109.559 Y71.782 E28.78743
G1 X111.346 Y73.133 E28.93709
G1 X111.767 Y73.517 E28.97517
G1 X113.518 Y75.441 E29.14896
G1 X113.861 Y75.896 E29.18704
G1 X114.454 Y76.854 E29.26226
G1 X114.629 Y76.979 E29.27663
G1 X115.365 Y77.147 E29.32707
G1 X116.652 Y77.597 E29.41817
G1 X117.275 Y77.898 E29.46439
G1 X118.430 Y78.623 E29.55548
G1 X118.786 Y78.907 E29.58591
G1 X119.140 Y78.919 E29.60957
G1 X120.381 Y78.063 E29.71030
G1 X121.040 Y77.716 E29.76008
G1 X122.413 Y77.196 E29.85818
G1 X123.137 Y77.017 E29.90795
G1 X123.289 Y76.999 E29.91818
G1 X123.494 Y76.867 E29.93449
G1 X124.095 Y75.896 E30.01077
G1 X124.438 Y75.441 E30.04885
G1 X126.189 Y73.517 E30.22264
G1 X126.610 Y73.133 E30.26071
G1 X126.898 Y72.915 E30.28484
G1 X128.685 Y71.564 E30.43450
G1 X129.170 Y71.264 E30.47258
G1 X131.498 Y70.104 E30.64637
G1 X132.030 Y69.898 E30.68445
G1 X134.532 Y69.185 E30.85824
G1 X135.092 Y69.081 E30.89632
G1 X137.682 Y68.840 E31.07010
G1 X138.252 Y68.840 E31.10818
G1 X138.612 Y68.874 E31.13230
G1 X140.842 Y69.081 E31.28197 F1800.000
G1 X141.403 Y69.185 E31.32004
G1 X143.905 Y69.898 E31.49384
G1 X144.436 Y70.104 E31.53192
G1 X146.764 Y71.264 E31.70570
G1 X147.249 Y71.564 E31.74378
G1 X149.324 Y73.133 E31.91757
G1 X149.745 Y73.517 E31.95564
G1 X151.496 Y75.441 E32.12943
G1 X151.840 Y75.896 E32.16751
G1 X152.432 Y76.854 E32.24273
G1 X152.607 Y76.979 E32.25710
G1 X153.343 Y77.147 E32.30755
G1 X154.630 Y77.597 E32.39864
G1 X155.253 Y77.898 E32.44486
G1 X156.408 Y78.623 E32.53595
G1 X156.948 Y79.054 E32.58216
G1 X157.913 Y80.019 E32.67326
G1 X158.344 Y80.559 E32.71947
G1 X159.070 Y81.714 E32.81058
G1 X159.370 Y82.338 E32.85681
G1 X159.820 Y83.625 E32.94790
G1 X159.974 Y84.299 E32.99412
G1 X160.127 Y85.654 E33.08521
G1 X160.127 Y86.346 E33.13143
G1 X159.974 Y87.701 E33.22253
G1 X159.820 Y88.375 E33.26874
G1 X159.370 Y89.663 E33.35985
G1 X159.070 Y90.286 E33.40607
G1 X158.344 Y91.441 E33.49716
G1 X157.913 Y91.981 E33.54339
G1 X156.949 Y92.946 E33.63447
G1 X156.408 Y93.377 E33.68069
G1 X155.253 Y94.102 E33.77179
G1 X154.630 Y94.403 E33.81801
G1 X153.343 Y94.853 E33.90910
G1 X152.607 Y95.021 E33.95954
G1 X152.432 Y95.146 E33.97391
G1 X151.840 Y96.104 E34.04913
G1 X151.496 Y96.559 E34.08721
G1 X149.745 Y98.483 E34.26100
G1 X149.324 Y98.867 E34.29907
G1 X148.178 Y99.733 E34.39509
G1 X148.178 Y100.267 E34.43070
G1 X149.324 Y101.133 E34.52671
G1 X149.745 Y101.517 E34.56479
G1 X151.496 Y103.441 E34.73858
G1 X151.840 Y103.896 E34.77666
G1 X152.432 Y104.854 E34.85188
G1 X152.607 Y104.979 E34.86625
G1 X153.343 Y105.147 E34.91669
G1 X154.630 Y105.597 E35.00778
G1 X155.253 Y105.898 E35.05401
G1 X156.408 Y106.623 E35.14509
G1 X156.948 Y107.054 E35.19131
G1 X157.913 Y108.019 E35.28241
G1 X158.344 Y108.559 E35.32862
G1 X159.070 Y109.714 E35.41973
G1 X159.370 Y110.338 E35.46596
G1 X159.820 Y111.625 E35.55705
G1 X159.974 Y112.299 E35.60327
G1 X160.127 Y113.654 E35.69436
G1 X160.127 Y114.346 E35.74058
G1 X159.974 Y115.701 E35.83167
G1 X159.820 Y116.375 E35.87789
G1 X159.370 Y117.663 E35.96899
G1 X159.070 Y118.286 E36.01522
G1 X158.344 Y119.441 E36.10631
G1 X157.913 Y119.981 E36.15253
G1 X156.949 Y120.946 E36.24362
G1 X156.408 Y121.377 E36.28984
G1 X155.253 Y122.102 E36.38094
G1 X154.630 Y122.403 E36.42716
G1 X153.343 Y122.853 E36.51825
G1 X152.607 Y123.021 E36.56868
G1 X152.432 Y123.146 E36.58306
G1 X151.840 Y124.104 E36.65828
G1 X151.496 Y124.559 E36.69636
G1 X149.745 Y126.483 E36.87014
G1 X149.324 Y126.867 E36.90822
G1 X147.249 Y128.436 E37.08201
G1 X146.764 Y128.736 E37.12009
G1 X144.436 Y129.896 E37.29388
G1 X143.905 Y130.102 E37.33195
G1 X141.403 Y130.815 E37.50574
G1 X140.842 Y130.919 E37.54382
G1 X138.252 Y131.160 E37.71761
G1 X137.682 Y131.160 E37.75569
G1 X135.092 Y130.919 E37.92947
G1 X134.532 Y130.815 E37.96755
G1 X132.030 Y130.102 E38.14134
G1 X131.498 Y129.896 E38.17942
G1 X129.170 Y128.736 E38.35321
G1 X128.685 Y128.435 E38.39129
G1 X126.610 Y126.867 E38.56507
G1 X126.189 Y126.483 E38.60315
G1 X124.438 Y124.559 E38.77694
G1 X124.095 Y124.104 E38.81502
G1 X123.494 Y123.133 E38.89130
G1 X123.289 Y123.001 E38.90761
G1 X123.137 Y122.983 E38.91783
G1 X122.413 Y122.804 E38.96762
G1 X121.040 Y122.284 E39.06570
G1 X120.381 Y121.937 E39.11548
G1 X119.140 Y121.081 E39.21622
G1 X118.786 Y121.093 E39.23988
G1 X118.430 Y121.377 E39.27031
G1 X117.275 Y122.102 E39.36141
G1 X116.652 Y122.403 E39.40763
G1 X115.365 Y122.853 E39.49872
G1 X114.629 Y123.021 E39.54915
G1 X114.454 Y123.146 E39.56353
G1 X113.861 Y124.104 E39.63875
G1 X113.518 Y124.559 E39.67683
G1 X111.767 Y126.483 E39.85062
G1 X111.346 Y126.867 E39.88869
G1 X111.058 Y127.085 E39.91282
G1 X109.271 Y128.436 E40.06248
G1 X108.786 Y128.736 E40.10056
G1 X106.458 Y129.896 E40.27435
G1 X105.927 Y130.102 E40.31242
G1 X103.425 Y130.815 E40.48621
G1 X102.864 Y130.919 E40.52429
G1 X100.274 Y131.160 E40.69808
G1 X99.704 Y131.160 E40.73616
G1 X97.114 Y130.919 E40.90995
G1 X96.554 Y130.815 E40.94802
G1 X94.052 Y130.102 E41.12181
G1 X93.520 Y129.896 E41.15989
G1 X91.192 Y128.736 E41.33368
G1 X90.707 Y128.435 E41.37176
G1 X88.632 Y126.867 E41.54554
G1 X88.211 Y126.483 E41.58362
G1 X86.460 Y124.559 E41.75741
G1 X86.117 Y124.104 E41.79549
G1 X85.516 Y123.133 E41.87177
G1 X85.311 Y123.001 E41.88808
G1 X85.159 Y122.983 E41.89830
G1 X84.435 Y122.804 E41.94809
G1 X83.062 Y122.284 E42.04617
G1 X82.403 Y121.937 E42.09595
G1 X81.162 Y121.081 E42.19669
G1 X80.808 Y121.093 E42.22035
G1 X80.451 Y121.377 E42.25078
G1 X79.297 Y122.102 E42.34188
G1 X78.673 Y122.403 E42.38810
G1 X77.386 Y122.853 E42.47919
G1 X76.650 Y123.021 E42.52963
G1 X76.475 Y123.146 E42.54400
G1 X75.883 Y124.104 E42.61922
G1 X75.540 Y124.559 E42.65730
G1 X73.789 Y126.483 E42.83109
G1 X73.368 Y126.867 E42.86916
G1 X73.080 Y127.085 E42.89329
G1 X71.293 Y128.436 E43.04295
G1 X70.808 Y128.736 E43.08103
G1 X68.480 Y129.896 E43.25482
G1 X67.948 Y130.102 E43.29290
G1 X65.446 Y130.815 E43.46668
G1 X64.886 Y130.919 E43.50476
G1 X62.296 Y131.160 E43.67855
G1 X61.726 Y131.160 E43.71663
G1 X59.136 Y130.919 E43.89042
G1 X58.575 Y130.815 E43.92850
G1 X56.073 Y130.102 E44.10228
G1 X55.542 Y129.896 E44.14036
G1 X53.214 Y128.736 E44.31415
G1 X52.729 Y128.435 E44.35223
G1 X50.654 Y126.867 E44.52601
G1 X50.233 Y126.483 E44.56409
G1 X48.482 Y124.559 E44.73788
G1 X48.139 Y124.104 E44.77596
G1 X47.538 Y123.133 E44.85224
G1 X47.332 Y123.001 E44.86855
G1 X47.181 Y122.983 E44.87877
G1 X46.457 Y122.804 E44.92856
G1 X45.084 Y122.284 E45.02664
G1 X44.424 Y121.937 E45.07642
G1 X44.095 Y121.710 E45.10313
G1 X43.216 Y121.103 E45.17452
G1 X42.658 Y120.609 E45.22430
G1 X41.684 Y119.510 E45.32240
G1 X41.261 Y118.897 E45.37219
G1 X40.579 Y117.596 E45.47028
G1 X40.314 Y116.900 E45.52006
G1 X40.219 Y116.512 E45.54676
G1 X39.963 Y115.474 E45.61816
G1 X39.873 Y114.734 E45.66794
G1 X39.873 Y113.266 E45.76604
G1 X39.963 Y112.526 E45.81582
G1 X40.314 Y111.100 E45.91392
G1 X40.579 Y110.404 E45.96370
G1 X41.261 Y109.103 E46.06180
G1 X41.684 Y108.490 E46.11158
G1 X42.658 Y107.391 E46.20968
G1 X43.216 Y106.897 E46.25946
G1 X44.424 Y106.063 E46.35755
G1 X45.084 Y105.716 E46.40733
G1 X46.457 Y105.196 E46.50543
G1 X47.181 Y105.017 E46.55520
G1 X47.332 Y104.999 E46.56543
G1 X47.538 Y104.867 E46.58174
G1 X48.138 Y103.896 E46.65802
G1 X48.482 Y103.441 E46.69610
G1 X50.233 Y101.517 E46.86989
G1 X50.654 Y101.133 E46.90796
G1 X51.801 Y100.267 E47.00398
G1 X51.801 Y99.733 E47.03959
G1 X50.654 Y98.867 E47.13560
G1 X50.233 Y98.483 E47.17368
G1 X48.482 Y96.559 E47.34747
G1 X48.139 Y96.104 E47.38555
G1 X47.538 Y95.133 E47.46183
G1 X47.332 Y95.001 E47.47814
G1 X47.181 Y94.983 E47.48836
G1 X46.457 Y94.804 E47.53815
G1 X45.084 Y94.284 E47.63623
G1 X44.424 Y93.937 E47.68601
G1 X43.216 Y93.103 E47.78411
G1 X42.658 Y92.609 E47.83389
G1 X41.684 Y91.510 E47.93199
G1 X41.261 Y90.897 E47.98178
G1 X40.579 Y89.596 E48.07987
G1 X40.314 Y88.900 E48.12965
G1 X39.963 Y87.474 E48.22775
G1 X39.873 Y86.734 E48.27753
G1 X39.873 Y85.266 E48.37563
G1 X39.963 Y84.526 E48.42541
G1 X40.314 Y83.100 E48.52351
G1 X40.579 Y82.404 E48.57329
G1 X41.261 Y81.103 E48.67139
G1 X41.684 Y80.490 E48.72117
G1 X42.658 Y79.391 E48.81927
G1 X43.216 Y78.897 E48.86905
G1 X44.424 Y78.063 E48.96714
G1 X45.084 Y77.716 E49.01692
G1 X46.457 Y77.196 E49.11502
G1 X47.181 Y77.017 E49.16479
G1 X47.332 Y76.999 E49.17502
G1 X47.538 Y76.867 E49.19133
G1 X48.138 Y75.896 E49.26761
G1 X48.482 Y75.441 E49.30569
G1 X50.233 Y73.517 E49.47948
G1 X50.654 Y73.133 E49.51755
G1 X52.466 Y71.763 E49.66930
G1 X52.825 Y72.164 F7800.000
G1 X53.032 Y72.007 E49.68668 F1800.000
G1 X53.475 Y71.733 E49.72145
G1 X55.759 Y70.594 E49.89193
G1 X56.244 Y70.406 E49.92669
G1 X58.698 Y69.707 E50.09717
G1 X59.210 Y69.612 E50.13194
G1 X61.751 Y69.376 E50.30241
G1 X62.271 Y69.376 E50.33718
G1 X64.812 Y69.612 E50.50766
G1 X65.324 Y69.707 E50.54242
G1 X67.778 Y70.406 E50.71290
G1 X68.263 Y70.594 E50.74767
G1 X70.547 Y71.733 E50.91814
G1 X70.989 Y72.007 E50.95291
G1 X73.025 Y73.546 E51.12339
G1 X73.409 Y73.896 E51.15815
G1 X75.127 Y75.783 E51.32863
G1 X75.441 Y76.199 E51.36340
G1 X76.159 Y77.361 E51.45470
G1 X76.368 Y77.493 E51.47118
G1 X76.622 Y77.522 E51.48828
G1 X77.238 Y77.663 E51.53048
G1 X78.468 Y78.093 E51.61755
G1 X79.037 Y78.367 E51.65976
G1 X80.141 Y79.061 E51.74683
G1 X80.635 Y79.454 E51.78902
G1 X80.775 Y79.595 E51.80227
G1 X81.200 Y79.607 E51.83066
G1 X81.525 Y79.319 E51.85969
G1 X82.680 Y78.522 E51.95345
G1 X83.282 Y78.206 E51.99890
G1 X84.595 Y77.708 E52.09267
G1 X85.255 Y77.545 E52.13812
G1 X85.631 Y77.500 E52.16338
G1 X85.836 Y77.368 E52.17969
G1 X86.559 Y76.199 E52.27152
G1 X86.873 Y75.783 E52.30629
G1 X88.591 Y73.896 E52.47676
G1 X88.975 Y73.546 E52.51153
G1 X91.011 Y72.007 E52.68201
G1 X91.453 Y71.733 E52.71678
G1 X93.737 Y70.594 E52.88725
G1 X94.222 Y70.406 E52.92202
G1 X96.676 Y69.707 E53.09250
G1 X97.188 Y69.612 E53.12727
G1 X99.729 Y69.376 E53.29774
G1 X100.249 Y69.376 E53.33250
G1 X102.790 Y69.612 E53.50298
G1 X103.302 Y69.707 E53.53775
G1 X105.756 Y70.406 E53.70823
G1 X106.241 Y70.594 E53.74300
G1 X108.525 Y71.733 E53.91347
G1 X108.968 Y72.007 E53.94824
G1 X109.236 Y72.210 E53.97071
G1 X111.003 Y73.546 E54.11872
G1 X111.388 Y73.896 E54.15348
G1 X113.106 Y75.783 E54.32396
G1 X113.419 Y76.199 E54.35873
G1 X114.138 Y77.361 E54.45003
G1 X114.346 Y77.493 E54.46650
G1 X114.600 Y77.522 E54.48361
G1 X115.216 Y77.663 E54.52581
G1 X116.446 Y78.093 E54.61288
G1 X117.016 Y78.367 E54.65509
G1 X118.119 Y79.061 E54.74215
G1 X118.613 Y79.454 E54.78435
G1 X118.753 Y79.595 E54.79760
G1 X119.178 Y79.607 E54.82598
G1 X119.503 Y79.319 E54.85501
G1 X120.658 Y78.522 E54.94878
G1 X121.261 Y78.206 E54.99423
G1 X122.573 Y77.708 E55.08800
G1 X123.233 Y77.545 E55.13344
G1 X123.609 Y77.500 E55.15871
G1 X123.815 Y77.368 E55.17502
G1 X124.537 Y76.199 E55.26685
G1 X124.851 Y75.783 E55.30162
G1 X126.569 Y73.896 E55.47209
G1 X126.953 Y73.546 E55.50685
G1 X127.221 Y73.343 E55.52933
G1 X128.989 Y72.007 E55.67734
G1 X129.431 Y71.733 E55.71210
G1 X131.715 Y70.594 E55.88258
G1 X132.200 Y70.406 E55.91735
G1 X134.655 Y69.707 E56.08783
G1 X135.166 Y69.612 E56.12259
G1 X137.707 Y69.376 E56.29307
G1 X138.227 Y69.376 E56.32783
G1 X140.768 Y69.612 E56.49831 F1800.000
G1 X141.280 Y69.707 E56.53308
G1 X143.734 Y70.406 E56.70356
G1 X144.219 Y70.594 E56.73832
G1 X146.503 Y71.733 E56.90880
G1 X146.946 Y72.007 E56.94356
G1 X148.981 Y73.546 E57.11404
G1 X149.366 Y73.896 E57.14881
G1 X151.084 Y75.783 E57.31929
G1 X151.397 Y76.199 E57.35405
G1 X152.116 Y77.361 E57.44536
G1 X152.324 Y77.493 E57.46183
G1 X152.578 Y77.522 E57.47893
G1 X153.194 Y77.663 E57.52114
G1 X154.424 Y78.093 E57.60821
G1 X154.994 Y78.367 E57.65041
G1 X156.097 Y79.061 E57.73748
G1 X156.591 Y79.454 E57.77967
G1 X157.513 Y80.376 E57.86676
G1 X157.907 Y80.870 E57.90895
G1 X158.600 Y81.974 E57.99604
