; generated by Slic3r 1.2.9 on 2018-11-09 at 17:39:21

; external perimeters extrusion width = 0.30mm
; perimeters extrusion width = 0.40mm
; infill extrusion width = 0.40mm
; solid infill extrusion width = 0.40mm
; top infill extrusion width = 0.40mm

M107
M190 S65 ; set bed temperature
M104 S205 ; set temperature
G28 ; home all axes
G1 Z5 F5000 ; lift nozzle

M109 S205 ; wait for temperature to be reached
G21 ; set units to millimeters
G90 ; use absolute coordinates
M82 ; use absolute distances for extrusion
G92 E0
G1 Z0.300 F7800.000
G1 E-2.00000 F2400.00000
G92 E0
G1 X76.146 Y89.777 F7800.000
G1 E2.00000 F2400.00000
G1 X85.811 Y82.207 E2.82016 F1800.000
G1 X86.254 Y81.885 E2.85668
G1 X88.386 Y80.452 E3.02832
G1 X89.498 Y79.834 E3.11335
G1 X91.841 Y78.780 E3.28498
G1 X93.042 Y78.357 E3.37001
G1 X95.529 Y77.712 E3.54164
G1 X96.783 Y77.498 E3.62667
G1 X99.343 Y77.281 E3.79830
G1 X100.671 Y77.286 E3.88698
G1 X103.176 Y77.498 E4.05495 F1800.000
G1 X104.431 Y77.712 E4.13998
G1 X106.918 Y78.357 E4.31161
G1 X108.118 Y78.780 E4.39664
G1 X110.461 Y79.834 E4.56827
G1 X111.574 Y80.452 E4.65329
G1 X113.706 Y81.885 E4.82494
G1 X114.139 Y82.200 E4.86069
G1 X123.545 Y89.544 E5.65790
G1 X124.307 Y90.227 E5.72631
G1 X125.205 Y91.150 E5.81232
G1 X126.224 Y92.458 E5.92311
G1 X126.899 Y93.555 E6.00913
G1 X127.607 Y95.055 E6.11994
G1 X128.025 Y96.273 E6.20595
G1 X128.388 Y97.891 E6.31674
G1 X128.530 Y99.171 E6.40276
G1 X128.530 Y100.829 E6.51356
G1 X128.388 Y102.109 E6.59958
G1 X128.025 Y103.727 E6.71037
G1 X127.607 Y104.945 E6.79639
G1 X126.899 Y106.445 E6.90719
G1 X126.224 Y107.542 E6.99320
G1 X125.205 Y108.850 E7.10400
G1 X124.307 Y109.773 E7.19001
G1 X123.545 Y110.456 E7.25842
G1 X114.139 Y117.800 E8.05563
G1 X113.706 Y118.115 E8.09139
G1 X111.574 Y119.548 E8.26302
G1 X110.461 Y120.166 E8.34804
G1 X108.118 Y121.220 E8.51968
G1 X106.918 Y121.643 E8.60471
G1 X104.431 Y122.288 E8.77634
G1 X103.176 Y122.502 E8.86137
G1 X100.616 Y122.719 E9.03300
G1 X99.289 Y122.714 E9.12169
G1 X96.783 Y122.502 E9.28965
G1 X95.529 Y122.287 E9.37468
G1 X93.042 Y121.643 E9.54631
G1 X91.841 Y121.220 E9.63134
G1 X89.498 Y120.166 E9.80297
G1 X88.386 Y119.548 E9.88800
G1 X86.254 Y118.115 E10.05963
G1 X85.811 Y117.793 E10.09616
G1 X76.146 Y110.223 E10.91632
G1 X75.057 Y109.178 E11.01714
G1 X74.167 Y108.133 E11.10887
G1 X73.186 Y106.661 E11.22702
G1 X72.563 Y105.438 E11.31874
G1 X71.945 Y103.750 E11.43883
G1 X71.632 Y102.443 E11.52860
G1 X71.425 Y100.686 E11.64676
G1 X71.425 Y99.314 E11.73848
G1 X71.632 Y97.557 E11.85661
G1 X71.952 Y96.222 E11.94835
G1 X72.563 Y94.562 E12.06651
G1 X73.186 Y93.338 E12.15823
G1 X74.167 Y91.867 E12.27638
G1 X75.057 Y90.822 E12.36811
G1 X76.114 Y89.808 E12.46592
G1 X76.954 Y90.885 F7800.000
G1 X78.568 Y89.709 E12.59930 F1800.000
G1 X79.200 Y89.354 E12.64777
G1 X81.137 Y88.547 E12.78794
G1 X81.835 Y88.349 E12.83640
G1 X82.001 Y88.322 E12.84763
G1 X82.180 Y88.214 E12.86159
G1 X83.815 Y86.020 E13.04441
G1 X84.161 Y85.630 E13.07922
G1 X86.399 Y83.499 E13.28567
G1 X86.805 Y83.173 E13.32048
G1 X87.067 Y82.997 E13.34156
G1 X89.370 Y81.449 E13.52693
G1 X89.825 Y81.195 E13.56174
G1 X92.643 Y79.927 E13.76819
G1 X93.135 Y79.755 E13.80300
G1 X96.126 Y78.979 E14.00945
G1 X96.640 Y78.891 E14.04426
G1 X99.719 Y78.630 E14.25070
G1 X100.240 Y78.630 E14.28551
G1 X100.555 Y78.657 E14.30659
G1 X103.320 Y78.891 E14.49196 F1800.000
G1 X103.833 Y78.979 E14.52678
G1 X106.825 Y79.755 E14.73322
G1 X107.316 Y79.927 E14.76803
G1 X110.134 Y81.195 E14.97448
G1 X110.590 Y81.449 E15.00929
G1 X113.154 Y83.173 E15.21574
G1 X113.561 Y83.499 E15.25056
G1 X115.799 Y85.630 E15.45700
G1 X116.144 Y86.020 E15.49181
G1 X117.771 Y88.201 E15.67358
G1 X117.924 Y88.304 E15.68591
G1 X118.462 Y88.440 E15.72300
G1 X120.305 Y89.129 E15.85442
G1 X120.912 Y89.436 E15.89984
G1 X122.559 Y90.511 E16.03128
G1 X123.084 Y90.943 E16.07671
G1 X124.456 Y92.353 E16.20814
G1 X124.874 Y92.890 E16.25355
G1 X125.905 Y94.566 E16.38500
G1 X126.195 Y95.180 E16.43043
G1 X126.834 Y97.041 E16.56185
G1 X126.983 Y97.704 E16.60727
G1 X127.199 Y99.660 E16.73872
G1 X127.199 Y100.340 E16.78415
G1 X126.983 Y102.295 E16.91557
G1 X126.834 Y102.959 E16.96100
G1 X126.195 Y104.820 E17.09243
G1 X125.905 Y105.435 E17.13787
G1 X124.874 Y107.110 E17.26928
G1 X124.457 Y107.647 E17.31470
G1 X124.200 Y107.910 E17.33925
G1 X123.084 Y109.057 E17.44614
G1 X122.559 Y109.489 E17.49156
G1 X120.912 Y110.564 E17.62300
G1 X120.305 Y110.871 E17.66843
G1 X118.462 Y111.560 E17.79985
G1 X117.924 Y111.696 E17.83694
G1 X117.771 Y111.799 E17.84927
G1 X116.144 Y113.980 E18.03103
G1 X115.799 Y114.370 E18.06584
G1 X113.561 Y116.501 E18.27229
G1 X113.154 Y116.827 E18.30710
G1 X110.590 Y118.551 E18.51355
G1 X110.134 Y118.805 E18.54836
G1 X107.316 Y120.073 E18.75481
G1 X106.825 Y120.245 E18.78963
G1 X103.833 Y121.021 E18.99607
G1 X103.319 Y121.109 E19.03089
G1 X100.240 Y121.370 E19.23733
G1 X99.719 Y121.370 E19.27214
G1 X96.640 Y121.109 E19.47859
G1 X96.126 Y121.021 E19.51340
G1 X93.135 Y120.245 E19.71985
G1 X92.643 Y120.072 E19.75466
G1 X89.825 Y118.805 E19.96111
G1 X89.370 Y118.551 E19.99592
G1 X86.805 Y116.827 E20.20236
G1 X86.399 Y116.501 E20.23718
G1 X84.161 Y114.370 E20.44362
G1 X83.815 Y113.980 E20.47844
G1 X82.180 Y111.786 E20.66125
G1 X82.001 Y111.678 E20.67521
G1 X81.835 Y111.651 E20.68645
G1 X81.137 Y111.453 E20.73491
G1 X79.200 Y110.646 E20.87509
G1 X78.568 Y110.291 E20.92355
G1 X76.872 Y109.055 E21.06372
G1 X76.340 Y108.562 E21.11218
G1 X74.979 Y106.964 E21.25236
G1 X74.577 Y106.361 E21.30082
G1 X73.625 Y104.491 E21.44099
G1 X73.375 Y103.810 E21.48944
G1 X72.886 Y101.769 E21.62963
G1 X72.801 Y101.049 E21.67809
G1 X72.801 Y98.951 E21.81826
G1 X72.886 Y98.231 E21.86671
G1 X73.375 Y96.190 E22.00690
G1 X73.625 Y95.509 E22.05536
G1 X74.577 Y93.639 E22.19554
G1 X74.979 Y93.035 E22.24400
G1 X76.340 Y91.438 E22.38417
G1 X76.918 Y90.912 E22.43640
G1 X77.270 Y91.318 F7800.000
G1 X78.858 Y90.161 E22.56767 F1800.000
G1 X79.435 Y89.836 E22.61192
G1 X81.314 Y89.054 E22.74788
G1 X81.951 Y88.873 E22.79213
G1 X82.300 Y88.817 E22.81577
G1 X82.479 Y88.708 E22.82973
G1 X84.231 Y86.358 E23.02555
G1 X84.547 Y86.002 E23.05733
G1 X86.752 Y83.902 E23.26075
G1 X87.123 Y83.605 E23.29254
G1 X89.650 Y81.906 E23.49596
G1 X90.066 Y81.675 E23.52775
G1 X92.842 Y80.425 E23.73116
G1 X93.291 Y80.267 E23.76295
G1 X96.239 Y79.503 E23.96637
G1 X96.708 Y79.423 E23.99815
G1 X99.742 Y79.166 E24.20157
G1 X100.218 Y79.166 E24.23335
G1 X103.252 Y79.423 E24.43678 F1800.000
G1 X103.721 Y79.503 E24.46856
G1 X106.668 Y80.267 E24.67198
G1 X107.117 Y80.425 E24.70376
G1 X109.894 Y81.675 E24.90718
G1 X110.310 Y81.906 E24.93897
G1 X112.837 Y83.605 E25.14239
G1 X113.208 Y83.902 E25.17418
G1 X115.413 Y86.002 E25.37759
G1 X115.728 Y86.358 E25.40938
G1 X117.455 Y88.674 E25.60234
G1 X117.608 Y88.776 E25.61467
G1 X118.302 Y88.952 E25.66249
G1 X120.090 Y89.620 E25.78997
G1 X120.644 Y89.900 E25.83144
G1 X122.242 Y90.944 E25.95893
G1 X122.721 Y91.338 E26.00040
G1 X124.052 Y92.706 E26.12788
G1 X124.433 Y93.195 E26.16935
G1 X125.433 Y94.821 E26.29685
G1 X125.698 Y95.382 E26.33832
G1 X126.318 Y97.187 E26.46580
G1 X126.454 Y97.793 E26.50727
G1 X126.664 Y99.690 E26.63476
G1 X126.664 Y100.311 E26.67625
G1 X126.454 Y102.207 E26.80372
G1 X126.318 Y102.813 E26.84520
G1 X125.698 Y104.618 E26.97268
G1 X125.433 Y105.179 E27.01416
G1 X124.433 Y106.805 E27.14163
G1 X124.052 Y107.294 E27.18310
G1 X122.721 Y108.662 E27.31059
G1 X122.242 Y109.056 E27.35206
G1 X120.644 Y110.100 E27.47955
G1 X120.090 Y110.380 E27.52103
G1 X118.302 Y111.048 E27.64850
G1 X117.608 Y111.224 E27.69632
G1 X117.455 Y111.326 E27.70865
G1 X115.728 Y113.642 E27.90161
G1 X115.413 Y113.998 E27.93340
G1 X113.208 Y116.098 E28.13681
G1 X112.837 Y116.395 E28.16860
G1 X110.310 Y118.094 E28.37202
G1 X109.894 Y118.325 E28.40380
G1 X107.117 Y119.575 E28.60722
G1 X106.668 Y119.733 E28.63901
G1 X103.721 Y120.497 E28.84243
G1 X103.252 Y120.577 E28.87422
G1 X100.218 Y120.834 E29.07763
G1 X99.742 Y120.834 E29.10942
G1 X96.708 Y120.577 E29.31284
G1 X96.239 Y120.497 E29.34463
G1 X93.291 Y119.733 E29.54804
G1 X92.842 Y119.575 E29.57983
G1 X90.066 Y118.325 E29.78325
G1 X89.650 Y118.094 E29.81504
G1 X87.123 Y116.395 E30.01845
G1 X86.752 Y116.098 E30.05024
G1 X84.547 Y113.998 E30.25365
G1 X84.231 Y113.642 E30.28544
G1 X82.479 Y111.292 E30.48126
G1 X82.300 Y111.183 E30.49522
G1 X81.951 Y111.127 E30.51887
G1 X81.314 Y110.946 E30.56311
G1 X79.435 Y110.164 E30.69908
G1 X78.858 Y109.839 E30.74332
G1 X77.213 Y108.640 E30.87928
G1 X76.727 Y108.190 E30.92353
G1 X75.407 Y106.641 E31.05949
G1 X75.040 Y106.090 E31.10374
G1 X74.117 Y104.276 E31.23970
G1 X73.888 Y103.655 E31.28394
G1 X73.414 Y101.675 E31.41991
G1 X73.336 Y101.018 E31.46415
G1 X73.336 Y98.982 E31.60012
G1 X73.414 Y98.325 E31.64435
G1 X73.888 Y96.345 E31.78033
G1 X74.117 Y95.724 E31.82457
G1 X75.040 Y93.910 E31.96054
G1 X75.407 Y93.359 E32.00478
G1 X76.727 Y91.810 E32.14074
G1 X77.233 Y91.345 E32.18666
G1 X77.585 Y91.751 F7800.000
G1 X79.148 Y90.612 E32.31583 F1800.000
G1 X79.670 Y90.319 E32.35586
G1 X81.491 Y89.560 E32.48761
G1 X82.067 Y89.397 E32.52765
G1 X82.600 Y89.311 E32.56369
G1 X82.779 Y89.203 E32.57766
G1 X84.647 Y86.697 E32.78647
G1 X84.933 Y86.375 E32.81523
G1 X87.105 Y84.306 E33.01562
G1 X87.440 Y84.036 E33.04438
G1 X89.930 Y82.363 E33.24477
G1 X90.306 Y82.154 E33.27353
G1 X93.042 Y80.923 E33.47392
G1 X93.448 Y80.780 E33.50268
G1 X96.351 Y80.027 E33.70307
G1 X96.776 Y79.955 E33.73183
G1 X99.765 Y79.702 E33.93222
G1 X100.195 Y79.702 E33.96098
G1 X100.464 Y79.724 E33.97903
G1 X103.184 Y79.955 E34.16137 F1800.000
G1 X103.608 Y80.027 E34.19013
G1 X106.512 Y80.780 E34.39052
G1 X106.918 Y80.923 E34.41928
G1 X109.653 Y82.154 E34.61967
G1 X110.030 Y82.363 E34.64843
G1 X112.519 Y84.036 E34.84882
G1 X112.855 Y84.306 E34.87758
G1 X115.027 Y86.375 E35.07797
G1 X115.313 Y86.697 E35.10673
G1 X117.166 Y89.183 E35.31390
G1 X117.351 Y89.292 E35.32827
G1 X117.598 Y89.326 E35.34489
G1 X118.143 Y89.464 E35.38242
G1 X119.874 Y90.112 E35.50595
G1 X120.376 Y90.365 E35.54347
G1 X121.924 Y91.376 E35.66701
G1 X122.358 Y91.733 E35.70453
G1 X123.648 Y93.058 E35.82806
G1 X123.993 Y93.501 E35.86558
G1 X124.961 Y95.076 E35.98913
G1 X125.201 Y95.584 E36.02666
G1 X125.802 Y97.333 E36.15018
G1 X125.925 Y97.881 E36.18770
G1 X126.128 Y99.719 E36.31125
G1 X126.128 Y100.281 E36.34878
G1 X125.925 Y102.119 E36.47230
G1 X125.802 Y102.667 E36.50983
G1 X125.201 Y104.416 E36.63336
G1 X124.961 Y104.924 E36.67090
G1 X123.993 Y106.499 E36.79442
G1 X123.648 Y106.942 E36.83194
G1 X122.358 Y108.267 E36.95548
G1 X121.924 Y108.624 E36.99300
G1 X120.376 Y109.635 E37.11654
G1 X119.874 Y109.888 E37.15406
G1 X118.143 Y110.536 E37.27759
G1 X117.598 Y110.674 E37.31510
G1 X117.351 Y110.708 E37.33174
G1 X117.166 Y110.817 E37.34611
G1 X115.313 Y113.303 E37.55327
G1 X115.027 Y113.625 E37.58203
G1 X112.855 Y115.694 E37.78242
G1 X112.519 Y115.964 E37.81118
G1 X110.030 Y117.637 E38.01157
G1 X109.654 Y117.846 E38.04033
G1 X106.918 Y119.077 E38.24072
G1 X106.512 Y119.220 E38.26949
G1 X103.608 Y119.973 E38.46988
G1 X103.184 Y120.045 E38.49864
G1 X100.195 Y120.298 E38.69902
G1 X99.765 Y120.298 E38.72778
G1 X96.776 Y120.045 E38.92817
G1 X96.351 Y119.973 E38.95693
G1 X93.448 Y119.220 E39.15732
G1 X93.042 Y119.077 E39.18609
G1 X90.306 Y117.846 E39.38647
G1 X89.930 Y117.637 E39.41524
G1 X87.440 Y115.964 E39.61562
G1 X87.105 Y115.694 E39.64438
G1 X84.933 Y113.625 E39.84477
G1 X84.647 Y113.303 E39.87353
G1 X82.779 Y110.797 E40.08235
G1 X82.600 Y110.689 E40.09631
G1 X82.067 Y110.603 E40.13237
G1 X81.491 Y110.440 E40.17240
G1 X79.670 Y109.681 E40.30415
G1 X79.148 Y109.388 E40.34418
G1 X77.554 Y108.226 E40.47593
G1 X77.114 Y107.819 E40.51596
G1 X76.901 Y107.568 E40.53793
G1 X75.835 Y106.318 E40.64771
G1 X75.503 Y105.819 E40.68774
G1 X74.609 Y104.061 E40.81949
G1 X74.402 Y103.499 E40.85952
G1 X73.942 Y101.581 E40.99128
G1 X73.872 Y100.986 E41.03130
G1 X73.872 Y99.014 E41.16305
G1 X73.942 Y98.419 E41.20308
G1 X74.402 Y96.501 E41.33484
G1 X74.609 Y95.939 E41.37487
G1 X75.503 Y94.181 E41.50662
G1 X75.835 Y93.682 E41.54665
G1 X77.114 Y92.181 E41.67840
G1 X77.549 Y91.778 E41.71801
G1 X77.901 Y92.184 F7800.000
G1 X79.438 Y91.064 E41.84507 F1800.000
G1 X79.905 Y90.801 E41.88089
G1 X81.667 Y90.067 E42.00842
G1 X82.183 Y89.920 E42.04425
G1 X82.937 Y89.799 E42.09528
G1 X83.131 Y89.670 E42.11082
G1 X83.297 Y89.403 E42.13181
G1 X85.063 Y87.035 E42.32917
G1 X85.318 Y86.747 E42.35490
G1 X87.458 Y84.709 E42.55226
G1 X87.758 Y84.468 E42.57800
G1 X90.210 Y82.820 E42.77536
G1 X90.546 Y82.633 E42.80109
G1 X93.241 Y81.421 E42.99845
G1 X93.604 Y81.293 E43.02419
G1 X96.464 Y80.552 E43.22155
G1 X96.843 Y80.487 E43.24728
G1 X99.787 Y80.237 E43.44464
G1 X100.172 Y80.237 E43.47037
G1 X103.116 Y80.487 E43.66774 F1800.000
G1 X103.496 Y80.552 E43.69347
G1 X106.356 Y81.293 E43.89083
G1 X106.719 Y81.421 E43.91656
G1 X109.413 Y82.633 E44.11393
G1 X109.750 Y82.820 E44.13966
G1 X112.202 Y84.468 E44.33702
G1 X112.502 Y84.709 E44.36276
G1 X114.641 Y86.747 E44.56012
G1 X114.897 Y87.035 E44.58585
G1 X116.663 Y89.403 E44.78321
G1 X116.820 Y89.657 E44.80317
G1 X117.021 Y89.787 E44.81912
G1 X117.495 Y89.853 E44.85114
G1 X117.983 Y89.976 E44.88471
G1 X119.659 Y90.603 E45.00429
G1 X120.108 Y90.830 E45.03786
G1 X121.607 Y91.808 E45.15745
G1 X121.995 Y92.128 E45.19103
G1 X123.243 Y93.410 E45.31061
G1 X123.552 Y93.807 E45.34418
G1 X124.490 Y95.332 E45.46377
G1 X124.704 Y95.786 E45.49735
G1 X125.286 Y97.479 E45.61693
G1 X125.396 Y97.969 E45.65050
G1 X125.593 Y99.749 E45.77009
G1 X125.593 Y100.251 E45.80367
G1 X125.396 Y102.031 E45.92325
G1 X125.286 Y102.521 E45.95683
G1 X124.704 Y104.214 E46.07641
G1 X124.490 Y104.668 E46.10999
G1 X123.552 Y106.193 E46.22957
G1 X123.243 Y106.590 E46.26314
G1 X121.995 Y107.872 E46.38273
G1 X121.607 Y108.192 E46.41630
G1 X120.108 Y109.170 E46.53589
G1 X119.659 Y109.397 E46.56946
G1 X117.983 Y110.024 E46.68904
G1 X117.496 Y110.147 E46.72260
G1 X117.021 Y110.213 E46.75463
G1 X116.820 Y110.343 E46.77059
G1 X116.663 Y110.596 E46.79053
G1 X114.897 Y112.965 E46.98790
G1 X114.641 Y113.253 E47.01363
G1 X112.502 Y115.291 E47.21100
G1 X112.202 Y115.532 E47.23673
G1 X109.750 Y117.180 E47.43409
G1 X109.413 Y117.367 E47.45982
G1 X106.719 Y118.579 E47.65719
G1 X106.356 Y118.707 E47.68292
G1 X103.496 Y119.448 E47.88028
G1 X103.116 Y119.513 E47.90602
G1 X100.172 Y119.763 E48.10338
G1 X99.787 Y119.763 E48.12911
G1 X96.843 Y119.513 E48.32647
G1 X96.464 Y119.448 E48.35220
G1 X93.604 Y118.707 E48.54957
G1 X93.241 Y118.579 E48.57530
G1 X90.546 Y117.367 E48.77266
G1 X90.210 Y117.180 E48.79840
G1 X87.758 Y115.532 E48.99576
G1 X87.458 Y115.291 E49.02149
G1 X85.318 Y113.253 E49.21885
G1 X85.063 Y112.965 E49.24458
G1 X83.297 Y110.596 E49.44195
G1 X83.131 Y110.330 E49.46294
G1 X82.937 Y110.201 E49.47848
G1 X82.183 Y110.080 E49.52951
G1 X81.667 Y109.933 E49.56533
G1 X79.905 Y109.199 E49.69287
G1 X79.438 Y108.936 E49.72869
G1 X77.895 Y107.812 E49.85622
G1 X77.502 Y107.447 E49.89204
G1 X77.309 Y107.221 E49.91190
G1 X76.263 Y105.994 E50.01958
G1 X75.966 Y105.548 E50.05539
G1 X75.101 Y103.847 E50.18293
G1 X74.915 Y103.344 E50.21874
G1 X74.470 Y101.487 E50.34629
G1 X74.407 Y100.955 E50.38210
G1 X74.407 Y99.045 E50.50964
G1 X74.470 Y98.513 E50.54545
G1 X74.915 Y96.656 E50.67299
G1 X75.101 Y96.153 E50.70881
G1 X75.966 Y94.452 E50.83635
G1 X76.263 Y94.006 E50.87217
G1 X77.502 Y92.553 E50.99970
G1 X77.867 Y92.214 E51.03299
G1 X78.236 Y92.602 F7800.000
G1 X79.728 Y91.515 E51.15632 F1800.000
G1 X80.140 Y91.283 E51.18793
G1 X81.844 Y90.574 E51.31125
G1 X82.299 Y90.444 E51.34286
G1 X83.281 Y90.286 E51.40928
G1 X83.488 Y90.136 E51.42641
G1 X83.740 Y89.705 E51.45970
G1 X85.479 Y87.373 E51.65403
G1 X85.704 Y87.119 E51.67673
G1 X87.811 Y85.113 E51.87107
G1 X88.076 Y84.900 E51.89377
G1 X90.490 Y83.277 E52.08811
G1 X90.787 Y83.112 E52.11081
G1 X93.440 Y81.919 E52.30515
G1 X93.760 Y81.806 E52.32785
G1 X96.576 Y81.076 E52.52219
G1 X96.911 Y81.019 E52.54490
G1 X99.810 Y80.773 E52.73923
G1 X100.374 Y80.792 E52.77692
G1 X103.048 Y81.019 E52.95624 F1800.000
G1 X103.383 Y81.076 E52.97894
