; generated by Slic3r 1.2.9 on 2018-11-18 at 19:47:53

; external perimeters extrusion width = 0.30mm
; perimeters extrusion width = 0.40mm
; infill extrusion width = 0.40mm
; solid infill extrusion width = 0.40mm
; top infill extrusion width = 0.40mm

M107
M190 S65 ; set bed temperature
M104 S205 ; set temperature
G28 ; home all axes
G1 Z5 F5000 ; lift nozzle

M109 S205 ; wait for temperature to be reached
G21 ; set units to millimeters
G90 ; use absolute coordinates
M82 ; use absolute distances for extrusion
G92 E0
G1 Z0.300 F7800.000
G1 E-2.00000 F2400.00000
G92 E0
G1 X75.118 Y85.821 F7800.000
G1 E2.00000 F2400.00000
G1 X76.146 Y85.061 E2.08537 F1800.000
G1 X77.677 Y84.118 E2.20548
G1 X78.818 Y83.543 E2.29087
G1 X80.486 Y82.872 E2.41097
G1 X81.708 Y82.498 E2.49636
G1 X83.466 Y82.119 E2.61647
G1 X84.734 Y81.957 E2.70185
G1 X86.850 Y81.874 E2.84333
G1 X114.012 Y81.874 E4.65789
G1 X114.969 Y81.935 E4.72196
G1 X116.752 Y82.163 E4.84207 F1800.000
G1 X118.002 Y82.433 E4.92745
G1 X119.721 Y82.959 E5.04756
G1 X120.907 Y83.436 E5.13295
G1 X122.512 Y84.245 E5.25306
G1 X123.600 Y84.915 E5.33844
G1 X125.046 Y85.984 E5.45855
G1 X126.005 Y86.829 E5.54394
G1 X127.249 Y88.127 E5.66405
G1 X128.052 Y89.121 E5.74943
G1 X129.059 Y90.611 E5.86954
G1 X129.682 Y91.727 E5.95493
G1 X130.423 Y93.365 E6.07504
G1 X130.849 Y94.570 E6.16042
G1 X131.291 Y96.266 E6.27753
G1 X131.518 Y97.570 E6.36590
G1 X131.670 Y99.361 E6.48601
G1 X131.670 Y100.639 E6.57140
G1 X131.518 Y102.431 E6.69152
G1 X131.302 Y103.690 E6.77689
G1 X130.849 Y105.430 E6.89700
G1 X130.423 Y106.635 E6.98239
G1 X129.682 Y108.273 E7.10250
G1 X129.059 Y109.389 E7.18788
G1 X128.052 Y110.879 E7.30800
G1 X127.249 Y111.873 E7.39338
G1 X126.005 Y113.171 E7.51349
G1 X125.046 Y114.016 E7.59887
G1 X123.600 Y115.085 E7.71898
G1 X122.512 Y115.755 E7.80437
G1 X120.907 Y116.564 E7.92447
G1 X119.721 Y117.041 E8.00986
G1 X118.002 Y117.567 E8.12997
G1 X116.752 Y117.837 E8.21535
G1 X114.969 Y118.065 E8.33546
G1 X114.012 Y118.126 E8.39954
G1 X86.850 Y118.126 E10.21409
G1 X84.734 Y118.043 E10.35557
G1 X83.466 Y117.881 E10.44095
G1 X81.708 Y117.502 E10.56106
G1 X80.486 Y117.128 E10.64645
G1 X78.818 Y116.457 E10.76656
G1 X77.677 Y115.882 E10.85194
G1 X76.146 Y114.939 E10.97205
G1 X75.118 Y114.179 E11.05744
G1 X73.769 Y112.991 E11.17756
G1 X72.884 Y112.069 E11.26293
G1 X71.755 Y110.670 E11.38304
G1 X71.039 Y109.611 E11.46843
G1 X70.162 Y108.041 E11.58855
G1 X69.636 Y106.877 E11.67392
G1 X69.037 Y105.181 E11.79404
G1 X68.715 Y103.944 E11.87942
G1 X68.419 Y102.217 E11.99652
G1 X68.303 Y100.899 E12.08490
G1 X68.303 Y99.101 E12.20501
G1 X68.411 Y97.828 E12.29039
G1 X68.707 Y96.100 E12.40750
G1 X69.037 Y94.819 E12.49588
G1 X69.636 Y93.123 E12.61600
G1 X70.162 Y91.959 E12.70137
G1 X71.039 Y90.389 E12.82148
G1 X71.755 Y89.330 E12.90687
G1 X72.884 Y87.931 E13.02698
G1 X73.769 Y87.009 E13.11236
G1 X75.085 Y85.850 E13.22948
G1 X76.028 Y86.854 F7800.000
G1 X76.224 Y86.681 E13.24696 F1800.000
G1 X76.645 Y86.370 E13.28191
G1 X78.621 Y85.153 E13.43697
G1 X79.088 Y84.917 E13.47194
G1 X83.925 Y82.974 E13.82014
G1 X84.399 Y83.295 E13.85842
G1 X84.565 Y83.341 E13.86991
G1 X86.850 Y83.244 E14.02270
G1 X87.373 Y83.267 E14.05765
G1 X89.675 Y83.561 E14.21272
G1 X90.187 Y83.672 E14.24768
G1 X92.406 Y84.351 E14.40275
G1 X92.892 Y84.546 E14.43771
G1 X94.964 Y85.591 E14.59277
G1 X95.410 Y85.866 E14.62774
G1 X97.276 Y87.246 E14.78280
G1 X97.669 Y87.592 E14.81777
G1 X99.275 Y89.268 E14.97284
G1 X99.749 Y89.855 E15.02327
G1 X100.261 Y89.855 E15.05747
G1 X101.281 Y88.592 E15.16590
G1 X101.643 Y88.214 E15.20086
G1 X103.386 Y86.681 E15.35594
G1 X103.806 Y86.370 E15.39090
G1 X105.783 Y85.153 E15.54596
G1 X106.250 Y84.917 E15.58092
G1 X111.087 Y82.974 E15.92912
G1 X111.561 Y83.295 E15.96740
G1 X111.727 Y83.341 E15.97889 F1800.000
G1 X114.012 Y83.244 E16.13168
G1 X114.535 Y83.267 E16.16664
G1 X116.837 Y83.561 E16.32170
G1 X117.349 Y83.672 E16.35667
G1 X119.568 Y84.351 E16.51174
G1 X120.054 Y84.546 E16.54669
G1 X122.126 Y85.591 E16.70176
G1 X122.572 Y85.866 E16.73672
G1 X124.438 Y87.246 E16.89179
G1 X124.831 Y87.592 E16.92675
G1 X126.437 Y89.268 E17.08183
G1 X126.766 Y89.675 E17.11678
G1 X128.066 Y91.598 E17.27185
G1 X128.321 Y92.055 E17.30681
G1 X129.277 Y94.170 E17.46188
G1 X129.451 Y94.663 E17.49684
G1 X130.036 Y96.910 E17.65191
G1 X130.125 Y97.426 E17.68687
G1 X130.321 Y99.738 E17.84193
G1 X130.321 Y100.262 E17.87690
G1 X130.125 Y102.575 E18.03197
G1 X130.036 Y103.090 E18.06693
G1 X129.529 Y105.040 E18.20151
G1 X129.451 Y105.337 E18.22200
G1 X129.277 Y105.830 E18.25696
G1 X128.321 Y107.945 E18.41202
G1 X128.066 Y108.402 E18.44698
G1 X126.766 Y110.325 E18.60206
G1 X126.437 Y110.732 E18.63701
G1 X124.831 Y112.408 E18.79208
G1 X124.438 Y112.754 E18.82704
G1 X122.572 Y114.134 E18.98210
G1 X122.126 Y114.408 E19.01707
G1 X120.054 Y115.453 E19.17214
G1 X119.568 Y115.649 E19.20710
G1 X117.349 Y116.328 E19.36217
G1 X116.837 Y116.439 E19.39713
G1 X114.535 Y116.733 E19.55219
G1 X114.012 Y116.756 E19.58716
G1 X111.693 Y116.657 E19.74222
G1 X111.174 Y116.591 E19.77719
G1 X108.904 Y116.102 E19.93226
G1 X108.404 Y115.948 E19.96722
G1 X106.250 Y115.083 E20.12228
G1 X105.783 Y114.847 E20.15724
G1 X103.806 Y113.630 E20.31231
G1 X103.386 Y113.319 E20.34727
G1 X101.643 Y111.785 E20.50235
G1 X101.281 Y111.408 E20.53731
G1 X100.261 Y110.145 E20.64574
G1 X99.750 Y110.145 E20.67993
G1 X99.275 Y110.732 E20.73037
G1 X97.669 Y112.408 E20.88544
G1 X97.276 Y112.754 E20.92040
G1 X95.410 Y114.134 E21.07546
G1 X94.964 Y114.408 E21.11043
G1 X92.892 Y115.453 E21.26550
G1 X92.406 Y115.649 E21.30046
G1 X90.187 Y116.328 E21.45552
G1 X89.675 Y116.439 E21.49049
G1 X87.373 Y116.733 E21.64555
G1 X86.850 Y116.756 E21.68051
G1 X84.531 Y116.657 E21.83558
G1 X84.012 Y116.591 E21.87054
G1 X81.743 Y116.102 E22.02561
G1 X81.242 Y115.948 E22.06057
G1 X79.089 Y115.083 E22.21563
G1 X78.621 Y114.847 E22.25060
G1 X76.645 Y113.630 E22.40567
G1 X76.224 Y113.319 E22.44063
G1 X74.481 Y111.785 E22.59571
G1 X74.119 Y111.408 E22.63066
G1 X72.661 Y109.602 E22.78573
G1 X72.368 Y109.168 E22.82069
G1 X71.236 Y107.142 E22.97577
G1 X71.020 Y106.665 E23.01072
G1 X70.247 Y104.476 E23.16579
G1 X70.115 Y103.970 E23.20075
G1 X69.775 Y101.984 E23.33533
G1 X69.723 Y101.682 E23.35582
G1 X69.679 Y101.161 E23.39078
G1 X69.679 Y98.839 E23.54585
G1 X69.723 Y98.318 E23.58081
G1 X70.063 Y96.332 E23.71539
G1 X70.115 Y96.030 E23.73588
G1 X70.247 Y95.524 E23.77084
G1 X71.020 Y93.335 E23.92591
G1 X71.236 Y92.858 E23.96087
G1 X72.368 Y90.832 E24.11593
G1 X72.661 Y90.398 E24.15089
G1 X74.119 Y88.592 E24.30596
G1 X74.481 Y88.214 E24.34092
G1 X75.994 Y86.883 E24.47552
G1 X76.381 Y87.256 F7800.000
G1 X76.561 Y87.098 E24.49147 F1800.000
G1 X76.945 Y86.814 E24.52339
G1 X78.883 Y85.621 E24.67541
G1 X79.309 Y85.406 E24.70733
G1 X83.860 Y83.577 E25.03501
G1 X84.261 Y83.848 E25.06735
G1 X84.452 Y83.893 E25.08040
G1 X86.850 Y83.780 E25.24080
G1 X87.327 Y83.801 E25.27272
G1 X89.585 Y84.090 E25.42474
G1 X90.052 Y84.190 E25.45666
G1 X92.228 Y84.857 E25.60869
G1 X92.671 Y85.035 E25.64061
G1 X94.703 Y86.060 E25.79264
G1 X95.110 Y86.310 E25.82456
G1 X96.939 Y87.663 E25.97659
G1 X97.298 Y87.979 E26.00851
G1 X98.873 Y89.622 E26.16054
G1 X99.173 Y89.994 E26.19246
G1 X99.677 Y90.740 E26.25263
G1 X100.217 Y90.763 E26.28871
G1 X101.683 Y88.946 E26.44467
G1 X102.014 Y88.602 E26.47659
G1 X103.723 Y87.098 E26.62863
G1 X104.107 Y86.814 E26.66054
G1 X106.044 Y85.621 E26.81257
G1 X106.471 Y85.406 E26.84449
G1 X111.022 Y83.577 E27.17217
G1 X111.423 Y83.848 E27.20450 F1800.000
G1 X111.613 Y83.893 E27.21755
G1 X114.012 Y83.780 E27.37795
G1 X114.489 Y83.801 E27.40987
G1 X116.746 Y84.090 E27.56190
G1 X117.213 Y84.190 E27.59382
G1 X119.389 Y84.857 E27.74585
G1 X119.833 Y85.035 E27.77777
G1 X121.865 Y86.060 E27.92979
G1 X122.272 Y86.310 E27.96172
G1 X124.101 Y87.663 E28.11374
G1 X124.460 Y87.979 E28.14566
G1 X126.035 Y89.622 E28.29770
G1 X126.335 Y89.994 E28.32962
G1 X127.609 Y91.879 E28.48164
G1 X127.842 Y92.296 E28.51356
G1 X128.779 Y94.370 E28.66559
G1 X128.939 Y94.820 E28.69751
G1 X129.512 Y97.023 E28.84954
G1 X129.593 Y97.494 E28.88146
G1 X129.786 Y99.761 E29.03348
G1 X129.786 Y100.239 E29.06541
G1 X129.593 Y102.507 E29.21745
G1 X129.512 Y102.977 E29.24936
G1 X128.939 Y105.180 E29.40139
G1 X128.779 Y105.630 E29.43331
G1 X127.842 Y107.704 E29.58534
G1 X127.609 Y108.121 E29.61726
G1 X126.494 Y109.771 E29.75032
G1 X126.335 Y110.006 E29.76929
G1 X126.035 Y110.378 E29.80121
G1 X124.460 Y112.021 E29.95323
G1 X124.101 Y112.337 E29.98515
G1 X122.272 Y113.690 E30.13718
G1 X121.865 Y113.940 E30.16910
G1 X119.833 Y114.965 E30.32113
G1 X119.389 Y115.143 E30.35305
G1 X117.213 Y115.810 E30.50508
G1 X116.746 Y115.910 E30.53700
G1 X114.489 Y116.199 E30.68903
G1 X114.012 Y116.220 E30.72095
G1 X111.738 Y116.123 E30.87298
G1 X111.264 Y116.062 E30.90490
G1 X109.040 Y115.583 E31.05693
G1 X108.583 Y115.443 E31.08885
G1 X106.471 Y114.594 E31.24087
G1 X106.044 Y114.379 E31.27280
G1 X104.107 Y113.186 E31.42482
G1 X103.722 Y112.902 E31.45675
G1 X102.014 Y111.398 E31.60878
G1 X101.683 Y111.054 E31.64070
G1 X100.217 Y109.237 E31.79665
G1 X99.677 Y109.260 E31.83274
G1 X99.173 Y110.006 E31.89291
G1 X98.873 Y110.378 E31.92483
G1 X97.298 Y112.021 E32.07685
G1 X96.939 Y112.337 E32.10877
G1 X95.110 Y113.690 E32.26080
G1 X94.703 Y113.940 E32.29272
G1 X92.671 Y114.965 E32.44475
G1 X92.228 Y115.143 E32.47667
G1 X90.052 Y115.810 E32.62870
G1 X89.585 Y115.910 E32.66062
G1 X87.327 Y116.199 E32.81265
G1 X86.850 Y116.220 E32.84457
G1 X84.576 Y116.123 E32.99660
G1 X84.102 Y116.062 E33.02852
G1 X81.878 Y115.583 E33.18055
G1 X81.421 Y115.443 E33.21247
G1 X79.309 Y114.594 E33.36449
G1 X78.883 Y114.379 E33.39642
G1 X76.945 Y113.186 E33.54844
G1 X76.561 Y112.902 E33.58037
G1 X74.852 Y111.398 E33.73240
G1 X74.522 Y111.054 E33.76432
G1 X73.092 Y109.283 E33.91634
G1 X72.824 Y108.887 E33.94826
G1 X71.715 Y106.900 E34.10030
G1 X71.518 Y106.465 E34.13222
G1 X70.760 Y104.319 E34.28425
G1 X70.639 Y103.857 E34.31616
G1 X70.303 Y101.894 E34.44923
G1 X70.255 Y101.614 E34.46819
G1 X70.214 Y101.138 E34.50011
G1 X70.214 Y98.862 E34.65214
G1 X70.255 Y98.386 E34.68406
G1 X70.591 Y96.423 E34.81713
G1 X70.639 Y96.143 E34.83609
G1 X70.760 Y95.681 E34.86801
G1 X71.518 Y93.535 E35.02005
G1 X71.715 Y93.100 E35.05196
G1 X72.824 Y91.113 E35.20398
G1 X73.092 Y90.717 E35.23591
G1 X74.522 Y88.946 E35.38793
G1 X74.852 Y88.602 E35.41986
G1 X76.348 Y87.285 E35.55293
G1 X76.735 Y87.658 F7800.000
G1 X77.245 Y87.258 E35.59621 F1800.000
G1 X79.144 Y86.089 E35.74519
G1 X79.530 Y85.894 E35.77407
G1 X83.796 Y84.180 E36.08123
G1 X84.129 Y84.405 E36.10806
G1 X84.319 Y84.450 E36.12112
G1 X84.622 Y84.411 E36.14150
G1 X86.850 Y84.317 E36.29049
G1 X87.282 Y84.335 E36.31937
G1 X89.494 Y84.618 E36.46835
G1 X89.917 Y84.709 E36.49723
G1 X92.049 Y85.362 E36.64622
G1 X92.450 Y85.524 E36.67510
G1 X94.441 Y86.528 E36.82409
G1 X94.810 Y86.754 E36.85297
G1 X96.603 Y88.080 E37.00195
G1 X96.927 Y88.366 E37.03084
G1 X98.470 Y89.976 E37.17983
G1 X98.742 Y90.312 E37.20871
G1 X99.684 Y91.707 E37.32114
G1 X100.282 Y91.681 E37.36112
G1 X100.443 Y91.394 E37.38311
G1 X100.685 Y91.036 E37.41199
G1 X102.086 Y89.301 E37.56098
G1 X102.385 Y88.989 E37.58986
G1 X103.863 Y87.688 E37.72141
G1 X104.059 Y87.515 E37.73886
G1 X104.407 Y87.258 E37.76774
G1 X106.306 Y86.089 E37.91672
G1 X106.692 Y85.894 E37.94560
G1 X110.958 Y84.180 E38.25275
G1 X111.291 Y84.405 E38.27959
G1 X111.481 Y84.450 E38.29264 F1800.000
G1 X111.784 Y84.411 E38.31302
G1 X114.012 Y84.317 E38.46201
G1 X114.444 Y84.335 E38.49089
G1 X116.656 Y84.618 E38.63988
G1 X117.078 Y84.709 E38.66876
G1 X119.211 Y85.362 E38.81775
G1 X119.612 Y85.524 E38.84663
G1 X121.603 Y86.528 E38.99561
G1 X121.971 Y86.754 E39.02450
G1 X123.764 Y88.080 E39.17348
G1 X124.089 Y88.366 E39.20236
G1 X125.632 Y89.976 E39.35136
G1 X125.904 Y90.312 E39.38024
G1 X127.153 Y92.160 E39.52922
G1 X127.363 Y92.538 E39.55810
G1 X128.282 Y94.570 E39.70709
G1 X128.426 Y94.977 E39.73597
G1 X128.988 Y97.136 E39.88496
G1 X129.061 Y97.562 E39.91384
G1 X129.250 Y99.784 E40.06282
G1 X129.250 Y100.216 E40.09171
G1 X129.061 Y102.438 E40.24071
G1 X128.988 Y102.864 E40.26958
G1 X128.426 Y105.023 E40.41857
G1 X128.282 Y105.430 E40.44745
G1 X127.363 Y107.462 E40.59644
G1 X127.153 Y107.840 E40.62532
G1 X126.050 Y109.471 E40.75686
G1 X125.904 Y109.688 E40.77431
G1 X125.632 Y110.024 E40.80319
G1 X124.089 Y111.634 E40.95217
G1 X123.764 Y111.920 E40.98106
G1 X121.971 Y113.246 E41.13004
G1 X121.603 Y113.472 E41.15892
G1 X119.612 Y114.476 E41.30791
G1 X119.211 Y114.638 E41.33679
G1 X117.078 Y115.291 E41.48578
G1 X116.656 Y115.382 E41.51466
G1 X114.444 Y115.665 E41.66365
G1 X114.012 Y115.683 E41.69253
G1 X111.784 Y115.589 E41.84152
G1 X111.355 Y115.534 E41.87040
G1 X109.175 Y115.064 E42.01939
G1 X108.761 Y114.937 E42.04827
G1 X106.692 Y114.106 E42.19725
G1 X106.306 Y113.911 E42.22614
G1 X104.407 Y112.742 E42.37512
G1 X104.059 Y112.485 E42.40401
G1 X102.385 Y111.011 E42.55300
G1 X102.086 Y110.699 E42.58188
G1 X100.685 Y108.964 E42.73086
G1 X100.443 Y108.606 E42.75974
G1 X100.282 Y108.319 E42.78174
G1 X99.684 Y108.293 E42.82172
G1 X98.742 Y109.688 E42.93415
G1 X98.470 Y110.024 E42.96303
G1 X96.927 Y111.634 E43.11202
G1 X96.603 Y111.920 E43.14090
G1 X94.810 Y113.246 E43.28988
G1 X94.441 Y113.472 E43.31877
G1 X92.450 Y114.476 E43.46776
G1 X92.049 Y114.638 E43.49664
G1 X89.917 Y115.291 E43.64562
G1 X89.494 Y115.382 E43.67451
G1 X87.282 Y115.665 E43.82349
G1 X86.850 Y115.683 E43.85237
G1 X84.622 Y115.589 E44.00136
G1 X84.193 Y115.534 E44.03024
G1 X82.013 Y115.064 E44.17923
G1 X81.599 Y114.937 E44.20811
G1 X79.530 Y114.106 E44.35710
G1 X79.144 Y113.911 E44.38598
G1 X77.245 Y112.742 E44.53497
G1 X76.897 Y112.485 E44.56385
G1 X75.223 Y111.011 E44.71285
G1 X74.924 Y110.699 E44.74172
G1 X73.523 Y108.964 E44.89071
G1 X73.281 Y108.606 E44.91959
G1 X72.193 Y106.659 E45.06858
G1 X72.015 Y106.265 E45.09746
G1 X71.272 Y104.162 E45.24645
G1 X71.163 Y103.744 E45.27533
G1 X70.831 Y101.803 E45.40687
G1 X70.786 Y101.546 E45.42432
G1 X70.750 Y101.115 E45.45320
G1 X70.750 Y98.885 E45.60219
G1 X70.786 Y98.454 E45.63107
G1 X71.119 Y96.513 E45.76261
G1 X71.163 Y96.256 E45.78006
G1 X71.272 Y95.838 E45.80894
G1 X72.015 Y93.735 E45.95793
G1 X72.193 Y93.341 E45.98681
G1 X73.281 Y91.394 E46.13579
G1 X73.523 Y91.036 E46.16467
G1 X74.924 Y89.301 E46.31366
G1 X75.223 Y88.989 E46.34254
G1 X76.701 Y87.688 E46.47409
G1 X77.089 Y88.060 F7800.000
G1 X77.545 Y87.702 E46.51282 F1800.000
G1 X79.405 Y86.557 E46.65876
G1 X79.751 Y86.383 E46.68460
G1 X83.732 Y84.783 E46.97123
G1 X83.997 Y84.962 E46.99257
G1 X84.187 Y85.007 E47.00562
G1 X84.667 Y84.945 E47.03798
G1 X86.850 Y84.853 E47.18393
G1 X87.236 Y84.869 E47.20977
G1 X89.403 Y85.147 E47.35572
G1 X89.781 Y85.228 E47.38156
G1 X91.870 Y85.868 E47.52751
G1 X92.229 Y86.012 E47.55335
G1 X94.180 Y86.996 E47.69929
G1 X94.509 Y87.198 E47.72514
G1 X96.266 Y88.497 E47.87108
G1 X96.556 Y88.753 E47.89692
G1 X98.068 Y90.330 E48.04288
G1 X98.311 Y90.631 E48.06872
G1 X99.534 Y92.441 E48.21466
G1 X99.688 Y92.717 E48.23579
G1 X100.317 Y92.717 E48.27778
G1 X100.899 Y91.675 E48.35753
G1 X101.116 Y91.355 E48.38338
G1 X102.488 Y89.655 E48.52932
G1 X102.756 Y89.376 E48.55517
G1 X104.396 Y87.932 E48.70112
G1 X104.707 Y87.702 E48.72696
G1 X106.567 Y86.557 E48.87290
G1 X106.913 Y86.383 E48.89874
G1 X110.894 Y84.783 E49.18537
G1 X111.158 Y84.962 E49.20671 F1800.000
G1 X111.348 Y85.007 E49.21976
G1 X111.829 Y84.945 E49.25212
G1 X114.012 Y84.853 E49.39808
G1 X114.398 Y84.869 E49.42391
G1 X116.565 Y85.147 E49.56986
G1 X116.943 Y85.228 E49.59570
G1 X119.032 Y85.868 E49.74165
G1 X119.391 Y86.012 E49.76749
G1 X121.342 Y86.996 E49.91344
G1 X121.671 Y87.198 E49.93928
G1 X123.428 Y88.497 E50.08522
G1 X123.718 Y88.753 E50.11107
G1 X125.230 Y90.330 E50.25702
G1 X125.473 Y90.631 E50.28286
G1 X126.696 Y92.441 E50.42880
G1 X126.885 Y92.779 E50.45464
G1 X127.785 Y94.770 E50.60060
G1 X127.913 Y95.134 E50.62643
G1 X128.464 Y97.249 E50.77239
G1 X128.529 Y97.630 E50.79822
G1 X128.715 Y99.807 E50.94417
G1 X128.715 Y100.193 E50.97001
G1 X128.529 Y102.370 E51.11597
