; generated by Slic3r 1.2.9 on 2018-11-22 at 00:22:55

; external perimeters extrusion width = 0.30mm
; perimeters extrusion width = 0.40mm
; infill extrusion width = 0.40mm
; solid infill extrusion width = 0.40mm
; top infill extrusion width = 0.40mm

M107
M190 S65 ; set bed temperature
M104 S205 ; set temperature
G28 ; home all axes
G1 Z5 F5000 ; lift nozzle

M109 S205 ; wait for temperature to be reached
G21 ; set units to millimeters
G90 ; use absolute coordinates
M82 ; use absolute distances for extrusion
G92 E0
G1 Z0.300 F7800.000
G1 E-2.00000 F2400.00000
G92 E0
G1 X63.706 Y79.569 F7800.000
G1 E2.00000 F2400.00000
G1 X64.601 Y78.928 E2.07350 F1800.000
G1 X66.844 Y77.559 E2.24905
G1 X67.822 Y77.056 E2.32254
G1 X70.241 Y76.029 E2.49810
G1 X71.282 Y75.673 E2.57159
G1 X73.825 Y75.009 E2.74714
G1 X74.906 Y74.809 E2.82064
G1 X77.518 Y74.522 E2.99619
G1 X78.343 Y74.476 E3.05133
G1 X120.569 Y74.481 E5.87232
G1 X123.196 Y74.577 E6.04789 F1800.000
G1 X124.289 Y74.698 E6.12139
G1 X126.874 Y75.175 E6.29694
G1 X127.938 Y75.453 E6.37044
G1 X130.425 Y76.302 E6.54600
G1 X131.437 Y76.732 E6.61948
G1 X133.775 Y77.934 E6.79504
G1 X134.714 Y78.507 E6.86853
G1 X136.851 Y80.036 E7.04409
G1 X137.696 Y80.739 E7.11757
G1 X139.588 Y82.563 E7.29313
G1 X140.322 Y83.383 E7.36663
G1 X141.928 Y85.463 E7.54218
G1 X142.535 Y86.380 E7.61568
G1 X143.821 Y88.672 E7.79123
G1 X144.288 Y89.668 E7.86472
G1 X145.227 Y92.122 E8.04028
G1 X145.544 Y93.176 E8.11377
G1 X146.115 Y95.741 E8.28932
G1 X146.276 Y96.829 E8.36282
G1 X146.467 Y99.450 E8.53837
G1 X146.467 Y100.550 E8.61187
G1 X146.276 Y103.171 E8.78745
G1 X146.115 Y104.259 E8.86092
G1 X145.544 Y106.824 E9.03647
G1 X145.227 Y107.878 E9.10996
G1 X144.288 Y110.332 E9.28552
G1 X143.821 Y111.328 E9.35901
G1 X142.549 Y113.595 E9.53268
G1 X141.928 Y114.537 E9.60805
G1 X140.322 Y116.617 E9.78362
G1 X139.588 Y117.437 E9.85710
G1 X137.717 Y119.241 E10.03078
G1 X136.851 Y119.964 E10.10614
G1 X134.714 Y121.493 E10.28170
G1 X133.775 Y122.066 E10.35519
G1 X131.437 Y123.268 E10.53075
G1 X130.425 Y123.698 E10.60424
G1 X127.938 Y124.547 E10.77979
G1 X126.874 Y124.825 E10.85327
G1 X124.289 Y125.302 E11.02884
G1 X123.196 Y125.423 E11.10234
G1 X120.295 Y125.524 E11.29628
G1 X78.343 Y125.524 E14.09890
G1 X77.518 Y125.478 E14.15404
G1 X74.906 Y125.191 E14.32959
G1 X73.825 Y124.991 E14.40306
G1 X71.282 Y124.327 E14.57864
G1 X70.241 Y123.971 E14.65214
G1 X67.822 Y122.944 E14.82769
G1 X66.844 Y122.441 E14.90118
G1 X64.601 Y121.071 E15.07676
G1 X63.706 Y120.431 E15.15023
G1 X61.686 Y118.750 E15.32578
G1 X60.894 Y117.987 E15.39928
G1 X59.141 Y116.030 E15.57483
G1 X58.453 Y115.136 E15.65020
G1 X57.018 Y112.967 E15.82388
G1 X56.480 Y112.008 E15.89737
G1 X55.365 Y109.629 E16.07292
G1 X54.972 Y108.601 E16.14641
G1 X54.215 Y106.085 E16.32197
G1 X53.975 Y105.011 E16.39547
G1 X53.597 Y102.439 E16.56914
G1 X53.512 Y101.314 E16.64451
G1 X53.512 Y98.686 E16.82006
G1 X53.593 Y97.589 E16.89355
G1 X53.975 Y94.989 E17.06911
G1 X54.223 Y93.888 E17.14448
G1 X54.972 Y91.399 E17.31815
G1 X55.365 Y90.371 E17.39165
G1 X56.480 Y87.992 E17.56720
G1 X57.018 Y87.033 E17.64070
G1 X58.468 Y84.841 E17.81625
G1 X59.141 Y83.970 E17.88974
G1 X60.894 Y82.013 E18.06530
G1 X61.686 Y81.250 E18.13879
G1 X63.672 Y79.597 E18.31134
G1 X64.586 Y80.626 F7800.000
G1 X65.126 Y80.220 E18.35643 F1800.000
G1 X67.753 Y78.617 E18.56206
G1 X68.153 Y78.411 E18.59213
G1 X70.986 Y77.207 E18.79777
G1 X71.413 Y77.062 E18.82786
G1 X74.390 Y76.283 E19.03348
G1 X74.833 Y76.201 E19.06357
G1 X77.893 Y75.865 E19.26918
G1 X78.342 Y75.848 E19.29925
G1 X81.419 Y75.961 E19.50489
G1 X81.866 Y76.010 E19.53498
G1 X84.893 Y76.569 E19.74060
G1 X85.329 Y76.683 E19.77068
G1 X88.002 Y77.595 E19.95939
G1 X88.656 Y77.853 E20.00636
G1 X91.394 Y79.260 E20.21199
G1 X91.778 Y79.495 E20.24207
G1 X94.281 Y81.286 E20.44769
G1 X94.810 Y81.749 E20.49466
G1 X96.843 Y83.710 E20.68337
G1 X97.144 Y84.045 E20.71345
G1 X99.025 Y86.482 E20.91908
G1 X99.273 Y86.857 E20.94916
G1 X99.662 Y87.550 E21.00226
G1 X100.263 Y87.572 E21.04243
G1 X101.692 Y85.412 E21.21545
G1 X101.967 Y85.056 E21.24552
G1 X104.021 Y82.764 E21.45115
G1 X104.345 Y82.451 E21.48123
G1 X106.711 Y80.482 E21.68686
G1 X107.078 Y80.220 E21.71694
G1 X109.705 Y78.617 E21.92257
G1 X110.105 Y78.411 E21.95265
G1 X112.938 Y77.207 E22.15828
G1 X113.365 Y77.062 E22.18837
G1 X116.342 Y76.283 E22.39399
G1 X116.785 Y76.201 E22.42408
G1 X119.845 Y75.865 E22.62969
G1 X120.547 Y75.858 E22.67665
G1 X123.371 Y75.961 E22.86538 F1800.000
G1 X123.818 Y76.010 E22.89546
G1 X126.845 Y76.569 E23.10108
G1 X127.281 Y76.683 E23.13116
G1 X129.954 Y77.595 E23.31987
G1 X130.608 Y77.853 E23.36684
G1 X133.346 Y79.260 E23.57247
G1 X133.730 Y79.495 E23.60256
G1 X136.233 Y81.286 E23.80818
G1 X136.579 Y81.574 E23.83825
G1 X138.795 Y83.710 E24.04389
G1 X139.096 Y84.045 E24.07396
G1 X140.977 Y86.482 E24.27960
G1 X141.225 Y86.857 E24.30967
G1 X142.732 Y89.542 E24.51531
G1 X142.923 Y89.950 E24.54541
G1 X144.022 Y92.824 E24.75102
G1 X144.152 Y93.256 E24.78111
G1 X144.821 Y96.260 E24.98672
G1 X144.887 Y96.705 E25.01680
G1 X145.112 Y99.775 E25.22241
G1 X145.112 Y100.225 E25.25250
G1 X144.887 Y103.295 E25.45815
G1 X144.821 Y103.740 E25.48822
G1 X144.152 Y106.745 E25.69382
G1 X144.022 Y107.176 E25.72391
G1 X142.923 Y110.050 E25.92952
G1 X142.732 Y110.458 E25.95962
G1 X141.349 Y112.922 E26.14834
G1 X140.977 Y113.518 E26.19531
G1 X139.096 Y115.955 E26.40095
G1 X138.795 Y116.290 E26.43102
G1 X136.762 Y118.250 E26.61973
G1 X136.233 Y118.714 E26.66670
G1 X133.730 Y120.505 E26.87233
G1 X133.345 Y120.740 E26.90241
G1 X130.608 Y122.147 E27.10803
G1 X129.954 Y122.405 E27.15500
G1 X127.281 Y123.317 E27.34371
G1 X126.845 Y123.431 E27.37378
G1 X123.818 Y123.990 E27.57943
G1 X123.370 Y124.039 E27.60951
G1 X120.295 Y124.152 E27.81513
G1 X119.845 Y124.135 E27.84521
G1 X116.785 Y123.799 E28.05083
G1 X116.343 Y123.717 E28.08090
G1 X113.364 Y122.938 E28.28655
G1 X112.938 Y122.793 E28.31663
G1 X110.105 Y121.589 E28.52225
G1 X109.705 Y121.383 E28.55233
G1 X107.077 Y119.780 E28.75797
G1 X106.711 Y119.518 E28.78804
G1 X104.345 Y117.549 E28.99367
G1 X104.021 Y117.236 E29.02375
G1 X101.967 Y114.944 E29.22938
G1 X101.692 Y114.588 E29.25945
G1 X100.263 Y112.428 E29.43247
G1 X99.662 Y112.450 E29.47264
G1 X99.273 Y113.143 E29.52574
G1 X99.025 Y113.518 E29.55582
G1 X97.144 Y115.955 E29.76146
G1 X96.843 Y116.290 E29.79153
G1 X94.810 Y118.250 E29.98024
G1 X94.281 Y118.714 E30.02721
G1 X91.778 Y120.505 E30.23284
G1 X91.394 Y120.740 E30.26292
G1 X88.656 Y122.147 E30.46854
G1 X88.002 Y122.405 E30.51551
G1 X85.329 Y123.317 E30.70422
G1 X84.893 Y123.431 E30.73429
G1 X81.866 Y123.990 E30.93994
G1 X81.418 Y124.039 E30.97002
G1 X78.343 Y124.152 E31.17564
G1 X77.893 Y124.135 E31.20572
G1 X74.833 Y123.799 E31.41134
G1 X74.391 Y123.717 E31.44141
G1 X71.412 Y122.938 E31.64706
G1 X70.986 Y122.793 E31.67714
G1 X68.153 Y121.589 E31.88277
G1 X67.753 Y121.383 E31.91284
G1 X65.342 Y119.912 E32.10156
G1 X64.759 Y119.518 E32.14853
G1 X62.393 Y117.549 E32.35415
G1 X62.069 Y117.236 E32.38423
G1 X60.015 Y114.944 E32.58986
G1 X59.740 Y114.588 E32.61993
G1 X58.042 Y112.020 E32.82557
G1 X57.821 Y111.628 E32.85565
G1 X56.515 Y108.841 E33.06128
G1 X56.354 Y108.420 E33.09135
G1 X55.467 Y105.473 E33.29699
G1 X55.369 Y105.033 E33.32706
G1 X54.958 Y102.239 E33.51578
G1 X54.888 Y101.539 E33.56275
G1 X54.888 Y98.461 E33.76837
G1 X54.921 Y98.012 E33.79844
G1 X55.369 Y94.967 E34.00408
G1 X55.540 Y94.285 E34.05104
G1 X56.354 Y91.580 E34.23976
G1 X56.515 Y91.159 E34.26984
G1 X57.821 Y88.372 E34.47547
G1 X58.042 Y87.980 E34.50555
G1 X59.740 Y85.412 E34.71118
G1 X60.015 Y85.056 E34.74125
G1 X62.069 Y82.764 E34.94688
G1 X62.393 Y82.451 E34.97696
G1 X64.552 Y80.655 E35.16455
G1 X64.929 Y81.038 F7800.000
G1 X65.421 Y80.667 E35.20572 F1800.000
G1 X68.015 Y79.084 E35.40873
G1 X68.381 Y78.896 E35.43619
G1 X71.178 Y77.708 E35.63921
G1 X71.567 Y77.575 E35.66668
G1 X74.507 Y76.806 E35.86969
G1 X74.911 Y76.732 E35.89716
G1 X77.932 Y76.399 E36.10016
G1 X78.342 Y76.384 E36.12761
G1 X81.380 Y76.495 E36.33064
G1 X81.788 Y76.540 E36.35811
G1 X84.776 Y77.092 E36.56112
G1 X85.174 Y77.196 E36.58858
G1 X87.829 Y78.102 E36.77599
G1 X88.429 Y78.338 E36.81903
G1 X91.131 Y79.728 E37.02205
G1 X91.482 Y79.942 E37.04952
G1 X93.954 Y81.710 E37.25252
G1 X94.438 Y82.135 E37.29556
G1 X96.457 Y84.082 E37.48297
G1 X96.732 Y84.388 E37.51044
G1 X98.589 Y86.794 E37.71345
G1 X98.816 Y87.136 E37.74092
G1 X99.635 Y88.596 E37.85272
G1 X100.262 Y88.596 E37.89462
G1 X100.451 Y88.259 E37.92045
G1 X102.128 Y85.724 E38.12346
G1 X102.379 Y85.399 E38.15092
G1 X104.407 Y83.136 E38.35394
G1 X104.703 Y82.850 E38.38140
G1 X107.039 Y80.906 E38.58442
G1 X107.373 Y80.667 E38.61188
G1 X109.967 Y79.084 E38.81489
G1 X110.333 Y78.896 E38.84235
G1 X113.130 Y77.708 E39.04537
G1 X113.519 Y77.575 E39.07284
G1 X116.459 Y76.806 E39.27585
G1 X116.863 Y76.732 E39.30332
G1 X119.884 Y76.399 E39.50632
G1 X120.294 Y76.384 E39.53378
G1 X123.332 Y76.495 E39.73681 F1800.000
G1 X123.740 Y76.540 E39.76427
G1 X126.728 Y77.092 E39.96728
G1 X127.126 Y77.196 E39.99474
G1 X130.002 Y78.177 E40.19776
G1 X130.381 Y78.338 E40.22522
G1 X133.083 Y79.728 E40.42824
G1 X133.434 Y79.942 E40.45571
G1 X135.906 Y81.710 E40.65871
G1 X136.390 Y82.135 E40.70176
G1 X138.409 Y84.082 E40.88916
G1 X138.684 Y84.388 E40.91662
G1 X140.541 Y86.794 E41.11964
G1 X140.768 Y87.136 E41.14710
G1 X142.255 Y89.787 E41.35013
G1 X142.430 Y90.159 E41.37761
G1 X143.515 Y92.997 E41.58060
G1 X143.634 Y93.391 E41.60808
G1 X144.294 Y96.357 E41.81107
G1 X144.354 Y96.764 E41.83853
G1 X144.576 Y99.794 E42.04153
G1 X144.576 Y100.205 E42.06900
G1 X144.354 Y103.237 E42.27204
G1 X144.294 Y103.643 E42.29950
G1 X143.634 Y106.609 E42.50249
G1 X143.515 Y107.003 E42.52996
G1 X142.430 Y109.841 E42.73295
G1 X142.255 Y110.213 E42.76043
G1 X140.882 Y112.660 E42.94785
G1 X140.541 Y113.206 E42.99089
G1 X138.684 Y115.612 E43.19392
G1 X138.409 Y115.918 E43.22137
G1 X136.390 Y117.865 E43.40878
G1 X135.906 Y118.290 E43.45183
G1 X133.434 Y120.058 E43.65484
G1 X133.083 Y120.272 E43.68230
G1 X130.381 Y121.662 E43.88531
G1 X129.781 Y121.898 E43.92836
G1 X127.126 Y122.804 E44.11576
G1 X126.729 Y122.908 E44.14321
G1 X123.740 Y123.460 E44.34625
G1 X123.331 Y123.505 E44.37372
G1 X120.295 Y123.616 E44.57672
G1 X119.884 Y123.601 E44.60418
G1 X116.863 Y123.268 E44.80719
G1 X116.459 Y123.194 E44.83464
G1 X113.519 Y122.425 E45.03768
G1 X113.130 Y122.292 E45.06514
G1 X110.333 Y121.104 E45.26815
G1 X109.967 Y120.916 E45.29561
G1 X107.373 Y119.333 E45.49864
G1 X107.039 Y119.094 E45.52609
G1 X104.703 Y117.150 E45.72911
G1 X104.407 Y116.864 E45.75657
G1 X102.379 Y114.601 E45.95958
G1 X102.128 Y114.276 E45.98704
G1 X100.451 Y111.741 E46.19006
G1 X100.262 Y111.404 E46.21589
G1 X99.635 Y111.404 E46.25779
G1 X98.816 Y112.864 E46.36960
G1 X98.589 Y113.206 E46.39706
G1 X96.732 Y115.612 E46.60008
G1 X96.457 Y115.918 E46.62754
G1 X94.438 Y117.865 E46.81494
G1 X93.954 Y118.290 E46.85799
G1 X91.482 Y120.058 E47.06100
G1 X91.131 Y120.272 E47.08846
G1 X88.429 Y121.662 E47.29148
G1 X87.829 Y121.898 E47.33452
G1 X85.174 Y122.804 E47.52192
G1 X84.777 Y122.908 E47.54938
G1 X81.788 Y123.460 E47.75241
G1 X81.379 Y123.505 E47.77988
G1 X78.343 Y123.616 E47.98288
G1 X77.932 Y123.601 E48.01034
G1 X74.911 Y123.268 E48.21335
G1 X74.507 Y123.194 E48.24081
G1 X71.567 Y122.425 E48.44384
G1 X71.178 Y122.292 E48.47131
G1 X68.381 Y121.104 E48.67431
G1 X68.015 Y120.916 E48.70178
G1 X65.621 Y119.454 E48.88918
G1 X65.087 Y119.094 E48.93223
G1 X62.751 Y117.150 E49.13524
G1 X62.455 Y116.864 E49.16270
G1 X60.427 Y114.601 E49.36572
G1 X60.176 Y114.276 E49.39318
G1 X58.499 Y111.741 E49.59620
G1 X58.298 Y111.383 E49.62366
G1 X57.008 Y108.631 E49.82667
G1 X56.861 Y108.247 E49.85413
G1 X55.986 Y105.337 E50.05715
G1 X55.896 Y104.936 E50.08461
G1 X55.488 Y102.160 E50.27203
G1 X55.424 Y101.519 E50.31507
G1 X55.424 Y98.481 E50.51808
G1 X55.454 Y98.071 E50.54553
G1 X55.896 Y95.064 E50.74855
G1 X56.053 Y94.439 E50.79160
G1 X56.861 Y91.753 E50.97901
G1 X57.008 Y91.369 E51.00647
G1 X58.298 Y88.617 E51.20948
G1 X58.499 Y88.259 E51.23695
G1 X60.176 Y85.724 E51.43996
G1 X60.427 Y85.399 E51.46742
G1 X62.455 Y83.136 E51.67044
G1 X62.751 Y82.850 E51.69790
G1 X64.894 Y81.067 E51.88418
G1 E49.88418 F2400.00000
G92 E0
G1 X99.668 Y89.750 F7800.000
G1 E2.00000 F2400.00000
G1 X100.322 Y89.726 E2.04368 F1800.000
G1 X100.727 Y88.862 E2.10742
G1 X100.909 Y88.538 E2.13227
G1 X102.564 Y86.036 E2.33266
G1 X102.934 Y85.582 E2.37179
G1 X104.793 Y83.508 E2.55789
G1 X105.061 Y83.250 E2.58273
G1 X107.367 Y81.331 E2.78313
G1 X107.669 Y81.114 E2.80798
G1 X110.230 Y79.552 E3.00838
G1 X110.560 Y79.382 E3.03323
G1 X113.321 Y78.208 E3.23363
G1 X113.673 Y78.088 E3.25848
G1 X116.575 Y77.329 E3.45888
G1 X116.941 Y77.262 E3.48373
G1 X119.923 Y76.934 E3.68412
G1 X120.294 Y76.920 E3.70895
G1 X123.292 Y77.030 E3.90937
G1 X123.662 Y77.070 E3.93422
G1 X126.612 Y77.615 E4.13461
G1 X126.972 Y77.709 E4.15946
G1 X129.811 Y78.678 E4.35986
G1 X130.153 Y78.823 E4.38471
G1 X132.821 Y80.195 E4.58511
G1 X133.138 Y80.389 E4.60996
G1 X135.578 Y82.134 E4.81035
G1 X135.864 Y82.372 E4.83519
G1 X138.023 Y84.454 E5.03560
G1 X138.272 Y84.731 E5.06044
G1 X140.105 Y87.105 E5.26084
G1 X140.310 Y87.416 E5.28569
G1 X141.778 Y90.032 E5.48610
G1 X141.936 Y90.369 E5.51096
G1 X143.008 Y93.170 E5.71134
G1 X143.115 Y93.527 E5.73620
G1 X143.767 Y96.454 E5.93658
G1 X143.821 Y96.822 E5.96143
G1 X144.040 Y99.814 E6.16181
G1 X144.040 Y100.186 E6.18667
G1 X143.837 Y102.964 E6.37278
G1 X143.767 Y103.546 E6.41190
G1 X143.115 Y106.473 E6.61228
G1 X143.008 Y106.830 E6.63714
G1 X141.936 Y109.631 E6.83752
G1 X141.778 Y109.968 E6.86238
G1 X140.310 Y112.584 E7.06279
G1 X140.105 Y112.895 E7.08764
G1 X138.272 Y115.269 E7.28805
G1 X138.023 Y115.546 E7.31289
G1 X135.864 Y117.628 E7.51329
G1 X135.578 Y117.866 E7.53814
G1 X133.138 Y119.611 E7.73853
G1 X132.821 Y119.805 E7.76338
G1 X130.153 Y121.177 E7.96378
G1 X129.811 Y121.322 E7.98862
G1 X126.972 Y122.291 E8.18902
G1 X126.612 Y122.385 E8.21386
G1 X123.662 Y122.930 E8.41427
G1 X123.292 Y122.970 E8.43913
G1 X120.295 Y123.080 E8.63952
G1 X119.923 Y123.066 E8.66436
G1 X116.941 Y122.738 E8.86476
G1 X116.576 Y122.671 E8.88960
G1 X113.673 Y121.912 E9.09001
G1 X113.321 Y121.792 E9.11486
G1 X110.560 Y120.618 E9.31526
G1 X110.230 Y120.448 E9.34010
G1 X107.669 Y118.886 E9.54051
G1 X107.367 Y118.669 E9.56535
G1 X105.061 Y116.750 E9.76575
G1 X104.793 Y116.492 E9.79060
G1 X102.791 Y114.258 E9.99099
G1 X102.564 Y113.964 E10.01584
G1 X100.909 Y111.462 E10.21624
G1 X100.727 Y111.138 E10.24109
G1 X100.322 Y110.274 E10.30483
G1 X99.668 Y110.250 E10.34851
G1 X98.358 Y112.584 E10.52734
G1 X98.153 Y112.895 E10.55219
G1 X96.320 Y115.269 E10.75260
G1 X96.071 Y115.546 E10.77744
G1 X93.912 Y117.628 E10.97784
G1 X93.626 Y117.866 E11.00269
G1 X91.186 Y119.611 E11.20308
G1 X90.869 Y119.805 E11.22793
G1 X88.201 Y121.177 E11.42833
G1 X87.859 Y121.322 E11.45317
G1 X85.020 Y122.291 E11.65357
G1 X84.660 Y122.385 E11.67841
G1 X81.710 Y122.930 E11.87883
G1 X81.340 Y122.970 E11.90368
G1 X78.343 Y123.080 E12.10407
G1 X77.971 Y123.066 E12.12891
G1 X74.989 Y122.738 E12.32931
G1 X74.624 Y122.671 E12.35415
G1 X71.721 Y121.912 E12.55456
G1 X71.369 Y121.792 E12.57941
G1 X68.608 Y120.618 E12.77981
G1 X68.278 Y120.448 E12.80465
G1 X65.900 Y118.997 E12.99075
G1 X65.415 Y118.669 E13.02988
G1 X63.109 Y116.750 E13.23028
G1 X62.841 Y116.492 E13.25512
G1 X60.839 Y114.258 E13.45552
G1 X60.612 Y113.964 E13.48037
G1 X58.957 Y111.462 E13.68077
G1 X58.775 Y111.138 E13.70562
G1 X57.502 Y108.422 E13.90601
G1 X57.369 Y108.074 E13.93086
G1 X56.504 Y105.202 E14.13126
G1 X56.424 Y104.839 E14.15611
G1 X55.987 Y101.871 E14.35652
G1 X55.960 Y101.500 E14.38136
G1 X55.960 Y98.500 E14.58175
G1 X55.987 Y98.129 E14.60660
G1 X56.424 Y95.161 E14.80700
G1 X56.504 Y94.798 E14.83184
G1 X57.369 Y91.926 E15.03225
G1 X57.502 Y91.578 E15.05709
G1 X58.775 Y88.862 E15.25749
G1 X58.957 Y88.538 E15.28234
G1 X60.612 Y86.036 E15.48274
G1 X60.839 Y85.742 E15.50758
G1 X62.841 Y83.508 E15.70799
G1 X63.273 Y83.113 E15.74711
G1 X65.415 Y81.331 E15.93321
