; generated by Slic3r 1.2.9 on 2018-11-10 at 13:13:18

; external perimeters extrusion width = 0.30mm
; perimeters extrusion width = 0.40mm
; infill extrusion width = 0.40mm
; solid infill extrusion width = 0.40mm
; top infill extrusion width = 0.40mm

M107
M190 S65 ; set bed temperature
M104 S205 ; set temperature
G28 ; home all axes
G1 Z5 F5000 ; lift nozzle

M109 S205 ; wait for temperature to be reached
G21 ; set units to millimeters
G90 ; use absolute coordinates
M82 ; use absolute distances for extrusion
G92 E0
G1 Z0.300 F7800.000
G1 E-2.00000 F2400.00000
G92 E0
G1 X79.819 Y90.605 F7800.000
G1 E2.00000 F2400.00000
G1 X80.920 Y89.846 E2.08932 F1800.000
G1 X89.226 Y84.552 E2.74732
G1 X91.123 Y83.400 E2.89563
G1 X92.351 Y82.801 E2.98693
G1 X94.267 Y82.073 E3.12383
G1 X95.583 Y81.705 E3.21511
G1 X97.599 Y81.335 E3.35203
G1 X98.960 Y81.211 E3.44333
G1 X101.009 Y81.211 E3.58024
G1 X102.370 Y81.335 E3.67153
G1 X104.386 Y81.705 E3.80844 F1800.000
G1 X105.702 Y82.073 E3.89973
G1 X107.618 Y82.801 E4.03664
G1 X108.846 Y83.400 E4.12794
G1 X110.748 Y84.555 E4.27663
G1 X119.703 Y90.273 E4.98642
G1 X120.952 Y91.272 E5.09327
G1 X121.640 Y91.954 E5.15797
G1 X122.704 Y93.276 E5.27135
G1 X123.221 Y94.095 E5.33604
G1 X123.962 Y95.622 E5.44941
G1 X124.283 Y96.535 E5.51411
G1 X124.663 Y98.189 E5.62749
G1 X124.772 Y99.152 E5.69218
G1 X124.772 Y100.848 E5.80555
G1 X124.663 Y101.811 E5.87024
G1 X124.283 Y103.465 E5.98362
G1 X123.962 Y104.378 E6.04832
G1 X123.222 Y105.905 E6.16167
G1 X122.704 Y106.724 E6.22639
G1 X121.640 Y108.046 E6.33976
G1 X120.952 Y108.728 E6.40445
G1 X119.703 Y109.727 E6.51131
G1 X110.598 Y115.538 E7.23289
G1 X108.846 Y116.600 E7.36979
G1 X107.618 Y117.199 E7.46109
G1 X105.702 Y117.927 E7.59800
G1 X104.386 Y118.295 E7.68929
G1 X102.370 Y118.665 E7.82620
G1 X101.009 Y118.789 E7.91750
G1 X98.960 Y118.789 E8.05440
G1 X97.599 Y118.665 E8.14570
G1 X95.583 Y118.295 E8.28260
G1 X94.267 Y117.927 E8.37390
G1 X92.351 Y117.199 E8.51081
G1 X91.123 Y116.600 E8.60209
G1 X89.371 Y115.538 E8.73901
G1 X80.667 Y109.985 E9.42874
G1 X79.819 Y109.395 E9.49773
G1 X78.468 Y108.191 E9.61862
G1 X77.786 Y107.416 E9.68761
G1 X76.761 Y105.924 E9.80851
G1 X76.283 Y105.009 E9.87750
G1 X75.643 Y103.316 E9.99839
G1 X75.397 Y102.313 E10.06738
G1 X75.180 Y100.516 E10.18828
G1 X75.180 Y99.484 E10.25727
G1 X75.403 Y97.666 E10.37963
G1 X75.643 Y96.684 E10.44714
G1 X76.283 Y94.991 E10.56802
G1 X76.761 Y94.076 E10.63702
G1 X77.786 Y92.584 E10.75792
G1 X78.468 Y91.809 E10.82691
G1 X79.785 Y90.635 E10.94480
G1 X80.605 Y91.734 F7800.000
G1 X81.757 Y90.933 E11.03858 F1800.000
G1 X82.413 Y90.585 E11.08816
G1 X84.070 Y89.948 E11.20675
G1 X84.790 Y89.767 E11.25635
G1 X85.174 Y89.718 E11.28225
G1 X85.334 Y89.639 E11.29415
G1 X85.433 Y89.540 E11.30349
G1 X85.921 Y89.540 E11.33612
G1 X86.144 Y89.432 E11.35265
G1 X87.061 Y88.257 E11.45219
G1 X87.444 Y87.849 E11.48958
G1 X89.394 Y86.116 E11.66388
G1 X89.844 Y85.784 E11.70127
G1 X92.076 Y84.432 E11.87556
G1 X92.579 Y84.186 E11.91295
G1 X95.017 Y83.259 E12.08725
G1 X95.556 Y83.109 E12.12463
G1 X98.123 Y82.638 E12.29893
G1 X98.680 Y82.587 E12.33632
G1 X101.289 Y82.587 E12.51062
G1 X101.846 Y82.638 E12.54801
G1 X104.412 Y83.109 E12.72230 F1800.000
G1 X104.951 Y83.259 E12.75969
G1 X107.390 Y84.186 E12.93399
G1 X107.893 Y84.432 E12.97139
G1 X110.125 Y85.784 E13.14568
G1 X110.575 Y86.116 E13.18307
G1 X112.525 Y87.849 E13.35736
G1 X112.908 Y88.257 E13.39476
G1 X113.825 Y89.432 E13.49429
G1 X114.047 Y89.540 E13.51082
G1 X114.536 Y89.540 E13.54345
G1 X114.615 Y89.619 E13.55089
G1 X114.781 Y89.698 E13.56321
G1 X115.573 Y89.860 E13.61721
G1 X117.148 Y90.398 E13.72837
G1 X117.777 Y90.696 E13.77488
G1 X119.191 Y91.573 E13.88603
G1 X119.737 Y92.004 E13.93251
G1 X120.919 Y93.176 E14.04370
G1 X121.355 Y93.718 E14.09019
G1 X122.245 Y95.124 E14.20136
G1 X122.548 Y95.751 E14.24784
G1 X123.101 Y97.320 E14.35902
G1 X123.257 Y97.999 E14.40552
G1 X123.444 Y99.652 E14.51668
G1 X123.444 Y100.348 E14.56317
G1 X123.257 Y102.002 E14.67435
G1 X123.101 Y102.680 E14.72084
G1 X122.548 Y104.249 E14.83200
G1 X122.245 Y104.875 E14.87847
G1 X121.355 Y106.282 E14.98967
G1 X120.919 Y106.824 E15.03616
G1 X119.737 Y107.996 E15.14733
G1 X119.190 Y108.427 E15.19382
G1 X117.776 Y109.304 E15.30499
G1 X117.148 Y109.602 E15.35148
G1 X115.573 Y110.140 E15.46265
G1 X114.781 Y110.302 E15.51664
G1 X114.615 Y110.381 E15.52895
G1 X114.536 Y110.460 E15.53640
G1 X114.047 Y110.460 E15.56902
G1 X113.825 Y110.568 E15.58555
G1 X112.908 Y111.743 E15.68509
G1 X112.525 Y112.151 E15.72248
G1 X110.575 Y113.884 E15.89678
G1 X110.124 Y114.216 E15.93418
G1 X107.893 Y115.568 E16.10846
G1 X107.390 Y115.814 E16.14586
G1 X104.951 Y116.741 E16.32015
G1 X104.412 Y116.891 E16.35754
G1 X101.846 Y117.362 E16.53184
G1 X101.289 Y117.413 E16.56923
G1 X98.680 Y117.413 E16.74352
G1 X98.122 Y117.362 E16.78092
G1 X95.556 Y116.891 E16.95521
G1 X95.017 Y116.741 E16.99260
G1 X92.579 Y115.814 E17.16689
G1 X92.076 Y115.568 E17.20428
G1 X89.844 Y114.216 E17.37858
G1 X89.394 Y113.884 E17.41597
G1 X87.444 Y112.151 E17.59026
G1 X87.061 Y111.743 E17.62765
G1 X86.144 Y110.568 E17.72719
G1 X85.921 Y110.460 E17.74373
G1 X85.433 Y110.460 E17.77635
G1 X85.334 Y110.361 E17.78569
G1 X85.174 Y110.282 E17.79759
G1 X84.789 Y110.233 E17.82351
G1 X84.070 Y110.052 E17.87310
G1 X82.413 Y109.415 E17.99167
G1 X81.757 Y109.067 E18.04126
G1 X81.434 Y108.843 E18.06753
G1 X80.300 Y108.054 E18.15984
G1 X79.746 Y107.560 E18.20943
G1 X78.573 Y106.228 E18.32801
G1 X78.152 Y105.616 E18.37760
G1 X77.330 Y104.043 E18.49618
G1 X77.068 Y103.348 E18.54577
G1 X76.645 Y101.624 E18.66434
G1 X76.556 Y100.887 E18.71393
G1 X76.556 Y99.113 E18.83251
G1 X76.645 Y98.376 E18.88208
G1 X77.068 Y96.652 E19.00068
G1 X77.330 Y95.957 E19.05026
G1 X78.152 Y94.384 E19.16885
G1 X78.573 Y93.772 E19.21844
G1 X79.746 Y92.440 E19.33701
G1 X80.300 Y91.946 E19.38660
G1 X80.568 Y91.760 E19.40839
G1 X80.911 Y92.174 F7800.000
G1 X82.036 Y91.391 E19.50002 F1800.000
G1 X82.635 Y91.073 E19.54528
G1 X84.232 Y90.459 E19.65957
G1 X84.889 Y90.294 E19.70485
G1 X85.423 Y90.226 E19.74084
G1 X85.583 Y90.148 E19.75273
G1 X85.655 Y90.076 E19.75949
G1 X86.183 Y90.076 E19.79476
G1 X86.405 Y89.967 E19.81129
G1 X87.468 Y88.606 E19.92667
G1 X87.818 Y88.233 E19.96081
G1 X89.732 Y86.533 E20.13185
G1 X90.143 Y86.229 E20.16599
G1 X92.332 Y84.903 E20.33703
G1 X92.792 Y84.678 E20.37117
G1 X95.185 Y83.769 E20.54221
G1 X95.677 Y83.631 E20.57634
G1 X95.971 Y83.577 E20.59635
G1 X98.195 Y83.169 E20.74740
G1 X98.704 Y83.123 E20.78154
G1 X101.265 Y83.123 E20.95258
G1 X101.773 Y83.169 E20.98672 F1800.000
G1 X102.068 Y83.223 E21.00672
G1 X104.292 Y83.631 E21.15776
G1 X104.784 Y83.769 E21.19190
G1 X107.177 Y84.678 E21.36295
G1 X107.637 Y84.903 E21.39709
G1 X109.826 Y86.229 E21.56813
G1 X110.237 Y86.533 E21.60227
G1 X112.151 Y88.233 E21.77331
G1 X112.501 Y88.606 E21.80745
G1 X113.564 Y89.967 E21.92283
G1 X113.786 Y90.076 E21.93936
G1 X114.314 Y90.076 E21.97462
G1 X114.370 Y90.132 E21.97994
G1 X114.537 Y90.211 E21.99225
G1 X114.808 Y90.240 E22.01046
G1 X115.428 Y90.376 E22.05291
G1 X116.946 Y90.895 E22.16004
G1 X117.520 Y91.167 E22.20250
G1 X118.882 Y92.013 E22.30961
G1 X119.381 Y92.406 E22.35205
G1 X120.520 Y93.535 E22.45920
G1 X120.918 Y94.030 E22.50164
G1 X121.776 Y95.385 E22.60877
G1 X122.053 Y95.957 E22.65122
G1 X122.586 Y97.470 E22.75835
G1 X122.728 Y98.089 E22.80081
G1 X122.908 Y99.682 E22.90793
G1 X122.908 Y100.318 E22.95037
G1 X122.728 Y101.911 E23.05751
G1 X122.586 Y102.531 E23.09996
G1 X122.053 Y104.043 E23.20708
G1 X121.776 Y104.615 E23.24951
G1 X120.918 Y105.970 E23.35666
G1 X120.520 Y106.465 E23.39911
G1 X119.381 Y107.594 E23.50624
G1 X118.882 Y107.988 E23.54869
G1 X117.520 Y108.833 E23.65582
G1 X116.946 Y109.105 E23.69826
G1 X115.428 Y109.624 E23.80539
G1 X114.808 Y109.760 E23.84782
G1 X114.537 Y109.788 E23.86605
G1 X114.370 Y109.868 E23.87836
G1 X114.314 Y109.924 E23.88367
G1 X113.786 Y109.924 E23.91894
G1 X113.564 Y110.033 E23.93547
G1 X112.501 Y111.394 E24.05084
G1 X112.151 Y111.767 E24.08498
G1 X110.237 Y113.467 E24.25603
G1 X109.826 Y113.771 E24.29017
G1 X107.636 Y115.097 E24.46121
G1 X107.177 Y115.322 E24.49535
G1 X104.784 Y116.231 E24.66639
G1 X104.292 Y116.369 E24.70053
G1 X101.774 Y116.831 E24.87158
G1 X101.265 Y116.877 E24.90572
G1 X98.704 Y116.877 E25.07676
G1 X98.195 Y116.831 E25.11091
G1 X95.677 Y116.369 E25.28194
G1 X95.185 Y116.231 E25.31609
G1 X92.792 Y115.322 E25.48712
G1 X92.332 Y115.097 E25.52126
G1 X90.143 Y113.771 E25.69231
G1 X89.731 Y113.467 E25.72645
G1 X87.818 Y111.767 E25.89749
G1 X87.468 Y111.394 E25.93163
G1 X86.405 Y110.033 E26.04701
G1 X86.183 Y109.924 E26.06354
G1 X85.655 Y109.924 E26.09881
G1 X85.583 Y109.852 E26.10556
G1 X85.423 Y109.774 E26.11746
G1 X84.889 Y109.706 E26.15346
G1 X84.232 Y109.541 E26.19874
G1 X82.635 Y108.927 E26.31300
G1 X82.037 Y108.609 E26.35827
G1 X80.632 Y107.632 E26.47254
G1 X80.127 Y107.181 E26.51781
G1 X78.996 Y105.898 E26.63209
G1 X78.612 Y105.339 E26.67737
G1 X77.820 Y103.823 E26.79163
G1 X77.581 Y103.189 E26.83691
G1 X77.173 Y101.528 E26.95117
G1 X77.092 Y100.855 E26.99645
G1 X77.092 Y99.145 E27.11071
G1 X77.173 Y98.472 E27.15598
G1 X77.581 Y96.811 E27.27026
G1 X77.820 Y96.177 E27.31553
G1 X78.612 Y94.661 E27.42980
G1 X78.996 Y94.102 E27.47508
G1 X80.127 Y92.819 E27.58934
G1 X80.632 Y92.368 E27.63462
G1 X80.874 Y92.200 E27.65425
G1 X81.217 Y92.614 F7800.000
G1 X82.316 Y91.849 E27.74372 F1800.000
G1 X82.858 Y91.562 E27.78468
G1 X84.394 Y90.971 E27.89465
G1 X84.989 Y90.821 E27.93562
G1 X85.673 Y90.734 E27.98169
G1 X85.833 Y90.656 E27.99358
G1 X85.877 Y90.612 E27.99775
G1 X86.444 Y90.612 E28.03566
G1 X86.667 Y90.503 E28.05219
G1 X87.875 Y88.955 E28.18341
G1 X88.191 Y88.618 E28.21430
G1 X90.069 Y86.949 E28.38209
G1 X90.441 Y86.675 E28.41298
G1 X92.589 Y85.373 E28.58077
G1 X93.005 Y85.170 E28.61165
G1 X95.352 Y84.278 E28.77944
G1 X95.798 Y84.154 E28.81033
G1 X98.268 Y83.700 E28.97813
G1 X98.729 Y83.658 E29.00902
G1 X101.240 Y83.658 E29.17681
G1 X101.701 Y83.700 E29.20769
G1 X104.171 Y84.154 E29.37549 F1800.000
G1 X104.616 Y84.278 E29.40637
G1 X106.964 Y85.170 E29.57417
G1 X107.380 Y85.373 E29.60506
G1 X109.528 Y86.675 E29.77285
G1 X109.900 Y86.949 E29.80373
G1 X111.777 Y88.618 E29.97153
G1 X112.094 Y88.955 E30.00242
G1 X113.302 Y90.503 E30.13363
G1 X113.525 Y90.612 E30.15016
G1 X114.092 Y90.612 E30.18807
G1 X114.126 Y90.645 E30.19125
G1 X114.292 Y90.725 E30.20356
G1 X114.722 Y90.769 E30.23244
G1 X115.284 Y90.893 E30.27085
G1 X116.744 Y91.392 E30.37394
G1 X117.263 Y91.638 E30.41235
G1 X118.574 Y92.452 E30.51542
G1 X119.026 Y92.808 E30.55382
G1 X120.122 Y93.894 E30.65692
G1 X120.482 Y94.342 E30.69533
G1 X121.307 Y95.646 E30.79841
G1 X121.558 Y96.163 E30.83682
G1 X122.070 Y97.619 E30.93991
G1 X122.199 Y98.179 E30.97833
G1 X122.373 Y99.713 E31.08140
G1 X122.373 Y100.287 E31.11980
G1 X122.199 Y101.821 E31.22290
G1 X122.070 Y102.381 E31.26131
G1 X121.558 Y103.837 E31.36439
G1 X121.307 Y104.354 E31.40278
G1 X120.482 Y105.658 E31.50589
G1 X120.122 Y106.106 E31.54429
G1 X119.026 Y107.192 E31.64738
G1 X118.574 Y107.548 E31.68578
G1 X117.263 Y108.362 E31.78887
G1 X116.744 Y108.608 E31.82727
G1 X115.283 Y109.107 E31.93036
G1 X114.722 Y109.231 E31.96875
G1 X114.292 Y109.275 E31.99764
G1 X114.126 Y109.355 E32.00995
G1 X114.092 Y109.388 E32.01313
G1 X113.525 Y109.388 E32.05104
G1 X113.302 Y109.497 E32.06757
G1 X112.094 Y111.045 E32.19878
G1 X111.777 Y111.382 E32.22967
G1 X109.900 Y113.051 E32.39747
G1 X109.528 Y113.325 E32.42836
G1 X107.380 Y114.627 E32.59615
G1 X106.964 Y114.830 E32.62703
G1 X104.616 Y115.722 E32.79482
G1 X104.171 Y115.846 E32.82571
G1 X101.701 Y116.300 E32.99351
G1 X101.240 Y116.342 E33.02439
G1 X98.729 Y116.342 E33.19219
G1 X98.268 Y116.300 E33.22308
G1 X95.798 Y115.846 E33.39087
G1 X95.352 Y115.722 E33.42176
G1 X93.005 Y114.830 E33.58955
G1 X92.589 Y114.627 E33.62043
G1 X90.441 Y113.325 E33.78823
G1 X90.069 Y113.051 E33.81912
G1 X88.191 Y111.382 E33.98691
G1 X87.875 Y111.045 E34.01780
G1 X86.667 Y109.497 E34.14901
G1 X86.444 Y109.388 E34.16554
G1 X85.877 Y109.388 E34.20345
G1 X85.833 Y109.344 E34.20762
G1 X85.673 Y109.266 E34.21952
G1 X84.989 Y109.179 E34.26559
G1 X84.394 Y109.029 E34.30656
G1 X82.858 Y108.438 E34.41651
G1 X82.316 Y108.151 E34.45747
G1 X80.965 Y107.211 E34.56743
G1 X80.507 Y106.803 E34.60839
G1 X79.419 Y105.568 E34.71835
G1 X79.072 Y105.063 E34.75932
G1 X78.310 Y103.604 E34.86927
G1 X78.093 Y103.030 E34.91024
G1 X77.701 Y101.432 E35.02019
G1 X77.627 Y100.823 E35.06115
G1 X77.627 Y99.177 E35.17110
G1 X77.701 Y98.569 E35.21205
G1 X78.093 Y96.970 E35.32202
G1 X78.310 Y96.396 E35.36298
G1 X79.072 Y94.937 E35.47294
G1 X79.419 Y94.432 E35.51391
G1 X80.507 Y93.197 E35.62386
G1 X80.965 Y92.789 E35.66483
G1 X81.180 Y92.639 E35.68230
G1 X81.522 Y93.053 F7800.000
G1 X82.595 Y92.307 E35.76961 F1800.000
G1 X83.080 Y92.050 E35.80626
G1 X84.556 Y91.482 E35.91191
G1 X85.088 Y91.348 E35.94857
G1 X85.922 Y91.242 E36.00472
G1 X86.099 Y91.147 E36.01813
G1 X86.706 Y91.147 E36.05868
G1 X86.928 Y91.039 E36.07521
G1 X88.282 Y89.304 E36.22226
G1 X88.565 Y89.002 E36.24990
G1 X90.407 Y87.366 E36.41444
G1 X90.740 Y87.120 E36.44208
G1 X92.846 Y85.844 E36.60661
G1 X93.218 Y85.662 E36.63425
G1 X95.520 Y84.787 E36.79879
G1 X95.918 Y84.676 E36.82642
G1 X96.165 Y84.631 E36.84317
G1 X98.341 Y84.231 E36.99097
G1 X98.753 Y84.194 E37.01861
G1 X101.216 Y84.194 E37.18315
G1 X101.628 Y84.231 E37.21078 F1800.000
G1 X101.875 Y84.277 E37.22753
G1 X104.050 Y84.676 E37.37532
G1 X104.449 Y84.787 E37.40296
G1 X106.751 Y85.662 E37.56750
G1 X107.123 Y85.844 E37.59514
G1 X109.229 Y87.120 E37.75968
G1 X109.562 Y87.366 E37.78731
G1 X111.403 Y89.002 E37.95186
G1 X111.687 Y89.304 E37.97950
G1 X113.041 Y91.039 E38.12654
G1 X113.263 Y91.147 E38.14307
G1 X113.870 Y91.147 E38.18362
G1 X114.048 Y91.238 E38.19693
G1 X114.637 Y91.299 E38.23647
G1 X115.139 Y91.410 E38.27084
G1 X116.542 Y91.889 E38.36989
G1 X117.007 Y92.110 E38.40426
G1 X118.266 Y92.891 E38.50329
G1 X118.670 Y93.210 E38.53764
G1 X119.723 Y94.253 E38.63670
G1 X120.046 Y94.654 E38.67107
G1 X120.838 Y95.907 E38.77011
G1 X121.063 Y96.370 E38.80447
G1 X121.555 Y97.768 E38.90352
G1 X121.670 Y98.270 E38.93789
G1 X121.837 Y99.743 E39.03693
G1 X121.837 Y100.257 E39.07129
G1 X121.670 Y101.730 E39.17034
G1 X121.555 Y102.232 E39.20471
G1 X121.063 Y103.630 E39.30375
G1 X120.838 Y104.093 E39.33810
G1 X120.046 Y105.346 E39.43716
G1 X119.723 Y105.747 E39.47152
G1 X118.670 Y106.790 E39.57057
G1 X118.266 Y107.109 E39.60493
G1 X117.006 Y107.891 E39.70398
G1 X116.542 Y108.111 E39.73834
G1 X115.139 Y108.590 E39.83739
G1 X114.637 Y108.701 E39.87174
G1 X114.048 Y108.762 E39.91129
G1 X113.870 Y108.853 E39.92460
G1 X113.263 Y108.853 E39.96514
G1 X113.041 Y108.961 E39.98167
G1 X111.687 Y110.696 E40.12872
G1 X111.403 Y110.998 E40.15636
G1 X109.562 Y112.634 E40.32090
G1 X109.229 Y112.880 E40.34854
G1 X107.123 Y114.156 E40.51308
G1 X106.751 Y114.338 E40.54072
G1 X104.449 Y115.213 E40.70526
G1 X104.050 Y115.324 E40.73289
G1 X101.628 Y115.769 E40.89743
G1 X101.216 Y115.806 E40.92507
G1 X98.753 Y115.806 E41.08961
G1 X98.341 Y115.769 E41.11726
G1 X95.918 Y115.324 E41.28179
G1 X95.520 Y115.213 E41.30943
G1 X93.218 Y114.338 E41.47397
G1 X92.846 Y114.156 E41.50160
G1 X90.740 Y112.880 E41.66615
G1 X90.407 Y112.634 E41.69378
G1 X88.565 Y110.998 E41.85832
G1 X88.282 Y110.696 E41.88596
G1 X86.928 Y108.961 E42.03301
G1 X86.706 Y108.853 E42.04954
G1 X86.099 Y108.853 E42.09009
G1 X85.922 Y108.758 E42.10350
G1 X85.088 Y108.652 E42.15965
G1 X84.556 Y108.518 E42.19631
G1 X83.080 Y107.950 E42.30195
G1 X82.595 Y107.693 E42.33860
G1 X81.297 Y106.790 E42.44424
G1 X80.888 Y106.425 E42.48089
G1 X79.842 Y105.238 E42.58654
G1 X79.532 Y104.786 E42.62319
G1 X78.800 Y103.384 E42.72883
G1 X78.606 Y102.871 E42.76549
G1 X78.229 Y101.335 E42.87112
G1 X78.163 Y100.791 E42.90778
G1 X78.163 Y99.209 E43.01341
G1 X78.229 Y98.665 E43.05006
G1 X78.606 Y97.129 E43.15571
G1 X78.799 Y96.616 E43.19236
G1 X79.532 Y95.214 E43.29801
G1 X79.842 Y94.762 E43.33466
G1 X80.888 Y93.575 E43.44030
G1 X81.297 Y93.210 E43.47695
G1 X81.485 Y93.079 E43.49227
