(Exported by FreeCAD)
(Post Processor: linuxcnc_post)
(Output Time:2018-07-28 20:44:31.875998)
(begin preamble)
G17 G54 G40 G49 G80 G90
G21
(begin operation: T2: 250 End Mill)
(machine: not set, mm/min)
(T2: 250 End Mill)
M6 T2
M3 S24000
(finish operation: T2: 250 End Mill)
(begin operation: MillFace)
(machine: not set, mm/min)
(MillFace)
G0 Z6.000
G0 X-8.902 Y15.371
G0 Z4.000
G1 X-8.902 Y15.371 Z0.700 F900.000
G3 X-15.350 Y8.923 Z0.700 I8.822 J-15.270 F42000.000
G1 X-8.902 Y15.371 Z0.700 F42000.000
G2 X-2.160 Y17.623 Z0.700 I8.817 J-15.179 F42000.000
G1 X-17.632 Y2.151 Z0.700 F42000.000
G3 X-17.608 Y-2.316 Z0.700 I17.353 J-2.142 F42000.000
G1 X2.312 Y17.604 Z0.700 F42000.000
G2 X5.938 Y16.741 Z0.700 I-2.066 J-16.715 F42000.000
G1 X-16.735 Y-5.932 Z0.700 F42000.000
G3 X-15.308 Y-8.996 Z0.700 I15.252 J5.239 F42000.000
G1 X8.999 Y15.311 Z0.700 F42000.000
G2 X11.615 Y13.437 Z0.700 I-8.586 J-14.749 F42000.000
G1 X-13.433 Y-11.611 Z0.700 F42000.000
G3 X-11.150 Y-13.818 Z0.700 I12.138 J10.272 F42000.000
G1 X13.823 Y11.155 Z0.700 F42000.000
G2 X15.618 Y8.460 Z0.700 I-13.579 J-10.986 F42000.000
G1 X-8.455 Y-15.613 Z0.700 F42000.000
G3 X-5.298 Y-16.946 Z0.700 I7.829 J14.130 F42000.000
G1 X16.951 Y5.303 Z0.700 F42000.000
G2 X17.688 Y1.549 Z0.700 I-16.053 J-5.099 F42000.000
G1 X-1.555 Y-17.693 Z0.700 F42000.000
G3 X3.156 Y-17.473 Z0.700 I1.559 J17.146 F42000.000
G1 X17.479 Y-3.149 Z0.700 F42000.000
G2 X12.366 Y-12.753 Z0.700 I-17.445 J3.126 F42000.000
G1 X12.366 Y-12.753 Z0.400 F900.000
G3 X17.479 Y-3.149 Z0.400 I-12.332 J12.729 F42000.000
G1 X3.156 Y-17.473 Z0.400 F42000.000
G2 X-1.555 Y-17.693 Z0.400 I-3.151 J16.926 F42000.000
G1 X17.688 Y1.549 Z0.400 F42000.000
G3 X16.951 Y5.303 Z0.400 I-16.789 J-1.346 F42000.000
G1 X-5.298 Y-16.946 Z0.400 F42000.000
G2 X-8.455 Y-15.613 Z0.400 I4.672 J15.463 F42000.000
G1 X15.618 Y8.460 Z0.400 F42000.000
G3 X13.823 Y11.155 Z0.400 I-15.374 J-8.290 F42000.000
G1 X-11.150 Y-13.818 Z0.400 F42000.000
G2 X-13.433 Y-11.611 Z0.400 I9.855 J12.479 F42000.000
G1 X11.615 Y13.437 Z0.400 F42000.000
G3 X8.999 Y15.311 Z0.400 I-11.202 J-12.875 F42000.000
G1 X-15.308 Y-8.996 Z0.400 F42000.000
G2 X-16.735 Y-5.932 Z0.400 I13.826 J8.302 F42000.000
G1 X5.938 Y16.741 Z0.400 F42000.000
G3 X2.312 Y17.604 Z0.400 I-5.692 J-15.851 F42000.000
G1 X-17.608 Y-2.316 Z0.400 F42000.000
G2 X-17.632 Y2.151 Z0.400 I17.330 J2.325 F42000.000
G1 X-2.160 Y17.623 Z0.400 F42000.000
G3 X-8.902 Y15.371 Z0.400 I2.075 J-17.431 F42000.000
G1 X-15.350 Y8.923 Z0.400 F42000.000
G2 X-8.902 Y15.371 Z0.400 I15.270 J-8.822 F42000.000
G1 X-8.902 Y15.371 Z0.100 F900.000
G3 X-15.350 Y8.923 Z0.100 I8.822 J-15.270 F42000.000
G1 X-8.902 Y15.371 Z0.100 F42000.000
G2 X-2.160 Y17.623 Z0.100 I8.817 J-15.179 F42000.000
G1 X-17.632 Y2.151 Z0.100 F42000.000
G3 X-17.608 Y-2.316 Z0.100 I17.353 J-2.142 F42000.000
G1 X2.312 Y17.604 Z0.100 F42000.000
G2 X5.938 Y16.741 Z0.100 I-2.066 J-16.715 F42000.000
G1 X-16.735 Y-5.932 Z0.100 F42000.000
G3 X-15.308 Y-8.996 Z0.100 I15.252 J5.239 F42000.000
G1 X8.999 Y15.311 Z0.100 F42000.000
G2 X11.615 Y13.437 Z0.100 I-8.586 J-14.749 F42000.000
G1 X-13.433 Y-11.611 Z0.100 F42000.000
G3 X-11.150 Y-13.818 Z0.100 I12.138 J10.272 F42000.000
G1 X13.823 Y11.155 Z0.100 F42000.000
G2 X15.618 Y8.460 Z0.100 I-13.579 J-10.986 F42000.000
G1 X-8.455 Y-15.613 Z0.100 F42000.000
G3 X-5.298 Y-16.946 Z0.100 I7.829 J14.130 F42000.000
G1 X16.951 Y5.303 Z0.100 F42000.000
G2 X17.688 Y1.549 Z0.100 I-16.053 J-5.099 F42000.000
G1 X-1.555 Y-17.693 Z0.100 F42000.000
G3 X3.156 Y-17.473 Z0.100 I1.559 J17.146 F42000.000
G1 X17.479 Y-3.149 Z0.100 F42000.000
G2 X12.366 Y-12.753 Z0.100 I-17.445 J3.126 F42000.000
G1 X12.366 Y-12.753 Z0.000 F900.000
G3 X17.479 Y-3.149 Z0.000 I-12.332 J12.729 F42000.000
G1 X3.156 Y-17.473 Z0.000 F42000.000
G2 X-1.555 Y-17.693 Z0.000 I-3.151 J16.926 F42000.000
G1 X17.688 Y1.549 Z0.000 F42000.000
G3 X16.951 Y5.303 Z0.000 I-16.789 J-1.346 F42000.000
G1 X-5.298 Y-16.946 Z0.000 F42000.000
G2 X-8.455 Y-15.613 Z0.000 I4.672 J15.463 F42000.000
G1 X15.618 Y8.460 Z0.000 F42000.000
G3 X13.823 Y11.155 Z0.000 I-15.374 J-8.290 F42000.000
G1 X-11.150 Y-13.818 Z0.000 F42000.000
G2 X-13.433 Y-11.611 Z0.000 I9.855 J12.479 F42000.000
G1 X11.615 Y13.437 Z0.000 F42000.000
G3 X8.999 Y15.311 Z0.000 I-11.202 J-12.875 F42000.000
G1 X-15.308 Y-8.996 Z0.000 F42000.000
G2 X-16.735 Y-5.932 Z0.000 I13.826 J8.302 F42000.000
G1 X5.938 Y16.741 Z0.000 F42000.000
G3 X2.312 Y17.604 Z0.000 I-5.692 J-15.851 F42000.000
G1 X-17.608 Y-2.316 Z0.000 F42000.000
G2 X-17.632 Y2.151 Z0.000 I17.330 J2.325 F42000.000
G1 X-2.160 Y17.623 Z0.000 F42000.000
G3 X-8.902 Y15.371 Z0.000 I2.075 J-17.431 F42000.000
G1 X-15.350 Y8.923 Z0.000 F42000.000
G2 X-8.902 Y15.371 Z0.000 I15.270 J-8.822 F42000.000
G0 Z6.000
(finish operation: MillFace)
(begin postamble)
M05
G17 G54 G90 G80 G40
M2
