(Exported by FreeCAD)
(Post Processor: linuxcnc_post)
(Output Time:2018-09-29 18:37:38.888716)
(begin preamble)
G17 G54 G40 G49 G80 G90
G21
(begin operation: T1: 125 End Mill001)
(machine: not set, mm/min)
(T1: 125 End Mill001)
M6 T1
M3 S16000
G4 P10
(finish operation: T1: 125 End Mill001)
(begin operation: Contour)
(machine: not set, mm/min)
(Contour)
(Compensated Tool Path. Diameter: 3.17)
G0 Z5.000
G0 X4.305 Y14.567
G0 Z3.000
G1 X4.305 Y14.567 Z-0.500 F36.000
G2 X4.543 Y13.594 Z-0.500 I-4.307 J-1.569 F360.000
G2 X4.583 Y11.711 Z-0.500 I-12.239 J-1.199 F360.000
G2 X12.477 Y1.638 Z-0.500 I-4.554 J-11.699 F360.000
G2 X4.585 Y-11.715 Z-0.500 I-12.467 J-1.640 F360.000
G1 X4.585 Y-13.000 Z-0.500 F360.000
G2 X-4.543 Y-13.594 Z-0.500 I-4.584 J0.002 F360.000
G2 X-4.583 Y-11.711 Z-0.500 I12.239 J1.199 F360.000
G2 X-4.585 Y11.715 Z-0.500 I4.574 J11.714 F360.000
G1 X-4.585 Y13.000 Z-0.500 F360.000
G2 X4.305 Y14.567 Z-0.500 I4.584 J-0.002 F360.000
G1 X4.305 Y14.567 Z-1.000 F36.000
G2 X4.543 Y13.594 Z-1.000 I-4.307 J-1.569 F360.000
G2 X4.583 Y11.711 Z-1.000 I-12.239 J-1.199 F360.000
G2 X12.477 Y1.638 Z-1.000 I-4.554 J-11.699 F360.000
G2 X4.585 Y-11.715 Z-1.000 I-12.467 J-1.640 F360.000
G1 X4.585 Y-13.000 Z-1.000 F360.000
G2 X-4.543 Y-13.594 Z-1.000 I-4.584 J0.002 F360.000
G2 X-4.583 Y-11.711 Z-1.000 I12.239 J1.199 F360.000
G2 X-4.585 Y11.715 Z-1.000 I4.574 J11.714 F360.000
G1 X-4.585 Y13.000 Z-1.000 F360.000
G2 X4.305 Y14.567 Z-1.000 I4.584 J-0.002 F360.000
G1 X4.305 Y14.567 Z-1.500 F36.000
G2 X4.543 Y13.594 Z-1.500 I-4.307 J-1.569 F360.000
G2 X4.583 Y11.711 Z-1.500 I-12.239 J-1.199 F360.000
G2 X12.477 Y1.638 Z-1.500 I-4.554 J-11.699 F360.000
G2 X4.585 Y-11.715 Z-1.500 I-12.467 J-1.640 F360.000
G1 X4.585 Y-13.000 Z-1.500 F360.000
G2 X-4.543 Y-13.594 Z-1.500 I-4.584 J0.002 F360.000
G2 X-4.583 Y-11.711 Z-1.500 I12.239 J1.199 F360.000
G2 X-4.585 Y11.715 Z-1.500 I4.574 J11.714 F360.000
G1 X-4.585 Y13.000 Z-1.500 F360.000
G2 X4.305 Y14.567 Z-1.500 I4.584 J-0.002 F360.000
G1 X4.305 Y14.567 Z-2.000 F36.000
G2 X4.543 Y13.594 Z-2.000 I-4.307 J-1.569 F360.000
G2 X4.583 Y11.711 Z-2.000 I-12.239 J-1.199 F360.000
G2 X12.477 Y1.638 Z-2.000 I-4.554 J-11.699 F360.000
G2 X4.585 Y-11.715 Z-2.000 I-12.467 J-1.640 F360.000
G1 X4.585 Y-13.000 Z-2.000 F360.000
G2 X-4.543 Y-13.594 Z-2.000 I-4.584 J0.002 F360.000
G2 X-4.583 Y-11.711 Z-2.000 I12.239 J1.199 F360.000
G2 X-4.585 Y11.715 Z-2.000 I4.574 J11.714 F360.000
G1 X-4.585 Y13.000 Z-2.000 F360.000
G2 X4.305 Y14.567 Z-2.000 I4.584 J-0.002 F360.000
G1 X4.305 Y14.567 Z-2.500 F36.000
G2 X4.543 Y13.594 Z-2.500 I-4.307 J-1.569 F360.000
G2 X4.583 Y11.711 Z-2.500 I-12.239 J-1.199 F360.000
G2 X12.477 Y1.638 Z-2.500 I-4.554 J-11.699 F360.000
G2 X4.585 Y-11.715 Z-2.500 I-12.467 J-1.640 F360.000
G1 X4.585 Y-13.000 Z-2.500 F360.000
G2 X-4.543 Y-13.594 Z-2.500 I-4.584 J0.002 F360.000
G2 X-4.583 Y-11.711 Z-2.500 I12.239 J1.199 F360.000
G2 X-4.585 Y11.715 Z-2.500 I4.574 J11.714 F360.000
G1 X-4.585 Y13.000 Z-2.500 F360.000
G2 X4.305 Y14.567 Z-2.500 I4.584 J-0.002 F360.000
G1 X4.305 Y14.567 Z-3.000 F36.000
G2 X4.543 Y13.594 Z-3.000 I-4.307 J-1.569 F360.000
G2 X4.583 Y11.711 Z-3.000 I-12.239 J-1.199 F360.000
G2 X12.477 Y1.638 Z-3.000 I-4.554 J-11.699 F360.000
G2 X4.585 Y-11.715 Z-3.000 I-12.467 J-1.640 F360.000
G1 X4.585 Y-13.000 Z-3.000 F360.000
G2 X-4.543 Y-13.594 Z-3.000 I-4.584 J0.002 F360.000
G2 X-4.583 Y-11.711 Z-3.000 I12.239 J1.199 F360.000
G2 X-4.585 Y11.715 Z-3.000 I4.574 J11.714 F360.000
G1 X-4.585 Y13.000 Z-3.000 F360.000
G2 X4.305 Y14.567 Z-3.000 I4.584 J-0.002 F360.000
G1 X4.305 Y14.567 Z-3.500 F36.000
G2 X4.543 Y13.594 Z-3.500 I-4.307 J-1.569 F360.000
G2 X4.583 Y11.711 Z-3.500 I-12.239 J-1.199 F360.000
G2 X12.477 Y1.638 Z-3.500 I-4.554 J-11.699 F360.000
G2 X4.585 Y-11.715 Z-3.500 I-12.467 J-1.640 F360.000
G1 X4.585 Y-13.000 Z-3.500 F360.000
G2 X-4.543 Y-13.594 Z-3.500 I-4.584 J0.002 F360.000
G2 X-4.583 Y-11.711 Z-3.500 I12.239 J1.199 F360.000
G2 X-4.585 Y11.715 Z-3.500 I4.574 J11.714 F360.000
G1 X-4.585 Y13.000 Z-3.500 F360.000
G2 X4.305 Y14.567 Z-3.500 I4.584 J-0.002 F360.000
G1 X4.305 Y14.567 Z-4.000 F36.000
G2 X4.543 Y13.594 Z-4.000 I-4.307 J-1.569 F360.000
G2 X4.583 Y11.711 Z-4.000 I-12.239 J-1.199 F360.000
G2 X12.477 Y1.638 Z-4.000 I-4.554 J-11.699 F360.000
G2 X4.585 Y-11.715 Z-4.000 I-12.467 J-1.640 F360.000
G1 X4.585 Y-13.000 Z-4.000 F360.000
G2 X-4.543 Y-13.594 Z-4.000 I-4.584 J0.002 F360.000
G2 X-4.583 Y-11.711 Z-4.000 I12.239 J1.199 F360.000
G2 X-4.585 Y11.715 Z-4.000 I4.574 J11.714 F360.000
G1 X-4.585 Y13.000 Z-4.000 F360.000
G2 X4.305 Y14.567 Z-4.000 I4.584 J-0.002 F360.000
G1 X4.305 Y14.567 Z-4.500 F36.000
G2 X4.543 Y13.594 Z-4.500 I-4.307 J-1.569 F360.000
G2 X4.583 Y11.711 Z-4.500 I-12.239 J-1.199 F360.000
G2 X12.477 Y1.638 Z-4.500 I-4.554 J-11.699 F360.000
G2 X4.585 Y-11.715 Z-4.500 I-12.467 J-1.640 F360.000
G1 X4.585 Y-13.000 Z-4.500 F360.000
G2 X-4.543 Y-13.594 Z-4.500 I-4.584 J0.002 F360.000
G2 X-4.583 Y-11.711 Z-4.500 I12.239 J1.199 F360.000
G2 X-4.585 Y11.715 Z-4.500 I4.574 J11.714 F360.000
G1 X-4.585 Y13.000 Z-4.500 F360.000
G2 X4.305 Y14.567 Z-4.500 I4.584 J-0.002 F360.000
G1 X4.305 Y14.567 Z-5.000 F36.000
G2 X4.543 Y13.594 Z-5.000 I-4.307 J-1.569 F360.000
G2 X4.583 Y11.711 Z-5.000 I-12.239 J-1.199 F360.000
G2 X12.477 Y1.638 Z-5.000 I-4.554 J-11.699 F360.000
G2 X4.585 Y-11.715 Z-5.000 I-12.467 J-1.640 F360.000
G1 X4.585 Y-13.000 Z-5.000 F360.000
G2 X-4.543 Y-13.594 Z-5.000 I-4.584 J0.002 F360.000
G2 X-4.583 Y-11.711 Z-5.000 I12.239 J1.199 F360.000
G2 X-4.585 Y11.715 Z-5.000 I4.574 J11.714 F360.000
G1 X-4.585 Y13.000 Z-5.000 F360.000
G2 X4.305 Y14.567 Z-5.000 I4.584 J-0.002 F360.000
G1 X4.305 Y14.567 Z-5.500 F36.000
G2 X4.543 Y13.594 Z-5.500 I-4.307 J-1.569 F360.000
G2 X4.583 Y11.711 Z-5.500 I-12.239 J-1.199 F360.000
G2 X12.477 Y1.638 Z-5.500 I-4.554 J-11.699 F360.000
G2 X4.585 Y-11.715 Z-5.500 I-12.467 J-1.640 F360.000
G1 X4.585 Y-13.000 Z-5.500 F360.000
G2 X-4.543 Y-13.594 Z-5.500 I-4.584 J0.002 F360.000
G2 X-4.583 Y-11.711 Z-5.500 I12.239 J1.199 F360.000
G2 X-4.585 Y11.715 Z-5.500 I4.574 J11.714 F360.000
G1 X-4.585 Y13.000 Z-5.500 F360.000
G2 X4.305 Y14.567 Z-5.500 I4.584 J-0.002 F360.000
G1 X4.305 Y14.567 Z-6.000 F36.000
G2 X4.543 Y13.594 Z-6.000 I-4.307 J-1.569 F360.000
G2 X4.583 Y11.711 Z-6.000 I-12.239 J-1.199 F360.000
G2 X12.477 Y1.638 Z-6.000 I-4.554 J-11.699 F360.000
G2 X4.585 Y-11.715 Z-6.000 I-12.467 J-1.640 F360.000
G1 X4.585 Y-13.000 Z-6.000 F360.000
G2 X-4.543 Y-13.594 Z-6.000 I-4.584 J0.002 F360.000
G2 X-4.583 Y-11.711 Z-6.000 I12.239 J1.199 F360.000
G2 X-4.585 Y11.715 Z-6.000 I4.574 J11.714 F360.000
G1 X-4.585 Y13.000 Z-6.000 F360.000
G2 X4.305 Y14.567 Z-6.000 I4.584 J-0.002 F360.000
G1 X4.305 Y14.567 Z-6.500 F36.000
G2 X4.543 Y13.594 Z-6.500 I-4.307 J-1.569 F360.000
G2 X4.583 Y11.711 Z-6.500 I-12.239 J-1.199 F360.000
G2 X12.477 Y1.638 Z-6.500 I-4.554 J-11.699 F360.000
G2 X4.585 Y-11.715 Z-6.500 I-12.467 J-1.640 F360.000
G1 X4.585 Y-13.000 Z-6.500 F360.000
G2 X-4.543 Y-13.594 Z-6.500 I-4.584 J0.002 F360.000
G2 X-4.583 Y-11.711 Z-6.500 I12.239 J1.199 F360.000
G2 X-4.585 Y11.715 Z-6.500 I4.574 J11.714 F360.000
G1 X-4.585 Y13.000 Z-6.500 F360.000
G2 X4.305 Y14.567 Z-6.500 I4.584 J-0.002 F360.000
G1 X4.305 Y14.567 Z-7.000 F36.000
G2 X4.543 Y13.594 Z-7.000 I-4.307 J-1.569 F360.000
G2 X4.583 Y11.711 Z-7.000 I-12.239 J-1.199 F360.000
G2 X12.477 Y1.638 Z-7.000 I-4.554 J-11.699 F360.000
G2 X4.585 Y-11.715 Z-7.000 I-12.467 J-1.640 F360.000
G1 X4.585 Y-13.000 Z-7.000 F360.000
G2 X-4.543 Y-13.594 Z-7.000 I-4.584 J0.002 F360.000
G2 X-4.583 Y-11.711 Z-7.000 I12.239 J1.199 F360.000
G2 X-4.585 Y11.715 Z-7.000 I4.574 J11.714 F360.000
G1 X-4.585 Y13.000 Z-7.000 F360.000
G2 X4.305 Y14.567 Z-7.000 I4.584 J-0.002 F360.000
G1 X4.305 Y14.567 Z-7.500 F36.000
G2 X4.543 Y13.594 Z-7.500 I-4.307 J-1.569 F360.000
G2 X4.583 Y11.711 Z-7.500 I-12.239 J-1.199 F360.000
G2 X12.477 Y1.638 Z-7.500 I-4.554 J-11.699 F360.000
G2 X4.585 Y-11.715 Z-7.500 I-12.467 J-1.640 F360.000
G1 X4.585 Y-13.000 Z-7.500 F360.000
G2 X-4.543 Y-13.594 Z-7.500 I-4.584 J0.002 F360.000
G2 X-4.583 Y-11.711 Z-7.500 I12.239 J1.199 F360.000
G2 X-4.585 Y11.715 Z-7.500 I4.574 J11.714 F360.000
G1 X-4.585 Y13.000 Z-7.500 F360.000
G2 X4.305 Y14.567 Z-7.500 I4.584 J-0.002 F360.000
G1 X4.305 Y14.567 Z-8.000 F36.000
G2 X4.543 Y13.594 Z-8.000 I-4.307 J-1.569 F360.000
G2 X4.583 Y11.711 Z-8.000 I-12.239 J-1.199 F360.000
G2 X12.477 Y1.638 Z-8.000 I-4.554 J-11.699 F360.000
G2 X4.585 Y-11.715 Z-8.000 I-12.467 J-1.640 F360.000
G1 X4.585 Y-13.000 Z-8.000 F360.000
G2 X-4.543 Y-13.594 Z-8.000 I-4.584 J0.002 F360.000
G2 X-4.583 Y-11.711 Z-8.000 I12.239 J1.199 F360.000
G2 X-4.585 Y11.715 Z-8.000 I4.574 J11.714 F360.000
G1 X-4.585 Y13.000 Z-8.000 F360.000
G2 X4.305 Y14.567 Z-8.000 I4.584 J-0.002 F360.000
G1 X4.305 Y14.567 Z-8.500 F36.000
G2 X4.543 Y13.594 Z-8.500 I-4.307 J-1.569 F360.000
G2 X4.583 Y11.711 Z-8.500 I-12.239 J-1.199 F360.000
G2 X12.477 Y1.638 Z-8.500 I-4.554 J-11.699 F360.000
G2 X4.585 Y-11.715 Z-8.500 I-12.467 J-1.640 F360.000
G1 X4.585 Y-13.000 Z-8.500 F360.000
G2 X-4.543 Y-13.594 Z-8.500 I-4.584 J0.002 F360.000
G2 X-4.583 Y-11.711 Z-8.500 I12.239 J1.199 F360.000
G2 X-4.585 Y11.715 Z-8.500 I4.574 J11.714 F360.000
G1 X-4.585 Y13.000 Z-8.500 F360.000
G2 X4.305 Y14.567 Z-8.500 I4.584 J-0.002 F360.000
G1 X4.305 Y14.567 Z-9.000 F36.000
G2 X4.543 Y13.594 Z-9.000 I-4.307 J-1.569 F360.000
G2 X4.583 Y11.711 Z-9.000 I-12.239 J-1.199 F360.000
G2 X12.477 Y1.638 Z-9.000 I-4.554 J-11.699 F360.000
G2 X4.585 Y-11.715 Z-9.000 I-12.467 J-1.640 F360.000
G1 X4.585 Y-13.000 Z-9.000 F360.000
G2 X-4.543 Y-13.594 Z-9.000 I-4.584 J0.002 F360.000
G2 X-4.583 Y-11.711 Z-9.000 I12.239 J1.199 F360.000
G2 X-4.585 Y11.715 Z-9.000 I4.574 J11.714 F360.000
G1 X-4.585 Y13.000 Z-9.000 F360.000
G2 X4.305 Y14.567 Z-9.000 I4.584 J-0.002 F360.000
G1 X4.305 Y14.567 Z-9.500 F36.000
G2 X4.543 Y13.594 Z-9.500 I-4.307 J-1.569 F360.000
G2 X4.583 Y11.711 Z-9.500 I-12.239 J-1.199 F360.000
G2 X12.477 Y1.638 Z-9.500 I-4.554 J-11.699 F360.000
G2 X4.585 Y-11.715 Z-9.500 I-12.467 J-1.640 F360.000
G1 X4.585 Y-13.000 Z-9.500 F360.000
G2 X-4.543 Y-13.594 Z-9.500 I-4.584 J0.002 F360.000
G2 X-4.583 Y-11.711 Z-9.500 I12.239 J1.199 F360.000
G2 X-4.585 Y11.715 Z-9.500 I4.574 J11.714 F360.000
G1 X-4.585 Y13.000 Z-9.500 F360.000
G2 X4.305 Y14.567 Z-9.500 I4.584 J-0.002 F360.000
G1 X4.305 Y14.567 Z-10.000 F36.000
G2 X4.543 Y13.594 Z-10.000 I-4.307 J-1.569 F360.000
G2 X4.583 Y11.711 Z-10.000 I-12.239 J-1.199 F360.000
G2 X12.477 Y1.638 Z-10.000 I-4.554 J-11.699 F360.000
G2 X4.585 Y-11.715 Z-10.000 I-12.467 J-1.640 F360.000
G1 X4.585 Y-13.000 Z-10.000 F360.000
G2 X-4.543 Y-13.594 Z-10.000 I-4.584 J0.002 F360.000
G2 X-4.583 Y-11.711 Z-10.000 I12.239 J1.199 F360.000
G2 X-4.585 Y11.715 Z-10.000 I4.574 J11.714 F360.000
G1 X-4.585 Y13.000 Z-10.000 F360.000
G2 X4.305 Y14.567 Z-10.000 I4.584 J-0.002 F360.000
G1 X4.305 Y14.567 Z-10.500 F36.000
G2 X4.543 Y13.594 Z-10.500 I-4.307 J-1.569 F360.000
G2 X4.583 Y11.711 Z-10.500 I-12.239 J-1.199 F360.000
G2 X12.477 Y1.638 Z-10.500 I-4.554 J-11.699 F360.000
G2 X4.585 Y-11.715 Z-10.500 I-12.467 J-1.640 F360.000
G1 X4.585 Y-13.000 Z-10.500 F360.000
G2 X-4.543 Y-13.594 Z-10.500 I-4.584 J0.002 F360.000
G2 X-4.583 Y-11.711 Z-10.500 I12.239 J1.199 F360.000
G2 X-4.585 Y11.715 Z-10.500 I4.574 J11.714 F360.000
G1 X-4.585 Y13.000 Z-10.500 F360.000
G2 X4.305 Y14.567 Z-10.500 I4.584 J-0.002 F360.000
G1 X4.305 Y14.567 Z-11.000 F36.000
G2 X4.543 Y13.594 Z-11.000 I-4.307 J-1.569 F360.000
G2 X4.583 Y11.711 Z-11.000 I-12.239 J-1.199 F360.000
G2 X12.477 Y1.638 Z-11.000 I-4.554 J-11.699 F360.000
G2 X4.585 Y-11.715 Z-11.000 I-12.467 J-1.640 F360.000
G1 X4.585 Y-13.000 Z-11.000 F360.000
G2 X-4.543 Y-13.594 Z-11.000 I-4.584 J0.002 F360.000
G2 X-4.583 Y-11.711 Z-11.000 I12.239 J1.199 F360.000
G2 X-4.585 Y11.715 Z-11.000 I4.574 J11.714 F360.000
G1 X-4.585 Y13.000 Z-11.000 F360.000
G2 X4.305 Y14.567 Z-11.000 I4.584 J-0.002 F360.000
G0 Z5.000
(finish operation: Contour)
(begin postamble)
M05
G17 G54 G90 G80 G40
M2
