(Exported by FreeCAD)
(Post Processor: linuxcnc_post)
(Output Time:2018-09-29 18:37:55.511133)
(begin preamble)
G17 G54 G40 G49 G80 G90
G21
(begin operation: T1: 125 End Mill)
(machine: not set, mm/min)
(T1: 125 End Mill)
M6 T1
M3 S16000
G4 P10
(finish operation: T1: 125 End Mill)
(begin operation: Pocket_Shape)
(machine: not set, mm/min)
(Pocket_Shape)
G0 Z5.000
G0 X0.430 Y4.680
G0 Z3.000
G1 X0.430 Y4.680 Z-0.350 F36.000
G2 X0.517 Y3.930 Z-0.350 I-0.430 J-0.430 F360.000
G2 X-0.320 Y3.733 Z-0.350 I-0.517 J0.320 F360.000
G2 X-0.517 Y4.570 Z-0.350 I0.320 J0.517 F360.000
G2 X0.430 Y4.680 Z-0.350 I0.517 J-0.320 F360.000
G1 X0.430 Y4.680 Z-0.700 F36.000
G2 X0.517 Y3.930 Z-0.700 I-0.430 J-0.430 F360.000
G2 X-0.320 Y3.733 Z-0.700 I-0.517 J0.320 F360.000
G2 X-0.517 Y4.570 Z-0.700 I0.320 J0.517 F360.000
G2 X0.430 Y4.680 Z-0.700 I0.517 J-0.320 F360.000
G1 X0.430 Y4.680 Z-1.050 F36.000
G2 X0.517 Y3.930 Z-1.050 I-0.430 J-0.430 F360.000
G2 X-0.320 Y3.733 Z-1.050 I-0.517 J0.320 F360.000
G2 X-0.517 Y4.570 Z-1.050 I0.320 J0.517 F360.000
G2 X0.430 Y4.680 Z-1.050 I0.517 J-0.320 F360.000
G1 X0.430 Y4.680 Z-1.400 F36.000
G2 X0.517 Y3.930 Z-1.400 I-0.430 J-0.430 F360.000
G2 X-0.320 Y3.733 Z-1.400 I-0.517 J0.320 F360.000
G2 X-0.517 Y4.570 Z-1.400 I0.320 J0.517 F360.000
G2 X0.430 Y4.680 Z-1.400 I0.517 J-0.320 F360.000
G1 X0.430 Y4.680 Z-1.750 F36.000
G2 X0.517 Y3.930 Z-1.750 I-0.430 J-0.430 F360.000
G2 X-0.320 Y3.733 Z-1.750 I-0.517 J0.320 F360.000
G2 X-0.517 Y4.570 Z-1.750 I0.320 J0.517 F360.000
G2 X0.430 Y4.680 Z-1.750 I0.517 J-0.320 F360.000
G1 X0.430 Y4.680 Z-2.100 F36.000
G2 X0.517 Y3.930 Z-2.100 I-0.430 J-0.430 F360.000
G2 X-0.320 Y3.733 Z-2.100 I-0.517 J0.320 F360.000
G2 X-0.517 Y4.570 Z-2.100 I0.320 J0.517 F360.000
G2 X0.430 Y4.680 Z-2.100 I0.517 J-0.320 F360.000
G1 X0.430 Y4.680 Z-2.450 F36.000
G2 X0.517 Y3.930 Z-2.450 I-0.430 J-0.430 F360.000
G2 X-0.320 Y3.733 Z-2.450 I-0.517 J0.320 F360.000
G2 X-0.517 Y4.570 Z-2.450 I0.320 J0.517 F360.000
G2 X0.430 Y4.680 Z-2.450 I0.517 J-0.320 F360.000
G1 X0.430 Y4.680 Z-2.800 F36.000
G2 X0.517 Y3.930 Z-2.800 I-0.430 J-0.430 F360.000
G2 X-0.320 Y3.733 Z-2.800 I-0.517 J0.320 F360.000
G2 X-0.517 Y4.570 Z-2.800 I0.320 J0.517 F360.000
G2 X0.430 Y4.680 Z-2.800 I0.517 J-0.320 F360.000
G1 X0.430 Y4.680 Z-3.150 F36.000
G2 X0.517 Y3.930 Z-3.150 I-0.430 J-0.430 F360.000
G2 X-0.320 Y3.733 Z-3.150 I-0.517 J0.320 F360.000
G2 X-0.517 Y4.570 Z-3.150 I0.320 J0.517 F360.000
G2 X0.430 Y4.680 Z-3.150 I0.517 J-0.320 F360.000
G1 X0.430 Y4.680 Z-3.500 F36.000
G2 X0.517 Y3.930 Z-3.500 I-0.430 J-0.430 F360.000
G2 X-0.320 Y3.733 Z-3.500 I-0.517 J0.320 F360.000
G2 X-0.517 Y4.570 Z-3.500 I0.320 J0.517 F360.000
G2 X0.430 Y4.680 Z-3.500 I0.517 J-0.320 F360.000
G1 X0.430 Y4.680 Z-3.850 F36.000
G2 X0.517 Y3.930 Z-3.850 I-0.430 J-0.430 F360.000
G2 X-0.320 Y3.733 Z-3.850 I-0.517 J0.320 F360.000
G2 X-0.517 Y4.570 Z-3.850 I0.320 J0.517 F360.000
G2 X0.430 Y4.680 Z-3.850 I0.517 J-0.320 F360.000
G1 X0.430 Y4.680 Z-4.200 F36.000
G2 X0.517 Y3.930 Z-4.200 I-0.430 J-0.430 F360.000
G2 X-0.320 Y3.733 Z-4.200 I-0.517 J0.320 F360.000
G2 X-0.517 Y4.570 Z-4.200 I0.320 J0.517 F360.000
G2 X0.430 Y4.680 Z-4.200 I0.517 J-0.320 F360.000
G1 X0.430 Y4.680 Z-4.550 F36.000
G2 X0.517 Y3.930 Z-4.550 I-0.430 J-0.430 F360.000
G2 X-0.320 Y3.733 Z-4.550 I-0.517 J0.320 F360.000
G2 X-0.517 Y4.570 Z-4.550 I0.320 J0.517 F360.000
G2 X0.430 Y4.680 Z-4.550 I0.517 J-0.320 F360.000
G1 X0.430 Y4.680 Z-4.900 F36.000
G2 X0.517 Y3.930 Z-4.900 I-0.430 J-0.430 F360.000
G2 X-0.320 Y3.733 Z-4.900 I-0.517 J0.320 F360.000
G2 X-0.517 Y4.570 Z-4.900 I0.320 J0.517 F360.000
G2 X0.430 Y4.680 Z-4.900 I0.517 J-0.320 F360.000
G1 X0.430 Y4.680 Z-5.250 F36.000
G2 X0.517 Y3.930 Z-5.250 I-0.430 J-0.430 F360.000
G2 X-0.320 Y3.733 Z-5.250 I-0.517 J0.320 F360.000
G2 X-0.517 Y4.570 Z-5.250 I0.320 J0.517 F360.000
G2 X0.430 Y4.680 Z-5.250 I0.517 J-0.320 F360.000
G1 X0.430 Y4.680 Z-5.600 F36.000
G2 X0.517 Y3.930 Z-5.600 I-0.430 J-0.430 F360.000
G2 X-0.320 Y3.733 Z-5.600 I-0.517 J0.320 F360.000
G2 X-0.517 Y4.570 Z-5.600 I0.320 J0.517 F360.000
G2 X0.430 Y4.680 Z-5.600 I0.517 J-0.320 F360.000
G1 X0.430 Y4.680 Z-5.950 F36.000
G2 X0.517 Y3.930 Z-5.950 I-0.430 J-0.430 F360.000
G2 X-0.320 Y3.733 Z-5.950 I-0.517 J0.320 F360.000
G2 X-0.517 Y4.570 Z-5.950 I0.320 J0.517 F360.000
G2 X0.430 Y4.680 Z-5.950 I0.517 J-0.320 F360.000
G1 X0.430 Y4.680 Z-6.300 F36.000
G2 X0.517 Y3.930 Z-6.300 I-0.430 J-0.430 F360.000
G2 X-0.320 Y3.733 Z-6.300 I-0.517 J0.320 F360.000
G2 X-0.517 Y4.570 Z-6.300 I0.320 J0.517 F360.000
G2 X0.430 Y4.680 Z-6.300 I0.517 J-0.320 F360.000
G1 X0.430 Y4.680 Z-6.650 F36.000
G2 X0.517 Y3.930 Z-6.650 I-0.430 J-0.430 F360.000
G2 X-0.320 Y3.733 Z-6.650 I-0.517 J0.320 F360.000
G2 X-0.517 Y4.570 Z-6.650 I0.320 J0.517 F360.000
G2 X0.430 Y4.680 Z-6.650 I0.517 J-0.320 F360.000
G1 X0.430 Y4.680 Z-7.000 F36.000
G2 X0.517 Y3.930 Z-7.000 I-0.430 J-0.430 F360.000
G2 X-0.320 Y3.733 Z-7.000 I-0.517 J0.320 F360.000
G2 X-0.517 Y4.570 Z-7.000 I0.320 J0.517 F360.000
G2 X0.430 Y4.680 Z-7.000 I0.517 J-0.320 F360.000
G1 X0.430 Y4.680 Z-7.350 F36.000
G2 X0.517 Y3.930 Z-7.350 I-0.430 J-0.430 F360.000
G2 X-0.320 Y3.733 Z-7.350 I-0.517 J0.320 F360.000
G2 X-0.517 Y4.570 Z-7.350 I0.320 J0.517 F360.000
G2 X0.430 Y4.680 Z-7.350 I0.517 J-0.320 F360.000
G1 X0.430 Y4.680 Z-7.700 F36.000
G2 X0.517 Y3.930 Z-7.700 I-0.430 J-0.430 F360.000
G2 X-0.320 Y3.733 Z-7.700 I-0.517 J0.320 F360.000
G2 X-0.517 Y4.570 Z-7.700 I0.320 J0.517 F360.000
G2 X0.430 Y4.680 Z-7.700 I0.517 J-0.320 F360.000
G1 X0.430 Y4.680 Z-8.050 F36.000
G2 X0.517 Y3.930 Z-8.050 I-0.430 J-0.430 F360.000
G2 X-0.320 Y3.733 Z-8.050 I-0.517 J0.320 F360.000
G2 X-0.517 Y4.570 Z-8.050 I0.320 J0.517 F360.000
G2 X0.430 Y4.680 Z-8.050 I0.517 J-0.320 F360.000
G1 X0.430 Y4.680 Z-8.400 F36.000
G2 X0.517 Y3.930 Z-8.400 I-0.430 J-0.430 F360.000
G2 X-0.320 Y3.733 Z-8.400 I-0.517 J0.320 F360.000
G2 X-0.517 Y4.570 Z-8.400 I0.320 J0.517 F360.000
G2 X0.430 Y4.680 Z-8.400 I0.517 J-0.320 F360.000
G1 X0.430 Y4.680 Z-8.750 F36.000
G2 X0.517 Y3.930 Z-8.750 I-0.430 J-0.430 F360.000
G2 X-0.320 Y3.733 Z-8.750 I-0.517 J0.320 F360.000
G2 X-0.517 Y4.570 Z-8.750 I0.320 J0.517 F360.000
G2 X0.430 Y4.680 Z-8.750 I0.517 J-0.320 F360.000
G1 X0.430 Y4.680 Z-9.100 F36.000
G2 X0.517 Y3.930 Z-9.100 I-0.430 J-0.430 F360.000
G2 X-0.320 Y3.733 Z-9.100 I-0.517 J0.320 F360.000
G2 X-0.517 Y4.570 Z-9.100 I0.320 J0.517 F360.000
G2 X0.430 Y4.680 Z-9.100 I0.517 J-0.320 F360.000
G1 X0.430 Y4.680 Z-9.200 F36.000
G2 X0.517 Y3.930 Z-9.200 I-0.430 J-0.430 F360.000
G2 X-0.320 Y3.733 Z-9.200 I-0.517 J0.320 F360.000
G2 X-0.517 Y4.570 Z-9.200 I0.320 J0.517 F360.000
G2 X0.430 Y4.680 Z-9.200 I0.517 J-0.320 F360.000
G0 Z5.000
G0 X-3.251 Y-1.695
G0 Z3.000
G1 X-3.251 Y-1.695 Z-0.350 F36.000
G2 X-3.163 Y-2.445 Z-0.350 I-0.430 J-0.430 F360.000
G2 X-4.001 Y-2.642 Z-0.350 I-0.517 J0.320 F360.000
G2 X-4.198 Y-1.805 Z-0.350 I0.320 J0.517 F360.000
G2 X-3.251 Y-1.695 Z-0.350 I0.517 J-0.320 F360.000
G1 X-3.251 Y-1.695 Z-0.700 F36.000
G2 X-3.163 Y-2.445 Z-0.700 I-0.430 J-0.430 F360.000
G2 X-4.001 Y-2.642 Z-0.700 I-0.517 J0.320 F360.000
G2 X-4.198 Y-1.805 Z-0.700 I0.320 J0.517 F360.000
G2 X-3.251 Y-1.695 Z-0.700 I0.517 J-0.320 F360.000
G1 X-3.251 Y-1.695 Z-1.050 F36.000
G2 X-3.163 Y-2.445 Z-1.050 I-0.430 J-0.430 F360.000
G2 X-4.001 Y-2.642 Z-1.050 I-0.517 J0.320 F360.000
G2 X-4.198 Y-1.805 Z-1.050 I0.320 J0.517 F360.000
G2 X-3.251 Y-1.695 Z-1.050 I0.517 J-0.320 F360.000
G1 X-3.251 Y-1.695 Z-1.400 F36.000
G2 X-3.163 Y-2.445 Z-1.400 I-0.430 J-0.430 F360.000
G2 X-4.001 Y-2.642 Z-1.400 I-0.517 J0.320 F360.000
G2 X-4.198 Y-1.805 Z-1.400 I0.320 J0.517 F360.000
G2 X-3.251 Y-1.695 Z-1.400 I0.517 J-0.320 F360.000
G1 X-3.251 Y-1.695 Z-1.750 F36.000
G2 X-3.163 Y-2.445 Z-1.750 I-0.430 J-0.430 F360.000
G2 X-4.001 Y-2.642 Z-1.750 I-0.517 J0.320 F360.000
G2 X-4.198 Y-1.805 Z-1.750 I0.320 J0.517 F360.000
G2 X-3.251 Y-1.695 Z-1.750 I0.517 J-0.320 F360.000
G1 X-3.251 Y-1.695 Z-2.100 F36.000
G2 X-3.163 Y-2.445 Z-2.100 I-0.430 J-0.430 F360.000
G2 X-4.001 Y-2.642 Z-2.100 I-0.517 J0.320 F360.000
G2 X-4.198 Y-1.805 Z-2.100 I0.320 J0.517 F360.000
G2 X-3.251 Y-1.695 Z-2.100 I0.517 J-0.320 F360.000
G1 X-3.251 Y-1.695 Z-2.450 F36.000
G2 X-3.163 Y-2.445 Z-2.450 I-0.430 J-0.430 F360.000
G2 X-4.001 Y-2.642 Z-2.450 I-0.517 J0.320 F360.000
G2 X-4.198 Y-1.805 Z-2.450 I0.320 J0.517 F360.000
G2 X-3.251 Y-1.695 Z-2.450 I0.517 J-0.320 F360.000
G1 X-3.251 Y-1.695 Z-2.800 F36.000
G2 X-3.163 Y-2.445 Z-2.800 I-0.430 J-0.430 F360.000
G2 X-4.001 Y-2.642 Z-2.800 I-0.517 J0.320 F360.000
G2 X-4.198 Y-1.805 Z-2.800 I0.320 J0.517 F360.000
G2 X-3.251 Y-1.695 Z-2.800 I0.517 J-0.320 F360.000
G1 X-3.251 Y-1.695 Z-3.150 F36.000
G2 X-3.163 Y-2.445 Z-3.150 I-0.430 J-0.430 F360.000
G2 X-4.001 Y-2.642 Z-3.150 I-0.517 J0.320 F360.000
G2 X-4.198 Y-1.805 Z-3.150 I0.320 J0.517 F360.000
G2 X-3.251 Y-1.695 Z-3.150 I0.517 J-0.320 F360.000
G1 X-3.251 Y-1.695 Z-3.500 F36.000
G2 X-3.163 Y-2.445 Z-3.500 I-0.430 J-0.430 F360.000
G2 X-4.001 Y-2.642 Z-3.500 I-0.517 J0.320 F360.000
G2 X-4.198 Y-1.805 Z-3.500 I0.320 J0.517 F360.000
G2 X-3.251 Y-1.695 Z-3.500 I0.517 J-0.320 F360.000
G1 X-3.251 Y-1.695 Z-3.850 F36.000
G2 X-3.163 Y-2.445 Z-3.850 I-0.430 J-0.430 F360.000
G2 X-4.001 Y-2.642 Z-3.850 I-0.517 J0.320 F360.000
G2 X-4.198 Y-1.805 Z-3.850 I0.320 J0.517 F360.000
G2 X-3.251 Y-1.695 Z-3.850 I0.517 J-0.320 F360.000
G1 X-3.251 Y-1.695 Z-4.200 F36.000
G2 X-3.163 Y-2.445 Z-4.200 I-0.430 J-0.430 F360.000
G2 X-4.001 Y-2.642 Z-4.200 I-0.517 J0.320 F360.000
G2 X-4.198 Y-1.805 Z-4.200 I0.320 J0.517 F360.000
G2 X-3.251 Y-1.695 Z-4.200 I0.517 J-0.320 F360.000
G1 X-3.251 Y-1.695 Z-4.550 F36.000
G2 X-3.163 Y-2.445 Z-4.550 I-0.430 J-0.430 F360.000
G2 X-4.001 Y-2.642 Z-4.550 I-0.517 J0.320 F360.000
G2 X-4.198 Y-1.805 Z-4.550 I0.320 J0.517 F360.000
G2 X-3.251 Y-1.695 Z-4.550 I0.517 J-0.320 F360.000
G1 X-3.251 Y-1.695 Z-4.900 F36.000
G2 X-3.163 Y-2.445 Z-4.900 I-0.430 J-0.430 F360.000
G2 X-4.001 Y-2.642 Z-4.900 I-0.517 J0.320 F360.000
G2 X-4.198 Y-1.805 Z-4.900 I0.320 J0.517 F360.000
G2 X-3.251 Y-1.695 Z-4.900 I0.517 J-0.320 F360.000
G1 X-3.251 Y-1.695 Z-5.250 F36.000
G2 X-3.163 Y-2.445 Z-5.250 I-0.430 J-0.430 F360.000
G2 X-4.001 Y-2.642 Z-5.250 I-0.517 J0.320 F360.000
G2 X-4.198 Y-1.805 Z-5.250 I0.320 J0.517 F360.000
G2 X-3.251 Y-1.695 Z-5.250 I0.517 J-0.320 F360.000
G1 X-3.251 Y-1.695 Z-5.600 F36.000
G2 X-3.163 Y-2.445 Z-5.600 I-0.430 J-0.430 F360.000
G2 X-4.001 Y-2.642 Z-5.600 I-0.517 J0.320 F360.000
G2 X-4.198 Y-1.805 Z-5.600 I0.320 J0.517 F360.000
G2 X-3.251 Y-1.695 Z-5.600 I0.517 J-0.320 F360.000
G1 X-3.251 Y-1.695 Z-5.950 F36.000
G2 X-3.163 Y-2.445 Z-5.950 I-0.430 J-0.430 F360.000
G2 X-4.001 Y-2.642 Z-5.950 I-0.517 J0.320 F360.000
G2 X-4.198 Y-1.805 Z-5.950 I0.320 J0.517 F360.000
G2 X-3.251 Y-1.695 Z-5.950 I0.517 J-0.320 F360.000
G1 X-3.251 Y-1.695 Z-6.300 F36.000
G2 X-3.163 Y-2.445 Z-6.300 I-0.430 J-0.430 F360.000
G2 X-4.001 Y-2.642 Z-6.300 I-0.517 J0.320 F360.000
G2 X-4.198 Y-1.805 Z-6.300 I0.320 J0.517 F360.000
G2 X-3.251 Y-1.695 Z-6.300 I0.517 J-0.320 F360.000
G1 X-3.251 Y-1.695 Z-6.650 F36.000
G2 X-3.163 Y-2.445 Z-6.650 I-0.430 J-0.430 F360.000
G2 X-4.001 Y-2.642 Z-6.650 I-0.517 J0.320 F360.000
G2 X-4.198 Y-1.805 Z-6.650 I0.320 J0.517 F360.000
G2 X-3.251 Y-1.695 Z-6.650 I0.517 J-0.320 F360.000
G1 X-3.251 Y-1.695 Z-7.000 F36.000
G2 X-3.163 Y-2.445 Z-7.000 I-0.430 J-0.430 F360.000
G2 X-4.001 Y-2.642 Z-7.000 I-0.517 J0.320 F360.000
G2 X-4.198 Y-1.805 Z-7.000 I0.320 J0.517 F360.000
G2 X-3.251 Y-1.695 Z-7.000 I0.517 J-0.320 F360.000
G1 X-3.251 Y-1.695 Z-7.350 F36.000
G2 X-3.163 Y-2.445 Z-7.350 I-0.430 J-0.430 F360.000
G2 X-4.001 Y-2.642 Z-7.350 I-0.517 J0.320 F360.000
G2 X-4.198 Y-1.805 Z-7.350 I0.320 J0.517 F360.000
G2 X-3.251 Y-1.695 Z-7.350 I0.517 J-0.320 F360.000
G1 X-3.251 Y-1.695 Z-7.700 F36.000
G2 X-3.163 Y-2.445 Z-7.700 I-0.430 J-0.430 F360.000
G2 X-4.001 Y-2.642 Z-7.700 I-0.517 J0.320 F360.000
G2 X-4.198 Y-1.805 Z-7.700 I0.320 J0.517 F360.000
G2 X-3.251 Y-1.695 Z-7.700 I0.517 J-0.320 F360.000
G1 X-3.251 Y-1.695 Z-8.050 F36.000
G2 X-3.163 Y-2.445 Z-8.050 I-0.430 J-0.430 F360.000
G2 X-4.001 Y-2.642 Z-8.050 I-0.517 J0.320 F360.000
G2 X-4.198 Y-1.805 Z-8.050 I0.320 J0.517 F360.000
G2 X-3.251 Y-1.695 Z-8.050 I0.517 J-0.320 F360.000
G1 X-3.251 Y-1.695 Z-8.400 F36.000
G2 X-3.163 Y-2.445 Z-8.400 I-0.430 J-0.430 F360.000
G2 X-4.001 Y-2.642 Z-8.400 I-0.517 J0.320 F360.000
G2 X-4.198 Y-1.805 Z-8.400 I0.320 J0.517 F360.000
G2 X-3.251 Y-1.695 Z-8.400 I0.517 J-0.320 F360.000
G1 X-3.251 Y-1.695 Z-8.750 F36.000
G2 X-3.163 Y-2.445 Z-8.750 I-0.430 J-0.430 F360.000
G2 X-4.001 Y-2.642 Z-8.750 I-0.517 J0.320 F360.000
G2 X-4.198 Y-1.805 Z-8.750 I0.320 J0.517 F360.000
G2 X-3.251 Y-1.695 Z-8.750 I0.517 J-0.320 F360.000
G1 X-3.251 Y-1.695 Z-9.100 F36.000
G2 X-3.163 Y-2.445 Z-9.100 I-0.430 J-0.430 F360.000
G2 X-4.001 Y-2.642 Z-9.100 I-0.517 J0.320 F360.000
G2 X-4.198 Y-1.805 Z-9.100 I0.320 J0.517 F360.000
G2 X-3.251 Y-1.695 Z-9.100 I0.517 J-0.320 F360.000
G1 X-3.251 Y-1.695 Z-9.200 F36.000
G2 X-3.163 Y-2.445 Z-9.200 I-0.430 J-0.430 F360.000
G2 X-4.001 Y-2.642 Z-9.200 I-0.517 J0.320 F360.000
G2 X-4.198 Y-1.805 Z-9.200 I0.320 J0.517 F360.000
G2 X-3.251 Y-1.695 Z-9.200 I0.517 J-0.320 F360.000
G0 Z5.000
G0 X4.111 Y-1.695
G0 Z3.000
G1 X4.111 Y-1.695 Z-0.350 F36.000
G2 X4.198 Y-2.445 Z-0.350 I-0.430 J-0.430 F360.000
G2 X3.360 Y-2.642 Z-0.350 I-0.517 J0.320 F360.000
G2 X3.163 Y-1.805 Z-0.350 I0.320 J0.517 F360.000
G2 X4.111 Y-1.695 Z-0.350 I0.517 J-0.320 F360.000
G1 X4.111 Y-1.695 Z-0.700 F36.000
G2 X4.198 Y-2.445 Z-0.700 I-0.430 J-0.430 F360.000
G2 X3.360 Y-2.642 Z-0.700 I-0.517 J0.320 F360.000
G2 X3.163 Y-1.805 Z-0.700 I0.320 J0.517 F360.000
G2 X4.111 Y-1.695 Z-0.700 I0.517 J-0.320 F360.000
G1 X4.111 Y-1.695 Z-1.050 F36.000
G2 X4.198 Y-2.445 Z-1.050 I-0.430 J-0.430 F360.000
G2 X3.360 Y-2.642 Z-1.050 I-0.517 J0.320 F360.000
G2 X3.163 Y-1.805 Z-1.050 I0.320 J0.517 F360.000
G2 X4.111 Y-1.695 Z-1.050 I0.517 J-0.320 F360.000
G1 X4.111 Y-1.695 Z-1.400 F36.000
G2 X4.198 Y-2.445 Z-1.400 I-0.430 J-0.430 F360.000
G2 X3.360 Y-2.642 Z-1.400 I-0.517 J0.320 F360.000
G2 X3.163 Y-1.805 Z-1.400 I0.320 J0.517 F360.000
G2 X4.111 Y-1.695 Z-1.400 I0.517 J-0.320 F360.000
G1 X4.111 Y-1.695 Z-1.750 F36.000
G2 X4.198 Y-2.445 Z-1.750 I-0.430 J-0.430 F360.000
G2 X3.360 Y-2.642 Z-1.750 I-0.517 J0.320 F360.000
G2 X3.163 Y-1.805 Z-1.750 I0.320 J0.517 F360.000
G2 X4.111 Y-1.695 Z-1.750 I0.517 J-0.320 F360.000
G1 X4.111 Y-1.695 Z-2.100 F36.000
G2 X4.198 Y-2.445 Z-2.100 I-0.430 J-0.430 F360.000
G2 X3.360 Y-2.642 Z-2.100 I-0.517 J0.320 F360.000
G2 X3.163 Y-1.805 Z-2.100 I0.320 J0.517 F360.000
G2 X4.111 Y-1.695 Z-2.100 I0.517 J-0.320 F360.000
G1 X4.111 Y-1.695 Z-2.450 F36.000
G2 X4.198 Y-2.445 Z-2.450 I-0.430 J-0.430 F360.000
G2 X3.360 Y-2.642 Z-2.450 I-0.517 J0.320 F360.000
G2 X3.163 Y-1.805 Z-2.450 I0.320 J0.517 F360.000
G2 X4.111 Y-1.695 Z-2.450 I0.517 J-0.320 F360.000
G1 X4.111 Y-1.695 Z-2.800 F36.000
G2 X4.198 Y-2.445 Z-2.800 I-0.430 J-0.430 F360.000
G2 X3.360 Y-2.642 Z-2.800 I-0.517 J0.320 F360.000
G2 X3.163 Y-1.805 Z-2.800 I0.320 J0.517 F360.000
G2 X4.111 Y-1.695 Z-2.800 I0.517 J-0.320 F360.000
G1 X4.111 Y-1.695 Z-3.150 F36.000
G2 X4.198 Y-2.445 Z-3.150 I-0.430 J-0.430 F360.000
G2 X3.360 Y-2.642 Z-3.150 I-0.517 J0.320 F360.000
G2 X3.163 Y-1.805 Z-3.150 I0.320 J0.517 F360.000
G2 X4.111 Y-1.695 Z-3.150 I0.517 J-0.320 F360.000
G1 X4.111 Y-1.695 Z-3.500 F36.000
G2 X4.198 Y-2.445 Z-3.500 I-0.430 J-0.430 F360.000
G2 X3.360 Y-2.642 Z-3.500 I-0.517 J0.320 F360.000
G2 X3.163 Y-1.805 Z-3.500 I0.320 J0.517 F360.000
G2 X4.111 Y-1.695 Z-3.500 I0.517 J-0.320 F360.000
G1 X4.111 Y-1.695 Z-3.850 F36.000
G2 X4.198 Y-2.445 Z-3.850 I-0.430 J-0.430 F360.000
G2 X3.360 Y-2.642 Z-3.850 I-0.517 J0.320 F360.000
G2 X3.163 Y-1.805 Z-3.850 I0.320 J0.517 F360.000
G2 X4.111 Y-1.695 Z-3.850 I0.517 J-0.320 F360.000
G1 X4.111 Y-1.695 Z-4.200 F36.000
G2 X4.198 Y-2.445 Z-4.200 I-0.430 J-0.430 F360.000
G2 X3.360 Y-2.642 Z-4.200 I-0.517 J0.320 F360.000
G2 X3.163 Y-1.805 Z-4.200 I0.320 J0.517 F360.000
G2 X4.111 Y-1.695 Z-4.200 I0.517 J-0.320 F360.000
G1 X4.111 Y-1.695 Z-4.550 F36.000
G2 X4.198 Y-2.445 Z-4.550 I-0.430 J-0.430 F360.000
G2 X3.360 Y-2.642 Z-4.550 I-0.517 J0.320 F360.000
G2 X3.163 Y-1.805 Z-4.550 I0.320 J0.517 F360.000
G2 X4.111 Y-1.695 Z-4.550 I0.517 J-0.320 F360.000
G1 X4.111 Y-1.695 Z-4.900 F36.000
G2 X4.198 Y-2.445 Z-4.900 I-0.430 J-0.430 F360.000
G2 X3.360 Y-2.642 Z-4.900 I-0.517 J0.320 F360.000
G2 X3.163 Y-1.805 Z-4.900 I0.320 J0.517 F360.000
G2 X4.111 Y-1.695 Z-4.900 I0.517 J-0.320 F360.000
G1 X4.111 Y-1.695 Z-5.250 F36.000
G2 X4.198 Y-2.445 Z-5.250 I-0.430 J-0.430 F360.000
G2 X3.360 Y-2.642 Z-5.250 I-0.517 J0.320 F360.000
G2 X3.163 Y-1.805 Z-5.250 I0.320 J0.517 F360.000
G2 X4.111 Y-1.695 Z-5.250 I0.517 J-0.320 F360.000
G1 X4.111 Y-1.695 Z-5.600 F36.000
G2 X4.198 Y-2.445 Z-5.600 I-0.430 J-0.430 F360.000
G2 X3.360 Y-2.642 Z-5.600 I-0.517 J0.320 F360.000
G2 X3.163 Y-1.805 Z-5.600 I0.320 J0.517 F360.000
G2 X4.111 Y-1.695 Z-5.600 I0.517 J-0.320 F360.000
G1 X4.111 Y-1.695 Z-5.950 F36.000
G2 X4.198 Y-2.445 Z-5.950 I-0.430 J-0.430 F360.000
G2 X3.360 Y-2.642 Z-5.950 I-0.517 J0.320 F360.000
G2 X3.163 Y-1.805 Z-5.950 I0.320 J0.517 F360.000
G2 X4.111 Y-1.695 Z-5.950 I0.517 J-0.320 F360.000
G1 X4.111 Y-1.695 Z-6.300 F36.000
G2 X4.198 Y-2.445 Z-6.300 I-0.430 J-0.430 F360.000
G2 X3.360 Y-2.642 Z-6.300 I-0.517 J0.320 F360.000
G2 X3.163 Y-1.805 Z-6.300 I0.320 J0.517 F360.000
G2 X4.111 Y-1.695 Z-6.300 I0.517 J-0.320 F360.000
G1 X4.111 Y-1.695 Z-6.650 F36.000
G2 X4.198 Y-2.445 Z-6.650 I-0.430 J-0.430 F360.000
G2 X3.360 Y-2.642 Z-6.650 I-0.517 J0.320 F360.000
G2 X3.163 Y-1.805 Z-6.650 I0.320 J0.517 F360.000
G2 X4.111 Y-1.695 Z-6.650 I0.517 J-0.320 F360.000
G1 X4.111 Y-1.695 Z-7.000 F36.000
G2 X4.198 Y-2.445 Z-7.000 I-0.430 J-0.430 F360.000
G2 X3.360 Y-2.642 Z-7.000 I-0.517 J0.320 F360.000
G2 X3.163 Y-1.805 Z-7.000 I0.320 J0.517 F360.000
G2 X4.111 Y-1.695 Z-7.000 I0.517 J-0.320 F360.000
G1 X4.111 Y-1.695 Z-7.350 F36.000
G2 X4.198 Y-2.445 Z-7.350 I-0.430 J-0.430 F360.000
G2 X3.360 Y-2.642 Z-7.350 I-0.517 J0.320 F360.000
G2 X3.163 Y-1.805 Z-7.350 I0.320 J0.517 F360.000
G2 X4.111 Y-1.695 Z-7.350 I0.517 J-0.320 F360.000
G1 X4.111 Y-1.695 Z-7.700 F36.000
G2 X4.198 Y-2.445 Z-7.700 I-0.430 J-0.430 F360.000
G2 X3.360 Y-2.642 Z-7.700 I-0.517 J0.320 F360.000
G2 X3.163 Y-1.805 Z-7.700 I0.320 J0.517 F360.000
G2 X4.111 Y-1.695 Z-7.700 I0.517 J-0.320 F360.000
G1 X4.111 Y-1.695 Z-8.050 F36.000
G2 X4.198 Y-2.445 Z-8.050 I-0.430 J-0.430 F360.000
G2 X3.360 Y-2.642 Z-8.050 I-0.517 J0.320 F360.000
G2 X3.163 Y-1.805 Z-8.050 I0.320 J0.517 F360.000
G2 X4.111 Y-1.695 Z-8.050 I0.517 J-0.320 F360.000
G1 X4.111 Y-1.695 Z-8.400 F36.000
G2 X4.198 Y-2.445 Z-8.400 I-0.430 J-0.430 F360.000
G2 X3.360 Y-2.642 Z-8.400 I-0.517 J0.320 F360.000
G2 X3.163 Y-1.805 Z-8.400 I0.320 J0.517 F360.000
G2 X4.111 Y-1.695 Z-8.400 I0.517 J-0.320 F360.000
G1 X4.111 Y-1.695 Z-8.750 F36.000
G2 X4.198 Y-2.445 Z-8.750 I-0.430 J-0.430 F360.000
G2 X3.360 Y-2.642 Z-8.750 I-0.517 J0.320 F360.000
G2 X3.163 Y-1.805 Z-8.750 I0.320 J0.517 F360.000
G2 X4.111 Y-1.695 Z-8.750 I0.517 J-0.320 F360.000
G1 X4.111 Y-1.695 Z-9.100 F36.000
G2 X4.198 Y-2.445 Z-9.100 I-0.430 J-0.430 F360.000
G2 X3.360 Y-2.642 Z-9.100 I-0.517 J0.320 F360.000
G2 X3.163 Y-1.805 Z-9.100 I0.320 J0.517 F360.000
G2 X4.111 Y-1.695 Z-9.100 I0.517 J-0.320 F360.000
G1 X4.111 Y-1.695 Z-9.200 F36.000
G2 X4.198 Y-2.445 Z-9.200 I-0.430 J-0.430 F360.000
G2 X3.360 Y-2.642 Z-9.200 I-0.517 J0.320 F360.000
G2 X3.163 Y-1.805 Z-9.200 I0.320 J0.517 F360.000
G2 X4.111 Y-1.695 Z-9.200 I0.517 J-0.320 F360.000
G0 Z5.000
(finish operation: Pocket_Shape)
(begin operation: Pocket_Shape001)
(machine: not set, mm/min)
(Pocket_Shape001)
G0 Z5.000
G0 X4.376 Y-1.429
G0 Z3.000
G1 X4.376 Y-1.429 Z-0.350 F36.000
G2 X4.434 Y-2.757 Z-0.350 I-0.696 J-0.696 F360.000
G2 X2.927 Y-1.493 Z-0.350 I-0.754 J0.632 F360.000
G2 X4.376 Y-1.429 Z-0.350 I0.754 J-0.632 F360.000
G1 X4.376 Y-1.429 Z-0.700 F36.000
G2 X4.434 Y-2.757 Z-0.700 I-0.696 J-0.696 F360.000
G2 X2.927 Y-1.493 Z-0.700 I-0.754 J0.632 F360.000
G2 X4.376 Y-1.429 Z-0.700 I0.754 J-0.632 F360.000
G1 X4.376 Y-1.429 Z-1.050 F36.000
G2 X4.434 Y-2.757 Z-1.050 I-0.696 J-0.696 F360.000
G2 X2.927 Y-1.493 Z-1.050 I-0.754 J0.632 F360.000
G2 X4.376 Y-1.429 Z-1.050 I0.754 J-0.632 F360.000
G1 X4.376 Y-1.429 Z-1.400 F36.000
G2 X4.434 Y-2.757 Z-1.400 I-0.696 J-0.696 F360.000
G2 X2.927 Y-1.493 Z-1.400 I-0.754 J0.632 F360.000
G2 X4.376 Y-1.429 Z-1.400 I0.754 J-0.632 F360.000
G1 X4.376 Y-1.429 Z-1.750 F36.000
G2 X4.434 Y-2.757 Z-1.750 I-0.696 J-0.696 F360.000
G2 X2.927 Y-1.493 Z-1.750 I-0.754 J0.632 F360.000
G2 X4.376 Y-1.429 Z-1.750 I0.754 J-0.632 F360.000
G1 X4.376 Y-1.429 Z-2.100 F36.000
G2 X4.434 Y-2.757 Z-2.100 I-0.696 J-0.696 F360.000
G2 X2.927 Y-1.493 Z-2.100 I-0.754 J0.632 F360.000
G2 X4.376 Y-1.429 Z-2.100 I0.754 J-0.632 F360.000
G1 X4.376 Y-1.429 Z-2.450 F36.000
G2 X4.434 Y-2.757 Z-2.450 I-0.696 J-0.696 F360.000
G2 X2.927 Y-1.493 Z-2.450 I-0.754 J0.632 F360.000
G2 X4.376 Y-1.429 Z-2.450 I0.754 J-0.632 F360.000
G1 X4.376 Y-1.429 Z-2.800 F36.000
G2 X4.434 Y-2.757 Z-2.800 I-0.696 J-0.696 F360.000
G2 X2.927 Y-1.493 Z-2.800 I-0.754 J0.632 F360.000
G2 X4.376 Y-1.429 Z-2.800 I0.754 J-0.632 F360.000
G1 X4.376 Y-1.429 Z-3.150 F36.000
G2 X4.434 Y-2.757 Z-3.150 I-0.696 J-0.696 F360.000
G2 X2.927 Y-1.493 Z-3.150 I-0.754 J0.632 F360.000
G2 X4.376 Y-1.429 Z-3.150 I0.754 J-0.632 F360.000
G1 X4.376 Y-1.429 Z-3.500 F36.000
G2 X4.434 Y-2.757 Z-3.500 I-0.696 J-0.696 F360.000
G2 X2.927 Y-1.493 Z-3.500 I-0.754 J0.632 F360.000
G2 X4.376 Y-1.429 Z-3.500 I0.754 J-0.632 F360.000
G1 X4.376 Y-1.429 Z-3.850 F36.000
G2 X4.434 Y-2.757 Z-3.850 I-0.696 J-0.696 F360.000
G2 X2.927 Y-1.493 Z-3.850 I-0.754 J0.632 F360.000
G2 X4.376 Y-1.429 Z-3.850 I0.754 J-0.632 F360.000
G1 X4.376 Y-1.429 Z-4.200 F36.000
G2 X4.434 Y-2.757 Z-4.200 I-0.696 J-0.696 F360.000
G2 X2.927 Y-1.493 Z-4.200 I-0.754 J0.632 F360.000
G2 X4.376 Y-1.429 Z-4.200 I0.754 J-0.632 F360.000
G1 X4.376 Y-1.429 Z-4.550 F36.000
G2 X4.434 Y-2.757 Z-4.550 I-0.696 J-0.696 F360.000
G2 X2.927 Y-1.493 Z-4.550 I-0.754 J0.632 F360.000
G2 X4.376 Y-1.429 Z-4.550 I0.754 J-0.632 F360.000
G1 X4.376 Y-1.429 Z-4.900 F36.000
G2 X4.434 Y-2.757 Z-4.900 I-0.696 J-0.696 F360.000
G2 X2.927 Y-1.493 Z-4.900 I-0.754 J0.632 F360.000
G2 X4.376 Y-1.429 Z-4.900 I0.754 J-0.632 F360.000
G1 X4.376 Y-1.429 Z-5.250 F36.000
G2 X4.434 Y-2.757 Z-5.250 I-0.696 J-0.696 F360.000
G2 X2.927 Y-1.493 Z-5.250 I-0.754 J0.632 F360.000
G2 X4.376 Y-1.429 Z-5.250 I0.754 J-0.632 F360.000
G1 X4.376 Y-1.429 Z-5.600 F36.000
G2 X4.434 Y-2.757 Z-5.600 I-0.696 J-0.696 F360.000
G2 X2.927 Y-1.493 Z-5.600 I-0.754 J0.632 F360.000
G2 X4.376 Y-1.429 Z-5.600 I0.754 J-0.632 F360.000
G1 X4.376 Y-1.429 Z-5.950 F36.000
G2 X4.434 Y-2.757 Z-5.950 I-0.696 J-0.696 F360.000
G2 X2.927 Y-1.493 Z-5.950 I-0.754 J0.632 F360.000
G2 X4.376 Y-1.429 Z-5.950 I0.754 J-0.632 F360.000
G1 X4.376 Y-1.429 Z-6.000 F36.000
G2 X4.434 Y-2.757 Z-6.000 I-0.696 J-0.696 F360.000
G2 X2.927 Y-1.493 Z-6.000 I-0.754 J0.632 F360.000
G2 X4.376 Y-1.429 Z-6.000 I0.754 J-0.632 F360.000
G0 Z5.000
G0 X-2.985 Y-1.429
G0 Z3.000
G1 X-2.985 Y-1.429 Z-0.350 F36.000
G2 X-2.927 Y-2.757 Z-0.350 I-0.696 J-0.696 F360.000
G2 X-4.434 Y-1.493 Z-0.350 I-0.754 J0.632 F360.000
G2 X-2.985 Y-1.429 Z-0.350 I0.754 J-0.632 F360.000
G1 X-2.985 Y-1.429 Z-0.700 F36.000
G2 X-2.927 Y-2.757 Z-0.700 I-0.696 J-0.696 F360.000
G2 X-4.434 Y-1.493 Z-0.700 I-0.754 J0.632 F360.000
G2 X-2.985 Y-1.429 Z-0.700 I0.754 J-0.632 F360.000
G1 X-2.985 Y-1.429 Z-1.050 F36.000
G2 X-2.927 Y-2.757 Z-1.050 I-0.696 J-0.696 F360.000
G2 X-4.434 Y-1.493 Z-1.050 I-0.754 J0.632 F360.000
G2 X-2.985 Y-1.429 Z-1.050 I0.754 J-0.632 F360.000
G1 X-2.985 Y-1.429 Z-1.400 F36.000
G2 X-2.927 Y-2.757 Z-1.400 I-0.696 J-0.696 F360.000
G2 X-4.434 Y-1.493 Z-1.400 I-0.754 J0.632 F360.000
G2 X-2.985 Y-1.429 Z-1.400 I0.754 J-0.632 F360.000
G1 X-2.985 Y-1.429 Z-1.750 F36.000
G2 X-2.927 Y-2.757 Z-1.750 I-0.696 J-0.696 F360.000
G2 X-4.434 Y-1.493 Z-1.750 I-0.754 J0.632 F360.000
G2 X-2.985 Y-1.429 Z-1.750 I0.754 J-0.632 F360.000
G1 X-2.985 Y-1.429 Z-2.100 F36.000
G2 X-2.927 Y-2.757 Z-2.100 I-0.696 J-0.696 F360.000
G2 X-4.434 Y-1.493 Z-2.100 I-0.754 J0.632 F360.000
G2 X-2.985 Y-1.429 Z-2.100 I0.754 J-0.632 F360.000
G1 X-2.985 Y-1.429 Z-2.450 F36.000
G2 X-2.927 Y-2.757 Z-2.450 I-0.696 J-0.696 F360.000
G2 X-4.434 Y-1.493 Z-2.450 I-0.754 J0.632 F360.000
G2 X-2.985 Y-1.429 Z-2.450 I0.754 J-0.632 F360.000
G1 X-2.985 Y-1.429 Z-2.800 F36.000
G2 X-2.927 Y-2.757 Z-2.800 I-0.696 J-0.696 F360.000
G2 X-4.434 Y-1.493 Z-2.800 I-0.754 J0.632 F360.000
G2 X-2.985 Y-1.429 Z-2.800 I0.754 J-0.632 F360.000
G1 X-2.985 Y-1.429 Z-3.150 F36.000
G2 X-2.927 Y-2.757 Z-3.150 I-0.696 J-0.696 F360.000
G2 X-4.434 Y-1.493 Z-3.150 I-0.754 J0.632 F360.000
G2 X-2.985 Y-1.429 Z-3.150 I0.754 J-0.632 F360.000
G1 X-2.985 Y-1.429 Z-3.500 F36.000
G2 X-2.927 Y-2.757 Z-3.500 I-0.696 J-0.696 F360.000
G2 X-4.434 Y-1.493 Z-3.500 I-0.754 J0.632 F360.000
G2 X-2.985 Y-1.429 Z-3.500 I0.754 J-0.632 F360.000
G1 X-2.985 Y-1.429 Z-3.850 F36.000
G2 X-2.927 Y-2.757 Z-3.850 I-0.696 J-0.696 F360.000
G2 X-4.434 Y-1.493 Z-3.850 I-0.754 J0.632 F360.000
G2 X-2.985 Y-1.429 Z-3.850 I0.754 J-0.632 F360.000
G1 X-2.985 Y-1.429 Z-4.200 F36.000
G2 X-2.927 Y-2.757 Z-4.200 I-0.696 J-0.696 F360.000
G2 X-4.434 Y-1.493 Z-4.200 I-0.754 J0.632 F360.000
G2 X-2.985 Y-1.429 Z-4.200 I0.754 J-0.632 F360.000
G1 X-2.985 Y-1.429 Z-4.550 F36.000
G2 X-2.927 Y-2.757 Z-4.550 I-0.696 J-0.696 F360.000
G2 X-4.434 Y-1.493 Z-4.550 I-0.754 J0.632 F360.000
G2 X-2.985 Y-1.429 Z-4.550 I0.754 J-0.632 F360.000
G1 X-2.985 Y-1.429 Z-4.900 F36.000
G2 X-2.927 Y-2.757 Z-4.900 I-0.696 J-0.696 F360.000
G2 X-4.434 Y-1.493 Z-4.900 I-0.754 J0.632 F360.000
G2 X-2.985 Y-1.429 Z-4.900 I0.754 J-0.632 F360.000
G1 X-2.985 Y-1.429 Z-5.250 F36.000
G2 X-2.927 Y-2.757 Z-5.250 I-0.696 J-0.696 F360.000
G2 X-4.434 Y-1.493 Z-5.250 I-0.754 J0.632 F360.000
G2 X-2.985 Y-1.429 Z-5.250 I0.754 J-0.632 F360.000
G1 X-2.985 Y-1.429 Z-5.600 F36.000
G2 X-2.927 Y-2.757 Z-5.600 I-0.696 J-0.696 F360.000
G2 X-4.434 Y-1.493 Z-5.600 I-0.754 J0.632 F360.000
G2 X-2.985 Y-1.429 Z-5.600 I0.754 J-0.632 F360.000
G1 X-2.985 Y-1.429 Z-5.950 F36.000
G2 X-2.927 Y-2.757 Z-5.950 I-0.696 J-0.696 F360.000
G2 X-4.434 Y-1.493 Z-5.950 I-0.754 J0.632 F360.000
G2 X-2.985 Y-1.429 Z-5.950 I0.754 J-0.632 F360.000
G1 X-2.985 Y-1.429 Z-6.000 F36.000
G2 X-2.927 Y-2.757 Z-6.000 I-0.696 J-0.696 F360.000
G2 X-4.434 Y-1.493 Z-6.000 I-0.754 J0.632 F360.000
G2 X-2.985 Y-1.429 Z-6.000 I0.754 J-0.632 F360.000
G0 Z5.000
G0 X0.696 Y4.946
G0 Z3.000
G1 X0.696 Y4.946 Z-0.350 F36.000
G2 X0.754 Y3.618 Z-0.350 I-0.696 J-0.696 F360.000
G2 X-0.754 Y4.882 Z-0.350 I-0.754 J0.632 F360.000
G2 X0.696 Y4.946 Z-0.350 I0.754 J-0.632 F360.000
G1 X0.696 Y4.946 Z-0.700 F36.000
G2 X0.754 Y3.618 Z-0.700 I-0.696 J-0.696 F360.000
G2 X-0.754 Y4.882 Z-0.700 I-0.754 J0.632 F360.000
G2 X0.696 Y4.946 Z-0.700 I0.754 J-0.632 F360.000
G1 X0.696 Y4.946 Z-1.050 F36.000
G2 X0.754 Y3.618 Z-1.050 I-0.696 J-0.696 F360.000
G2 X-0.754 Y4.882 Z-1.050 I-0.754 J0.632 F360.000
G2 X0.696 Y4.946 Z-1.050 I0.754 J-0.632 F360.000
G1 X0.696 Y4.946 Z-1.400 F36.000
G2 X0.754 Y3.618 Z-1.400 I-0.696 J-0.696 F360.000
G2 X-0.754 Y4.882 Z-1.400 I-0.754 J0.632 F360.000
G2 X0.696 Y4.946 Z-1.400 I0.754 J-0.632 F360.000
G1 X0.696 Y4.946 Z-1.750 F36.000
G2 X0.754 Y3.618 Z-1.750 I-0.696 J-0.696 F360.000
G2 X-0.754 Y4.882 Z-1.750 I-0.754 J0.632 F360.000
G2 X0.696 Y4.946 Z-1.750 I0.754 J-0.632 F360.000
G1 X0.696 Y4.946 Z-2.100 F36.000
G2 X0.754 Y3.618 Z-2.100 I-0.696 J-0.696 F360.000
G2 X-0.754 Y4.882 Z-2.100 I-0.754 J0.632 F360.000
G2 X0.696 Y4.946 Z-2.100 I0.754 J-0.632 F360.000
G1 X0.696 Y4.946 Z-2.450 F36.000
G2 X0.754 Y3.618 Z-2.450 I-0.696 J-0.696 F360.000
G2 X-0.754 Y4.882 Z-2.450 I-0.754 J0.632 F360.000
G2 X0.696 Y4.946 Z-2.450 I0.754 J-0.632 F360.000
G1 X0.696 Y4.946 Z-2.800 F36.000
G2 X0.754 Y3.618 Z-2.800 I-0.696 J-0.696 F360.000
G2 X-0.754 Y4.882 Z-2.800 I-0.754 J0.632 F360.000
G2 X0.696 Y4.946 Z-2.800 I0.754 J-0.632 F360.000
G1 X0.696 Y4.946 Z-3.150 F36.000
G2 X0.754 Y3.618 Z-3.150 I-0.696 J-0.696 F360.000
G2 X-0.754 Y4.882 Z-3.150 I-0.754 J0.632 F360.000
G2 X0.696 Y4.946 Z-3.150 I0.754 J-0.632 F360.000
G1 X0.696 Y4.946 Z-3.500 F36.000
G2 X0.754 Y3.618 Z-3.500 I-0.696 J-0.696 F360.000
G2 X-0.754 Y4.882 Z-3.500 I-0.754 J0.632 F360.000
G2 X0.696 Y4.946 Z-3.500 I0.754 J-0.632 F360.000
G1 X0.696 Y4.946 Z-3.850 F36.000
G2 X0.754 Y3.618 Z-3.850 I-0.696 J-0.696 F360.000
G2 X-0.754 Y4.882 Z-3.850 I-0.754 J0.632 F360.000
G2 X0.696 Y4.946 Z-3.850 I0.754 J-0.632 F360.000
G1 X0.696 Y4.946 Z-4.200 F36.000
G2 X0.754 Y3.618 Z-4.200 I-0.696 J-0.696 F360.000
G2 X-0.754 Y4.882 Z-4.200 I-0.754 J0.632 F360.000
G2 X0.696 Y4.946 Z-4.200 I0.754 J-0.632 F360.000
G1 X0.696 Y4.946 Z-4.550 F36.000
G2 X0.754 Y3.618 Z-4.550 I-0.696 J-0.696 F360.000
G2 X-0.754 Y4.882 Z-4.550 I-0.754 J0.632 F360.000
G2 X0.696 Y4.946 Z-4.550 I0.754 J-0.632 F360.000
G1 X0.696 Y4.946 Z-4.900 F36.000
G2 X0.754 Y3.618 Z-4.900 I-0.696 J-0.696 F360.000
G2 X-0.754 Y4.882 Z-4.900 I-0.754 J0.632 F360.000
G2 X0.696 Y4.946 Z-4.900 I0.754 J-0.632 F360.000
G1 X0.696 Y4.946 Z-5.250 F36.000
G2 X0.754 Y3.618 Z-5.250 I-0.696 J-0.696 F360.000
G2 X-0.754 Y4.882 Z-5.250 I-0.754 J0.632 F360.000
G2 X0.696 Y4.946 Z-5.250 I0.754 J-0.632 F360.000
G1 X0.696 Y4.946 Z-5.600 F36.000
G2 X0.754 Y3.618 Z-5.600 I-0.696 J-0.696 F360.000
G2 X-0.754 Y4.882 Z-5.600 I-0.754 J0.632 F360.000
G2 X0.696 Y4.946 Z-5.600 I0.754 J-0.632 F360.000
G1 X0.696 Y4.946 Z-5.950 F36.000
G2 X0.754 Y3.618 Z-5.950 I-0.696 J-0.696 F360.000
G2 X-0.754 Y4.882 Z-5.950 I-0.754 J0.632 F360.000
G2 X0.696 Y4.946 Z-5.950 I0.754 J-0.632 F360.000
G1 X0.696 Y4.946 Z-6.000 F36.000
G2 X0.754 Y3.618 Z-6.000 I-0.696 J-0.696 F360.000
G2 X-0.754 Y4.882 Z-6.000 I-0.754 J0.632 F360.000
G2 X0.696 Y4.946 Z-6.000 I0.754 J-0.632 F360.000
G0 Z5.000
(finish operation: Pocket_Shape001)
(begin operation: Pocket_Shape002)
(machine: not set, mm/min)
(Pocket_Shape002)
G0 Z5.000
G0 X0.076 Y-12.924
G0 Z3.000
G1 X0.076 Y-12.924 Z-0.500 F36.000
G2 X0.089 Y-12.940 Z-0.500 I-0.076 J-0.075 F360.000
G1 X0.099 Y-12.959 Z-0.500 F360.000
G2 X-0.097 Y-13.043 Z-0.500 I-0.099 J-0.040 F360.000
G2 X0.076 Y-12.924 Z-0.500 I0.097 J0.044 F360.000
G1 X0.076 Y-12.924 Z-1.000 F36.000
G2 X0.089 Y-12.940 Z-1.000 I-0.076 J-0.075 F360.000
G1 X0.099 Y-12.959 Z-1.000 F360.000
G2 X-0.097 Y-13.043 Z-1.000 I-0.099 J-0.040 F360.000
G2 X0.076 Y-12.924 Z-1.000 I0.097 J0.044 F360.000
G1 X0.076 Y-12.924 Z-1.500 F36.000
G2 X0.089 Y-12.940 Z-1.500 I-0.076 J-0.075 F360.000
G1 X0.099 Y-12.959 Z-1.500 F360.000
G2 X-0.097 Y-13.043 Z-1.500 I-0.099 J-0.040 F360.000
G2 X0.076 Y-12.924 Z-1.500 I0.097 J0.044 F360.000
G1 X0.076 Y-12.924 Z-2.000 F36.000
G2 X0.089 Y-12.940 Z-2.000 I-0.076 J-0.075 F360.000
G1 X0.099 Y-12.959 Z-2.000 F360.000
G2 X-0.097 Y-13.043 Z-2.000 I-0.099 J-0.040 F360.000
G2 X0.076 Y-12.924 Z-2.000 I0.097 J0.044 F360.000
G1 X0.076 Y-12.924 Z-2.500 F36.000
G2 X0.089 Y-12.940 Z-2.500 I-0.076 J-0.075 F360.000
G1 X0.099 Y-12.959 Z-2.500 F360.000
G2 X-0.097 Y-13.043 Z-2.500 I-0.099 J-0.040 F360.000
G2 X0.076 Y-12.924 Z-2.500 I0.097 J0.044 F360.000
G1 X0.076 Y-12.924 Z-3.000 F36.000
G2 X0.089 Y-12.940 Z-3.000 I-0.076 J-0.075 F360.000
G1 X0.099 Y-12.959 Z-3.000 F360.000
G2 X-0.097 Y-13.043 Z-3.000 I-0.099 J-0.040 F360.000
G2 X0.076 Y-12.924 Z-3.000 I0.097 J0.044 F360.000
G1 X0.076 Y-12.924 Z-3.500 F36.000
G2 X0.089 Y-12.940 Z-3.500 I-0.076 J-0.075 F360.000
G1 X0.099 Y-12.959 Z-3.500 F360.000
G2 X-0.097 Y-13.043 Z-3.500 I-0.099 J-0.040 F360.000
G2 X0.076 Y-12.924 Z-3.500 I0.097 J0.044 F360.000
G1 X0.076 Y-12.924 Z-4.000 F36.000
G2 X0.089 Y-12.940 Z-4.000 I-0.076 J-0.075 F360.000
G1 X0.099 Y-12.959 Z-4.000 F360.000
G2 X-0.097 Y-13.043 Z-4.000 I-0.099 J-0.040 F360.000
G2 X0.076 Y-12.924 Z-4.000 I0.097 J0.044 F360.000
G1 X0.076 Y-12.924 Z-4.500 F36.000
G2 X0.089 Y-12.940 Z-4.500 I-0.076 J-0.075 F360.000
G1 X0.099 Y-12.959 Z-4.500 F360.000
G2 X-0.097 Y-13.043 Z-4.500 I-0.099 J-0.040 F360.000
G2 X0.076 Y-12.924 Z-4.500 I0.097 J0.044 F360.000
G1 X0.076 Y-12.924 Z-5.000 F36.000
G2 X0.089 Y-12.940 Z-5.000 I-0.076 J-0.075 F360.000
G1 X0.099 Y-12.959 Z-5.000 F360.000
G2 X-0.097 Y-13.043 Z-5.000 I-0.099 J-0.040 F360.000
G2 X0.076 Y-12.924 Z-5.000 I0.097 J0.044 F360.000
G1 X0.076 Y-12.924 Z-5.500 F36.000
G2 X0.089 Y-12.940 Z-5.500 I-0.076 J-0.075 F360.000
G1 X0.099 Y-12.959 Z-5.500 F360.000
G2 X-0.097 Y-13.043 Z-5.500 I-0.099 J-0.040 F360.000
G2 X0.076 Y-12.924 Z-5.500 I0.097 J0.044 F360.000
G1 X0.076 Y-12.924 Z-6.000 F36.000
G2 X0.089 Y-12.940 Z-6.000 I-0.076 J-0.075 F360.000
G1 X0.099 Y-12.959 Z-6.000 F360.000
G2 X-0.097 Y-13.043 Z-6.000 I-0.099 J-0.040 F360.000
G2 X0.076 Y-12.924 Z-6.000 I0.097 J0.044 F360.000
G1 X0.076 Y-12.924 Z-6.500 F36.000
G2 X0.089 Y-12.940 Z-6.500 I-0.076 J-0.075 F360.000
G1 X0.099 Y-12.959 Z-6.500 F360.000
G2 X-0.097 Y-13.043 Z-6.500 I-0.099 J-0.040 F360.000
G2 X0.076 Y-12.924 Z-6.500 I0.097 J0.044 F360.000
G1 X0.076 Y-12.924 Z-7.000 F36.000
G2 X0.089 Y-12.940 Z-7.000 I-0.076 J-0.075 F360.000
G1 X0.099 Y-12.959 Z-7.000 F360.000
G2 X-0.097 Y-13.043 Z-7.000 I-0.099 J-0.040 F360.000
G2 X0.076 Y-12.924 Z-7.000 I0.097 J0.044 F360.000
G1 X0.076 Y-12.924 Z-7.500 F36.000
G2 X0.089 Y-12.940 Z-7.500 I-0.076 J-0.075 F360.000
G1 X0.099 Y-12.959 Z-7.500 F360.000
G2 X-0.097 Y-13.043 Z-7.500 I-0.099 J-0.040 F360.000
G2 X0.076 Y-12.924 Z-7.500 I0.097 J0.044 F360.000
G1 X0.076 Y-12.924 Z-8.000 F36.000
G2 X0.089 Y-12.940 Z-8.000 I-0.076 J-0.075 F360.000
G1 X0.099 Y-12.959 Z-8.000 F360.000
G2 X-0.097 Y-13.043 Z-8.000 I-0.099 J-0.040 F360.000
G2 X0.076 Y-12.924 Z-8.000 I0.097 J0.044 F360.000
G1 X0.076 Y-12.924 Z-8.500 F36.000
G2 X0.089 Y-12.940 Z-8.500 I-0.076 J-0.075 F360.000
G1 X0.099 Y-12.959 Z-8.500 F360.000
G2 X-0.097 Y-13.043 Z-8.500 I-0.099 J-0.040 F360.000
G2 X0.076 Y-12.924 Z-8.500 I0.097 J0.044 F360.000
G1 X0.076 Y-12.924 Z-9.000 F36.000
G2 X0.089 Y-12.940 Z-9.000 I-0.076 J-0.075 F360.000
G1 X0.099 Y-12.959 Z-9.000 F360.000
G2 X-0.097 Y-13.043 Z-9.000 I-0.099 J-0.040 F360.000
G2 X0.076 Y-12.924 Z-9.000 I0.097 J0.044 F360.000
G1 X0.076 Y-12.924 Z-9.500 F36.000
G2 X0.089 Y-12.940 Z-9.500 I-0.076 J-0.075 F360.000
G1 X0.099 Y-12.959 Z-9.500 F360.000
G2 X-0.097 Y-13.043 Z-9.500 I-0.099 J-0.040 F360.000
G2 X0.076 Y-12.924 Z-9.500 I0.097 J0.044 F360.000
G1 X0.076 Y-12.924 Z-10.000 F36.000
G2 X0.089 Y-12.940 Z-10.000 I-0.076 J-0.075 F360.000
G1 X0.099 Y-12.959 Z-10.000 F360.000
G2 X-0.097 Y-13.043 Z-10.000 I-0.099 J-0.040 F360.000
G2 X0.076 Y-12.924 Z-10.000 I0.097 J0.044 F360.000
G1 X0.076 Y-12.924 Z-10.500 F36.000
G2 X0.089 Y-12.940 Z-10.500 I-0.076 J-0.075 F360.000
G1 X0.099 Y-12.959 Z-10.500 F360.000
G2 X-0.097 Y-13.043 Z-10.500 I-0.099 J-0.040 F360.000
G2 X0.076 Y-12.924 Z-10.500 I0.097 J0.044 F360.000
G1 X0.076 Y-12.924 Z-11.000 F36.000
G2 X0.089 Y-12.940 Z-11.000 I-0.076 J-0.075 F360.000
G1 X0.099 Y-12.959 Z-11.000 F360.000
G2 X-0.097 Y-13.043 Z-11.000 I-0.099 J-0.040 F360.000
G2 X0.076 Y-12.924 Z-11.000 I0.097 J0.044 F360.000
G0 Z5.000
G0 X0.076 Y13.076
G0 Z3.000
G1 X0.076 Y13.076 Z-0.500 F36.000
G2 X0.053 Y12.908 Z-0.500 I-0.075 J-0.075 F360.000
G1 X0.033 Y12.899 Z-0.500 F360.000
G2 X-0.041 Y13.099 Z-0.500 I-0.033 J0.102 F360.000
G2 X0.076 Y13.076 Z-0.500 I0.041 J-0.098 F360.000
G1 X0.076 Y13.076 Z-1.000 F36.000
G2 X0.053 Y12.908 Z-1.000 I-0.075 J-0.075 F360.000
G1 X0.033 Y12.899 Z-1.000 F360.000
G2 X-0.041 Y13.099 Z-1.000 I-0.033 J0.102 F360.000
G2 X0.076 Y13.076 Z-1.000 I0.041 J-0.098 F360.000
G1 X0.076 Y13.076 Z-1.500 F36.000
G2 X0.053 Y12.908 Z-1.500 I-0.075 J-0.075 F360.000
G1 X0.033 Y12.899 Z-1.500 F360.000
G2 X-0.041 Y13.099 Z-1.500 I-0.033 J0.102 F360.000
G2 X0.076 Y13.076 Z-1.500 I0.041 J-0.098 F360.000
G1 X0.076 Y13.076 Z-2.000 F36.000
G2 X0.053 Y12.908 Z-2.000 I-0.075 J-0.075 F360.000
G1 X0.033 Y12.899 Z-2.000 F360.000
G2 X-0.041 Y13.099 Z-2.000 I-0.033 J0.102 F360.000
G2 X0.076 Y13.076 Z-2.000 I0.041 J-0.098 F360.000
G1 X0.076 Y13.076 Z-2.500 F36.000
G2 X0.053 Y12.908 Z-2.500 I-0.075 J-0.075 F360.000
G1 X0.033 Y12.899 Z-2.500 F360.000
G2 X-0.041 Y13.099 Z-2.500 I-0.033 J0.102 F360.000
G2 X0.076 Y13.076 Z-2.500 I0.041 J-0.098 F360.000
G1 X0.076 Y13.076 Z-3.000 F36.000
G2 X0.053 Y12.908 Z-3.000 I-0.075 J-0.075 F360.000
G1 X0.033 Y12.899 Z-3.000 F360.000
G2 X-0.041 Y13.099 Z-3.000 I-0.033 J0.102 F360.000
G2 X0.076 Y13.076 Z-3.000 I0.041 J-0.098 F360.000
G1 X0.076 Y13.076 Z-3.500 F36.000
G2 X0.053 Y12.908 Z-3.500 I-0.075 J-0.075 F360.000
G1 X0.033 Y12.899 Z-3.500 F360.000
G2 X-0.041 Y13.099 Z-3.500 I-0.033 J0.102 F360.000
G2 X0.076 Y13.076 Z-3.500 I0.041 J-0.098 F360.000
G1 X0.076 Y13.076 Z-4.000 F36.000
G2 X0.053 Y12.908 Z-4.000 I-0.075 J-0.075 F360.000
G1 X0.033 Y12.899 Z-4.000 F360.000
G2 X-0.041 Y13.099 Z-4.000 I-0.033 J0.102 F360.000
G2 X0.076 Y13.076 Z-4.000 I0.041 J-0.098 F360.000
G1 X0.076 Y13.076 Z-4.500 F36.000
G2 X0.053 Y12.908 Z-4.500 I-0.075 J-0.075 F360.000
G1 X0.033 Y12.899 Z-4.500 F360.000
G2 X-0.041 Y13.099 Z-4.500 I-0.033 J0.102 F360.000
G2 X0.076 Y13.076 Z-4.500 I0.041 J-0.098 F360.000
G1 X0.076 Y13.076 Z-5.000 F36.000
G2 X0.053 Y12.908 Z-5.000 I-0.075 J-0.075 F360.000
G1 X0.033 Y12.899 Z-5.000 F360.000
G2 X-0.041 Y13.099 Z-5.000 I-0.033 J0.102 F360.000
G2 X0.076 Y13.076 Z-5.000 I0.041 J-0.098 F360.000
G1 X0.076 Y13.076 Z-5.500 F36.000
G2 X0.053 Y12.908 Z-5.500 I-0.075 J-0.075 F360.000
G1 X0.033 Y12.899 Z-5.500 F360.000
G2 X-0.041 Y13.099 Z-5.500 I-0.033 J0.102 F360.000
G2 X0.076 Y13.076 Z-5.500 I0.041 J-0.098 F360.000
G1 X0.076 Y13.076 Z-6.000 F36.000
G2 X0.053 Y12.908 Z-6.000 I-0.075 J-0.075 F360.000
G1 X0.033 Y12.899 Z-6.000 F360.000
G2 X-0.041 Y13.099 Z-6.000 I-0.033 J0.102 F360.000
G2 X0.076 Y13.076 Z-6.000 I0.041 J-0.098 F360.000
G1 X0.076 Y13.076 Z-6.500 F36.000
G2 X0.053 Y12.908 Z-6.500 I-0.075 J-0.075 F360.000
G1 X0.033 Y12.899 Z-6.500 F360.000
G2 X-0.041 Y13.099 Z-6.500 I-0.033 J0.102 F360.000
G2 X0.076 Y13.076 Z-6.500 I0.041 J-0.098 F360.000
G1 X0.076 Y13.076 Z-7.000 F36.000
G2 X0.053 Y12.908 Z-7.000 I-0.075 J-0.075 F360.000
G1 X0.033 Y12.899 Z-7.000 F360.000
G2 X-0.041 Y13.099 Z-7.000 I-0.033 J0.102 F360.000
G2 X0.076 Y13.076 Z-7.000 I0.041 J-0.098 F360.000
G1 X0.076 Y13.076 Z-7.500 F36.000
G2 X0.053 Y12.908 Z-7.500 I-0.075 J-0.075 F360.000
G1 X0.033 Y12.899 Z-7.500 F360.000
G2 X-0.041 Y13.099 Z-7.500 I-0.033 J0.102 F360.000
G2 X0.076 Y13.076 Z-7.500 I0.041 J-0.098 F360.000
G1 X0.076 Y13.076 Z-8.000 F36.000
G2 X0.053 Y12.908 Z-8.000 I-0.075 J-0.075 F360.000
G1 X0.033 Y12.899 Z-8.000 F360.000
G2 X-0.041 Y13.099 Z-8.000 I-0.033 J0.102 F360.000
G2 X0.076 Y13.076 Z-8.000 I0.041 J-0.098 F360.000
G1 X0.076 Y13.076 Z-8.500 F36.000
G2 X0.053 Y12.908 Z-8.500 I-0.075 J-0.075 F360.000
G1 X0.033 Y12.899 Z-8.500 F360.000
G2 X-0.041 Y13.099 Z-8.500 I-0.033 J0.102 F360.000
G2 X0.076 Y13.076 Z-8.500 I0.041 J-0.098 F360.000
G1 X0.076 Y13.076 Z-9.000 F36.000
G2 X0.053 Y12.908 Z-9.000 I-0.075 J-0.075 F360.000
G1 X0.033 Y12.899 Z-9.000 F360.000
G2 X-0.041 Y13.099 Z-9.000 I-0.033 J0.102 F360.000
G2 X0.076 Y13.076 Z-9.000 I0.041 J-0.098 F360.000
G1 X0.076 Y13.076 Z-9.500 F36.000
G2 X0.053 Y12.908 Z-9.500 I-0.075 J-0.075 F360.000
G1 X0.033 Y12.899 Z-9.500 F360.000
G2 X-0.041 Y13.099 Z-9.500 I-0.033 J0.102 F360.000
G2 X0.076 Y13.076 Z-9.500 I0.041 J-0.098 F360.000
G1 X0.076 Y13.076 Z-10.000 F36.000
G2 X0.053 Y12.908 Z-10.000 I-0.075 J-0.075 F360.000
G1 X0.033 Y12.899 Z-10.000 F360.000
G2 X-0.041 Y13.099 Z-10.000 I-0.033 J0.102 F360.000
G2 X0.076 Y13.076 Z-10.000 I0.041 J-0.098 F360.000
G1 X0.076 Y13.076 Z-10.500 F36.000
G2 X0.053 Y12.908 Z-10.500 I-0.075 J-0.075 F360.000
G1 X0.033 Y12.899 Z-10.500 F360.000
G2 X-0.041 Y13.099 Z-10.500 I-0.033 J0.102 F360.000
G2 X0.076 Y13.076 Z-10.500 I0.041 J-0.098 F360.000
G1 X0.076 Y13.076 Z-11.000 F36.000
G2 X0.053 Y12.908 Z-11.000 I-0.075 J-0.075 F360.000
G1 X0.033 Y12.899 Z-11.000 F360.000
G2 X-0.041 Y13.099 Z-11.000 I-0.033 J0.102 F360.000
G2 X0.076 Y13.076 Z-11.000 I0.041 J-0.098 F360.000
G0 Z5.000
(finish operation: Pocket_Shape002)
(begin postamble)
M05
G17 G54 G90 G80 G40
M2
