(Exported by FreeCAD)
(Post Processor: linuxcnc_post)
(Output Time:2018-07-30 14:03:51.323127)
(begin preamble)
G17 G54 G40 G49 G80 G90
G21
(begin operation: T1: 125 End Mill)
(machine: not set, mm/min)
(T1: 125 End Mill)
M6 T1
M3 S24000
G4 P10
(finish operation: T1: 125 End Mill)
(begin operation: Mounts)
(machine: not set, mm/min)
(Mounts)
G0 Z5.000
G0 X13.076 Y0.075
G0 Z3.000
G1 X13.076 Y0.075 Z-0.500 F900.000
G3 X12.957 Y0.097 Z-0.500 I-0.075 J-0.075 F30000.000
G3 X13.041 Y-0.099 Z-0.500 I0.044 J-0.097 F30000.000
G1 X13.060 Y-0.089 Z-0.500 F30000.000
G3 X13.076 Y0.075 Z-0.500 I-0.059 J0.089 F30000.000
G1 X13.076 Y0.075 Z-1.000 F900.000
G3 X12.957 Y0.097 Z-1.000 I-0.075 J-0.075 F30000.000
G3 X13.041 Y-0.099 Z-1.000 I0.044 J-0.097 F30000.000
G1 X13.060 Y-0.089 Z-1.000 F30000.000
G3 X13.076 Y0.075 Z-1.000 I-0.059 J0.089 F30000.000
G1 X13.076 Y0.075 Z-1.500 F900.000
G3 X12.957 Y0.097 Z-1.500 I-0.075 J-0.075 F30000.000
G3 X13.041 Y-0.099 Z-1.500 I0.044 J-0.097 F30000.000
G1 X13.060 Y-0.089 Z-1.500 F30000.000
G3 X13.076 Y0.075 Z-1.500 I-0.059 J0.089 F30000.000
G1 X13.076 Y0.075 Z-2.000 F900.000
G3 X12.957 Y0.097 Z-2.000 I-0.075 J-0.075 F30000.000
G3 X13.041 Y-0.099 Z-2.000 I0.044 J-0.097 F30000.000
G1 X13.060 Y-0.089 Z-2.000 F30000.000
G3 X13.076 Y0.075 Z-2.000 I-0.059 J0.089 F30000.000
G1 X13.076 Y0.075 Z-2.500 F900.000
G3 X12.957 Y0.097 Z-2.500 I-0.075 J-0.075 F30000.000
G3 X13.041 Y-0.099 Z-2.500 I0.044 J-0.097 F30000.000
G1 X13.060 Y-0.089 Z-2.500 F30000.000
G3 X13.076 Y0.075 Z-2.500 I-0.059 J0.089 F30000.000
G1 X13.076 Y0.075 Z-3.000 F900.000
G3 X12.957 Y0.097 Z-3.000 I-0.075 J-0.075 F30000.000
G3 X13.041 Y-0.099 Z-3.000 I0.044 J-0.097 F30000.000
G1 X13.060 Y-0.089 Z-3.000 F30000.000
G3 X13.076 Y0.075 Z-3.000 I-0.059 J0.089 F30000.000
G1 X13.076 Y0.075 Z-3.500 F900.000
G3 X12.957 Y0.097 Z-3.500 I-0.075 J-0.075 F30000.000
G3 X13.041 Y-0.099 Z-3.500 I0.044 J-0.097 F30000.000
G1 X13.060 Y-0.089 Z-3.500 F30000.000
G3 X13.076 Y0.075 Z-3.500 I-0.059 J0.089 F30000.000
G1 X13.076 Y0.075 Z-4.000 F900.000
G3 X12.957 Y0.097 Z-4.000 I-0.075 J-0.075 F30000.000
G3 X13.041 Y-0.099 Z-4.000 I0.044 J-0.097 F30000.000
G1 X13.060 Y-0.089 Z-4.000 F30000.000
G3 X13.076 Y0.075 Z-4.000 I-0.059 J0.089 F30000.000
G1 X13.076 Y0.075 Z-4.500 F900.000
G3 X12.957 Y0.097 Z-4.500 I-0.075 J-0.075 F30000.000
G3 X13.041 Y-0.099 Z-4.500 I0.044 J-0.097 F30000.000
G1 X13.060 Y-0.089 Z-4.500 F30000.000
G3 X13.076 Y0.075 Z-4.500 I-0.059 J0.089 F30000.000
G1 X13.076 Y0.075 Z-5.000 F900.000
G3 X12.957 Y0.097 Z-5.000 I-0.075 J-0.075 F30000.000
G3 X13.041 Y-0.099 Z-5.000 I0.044 J-0.097 F30000.000
G1 X13.060 Y-0.089 Z-5.000 F30000.000
G3 X13.076 Y0.075 Z-5.000 I-0.059 J0.089 F30000.000
G1 X13.076 Y0.075 Z-5.500 F900.000
G3 X12.957 Y0.097 Z-5.500 I-0.075 J-0.075 F30000.000
G3 X13.041 Y-0.099 Z-5.500 I0.044 J-0.097 F30000.000
G1 X13.060 Y-0.089 Z-5.500 F30000.000
G3 X13.076 Y0.075 Z-5.500 I-0.059 J0.089 F30000.000
G1 X13.076 Y0.075 Z-6.000 F900.000
G3 X12.957 Y0.097 Z-6.000 I-0.075 J-0.075 F30000.000
G3 X13.041 Y-0.099 Z-6.000 I0.044 J-0.097 F30000.000
G1 X13.060 Y-0.089 Z-6.000 F30000.000
G3 X13.076 Y0.075 Z-6.000 I-0.059 J0.089 F30000.000
G1 X13.076 Y0.075 Z-6.500 F900.000
G3 X12.957 Y0.097 Z-6.500 I-0.075 J-0.075 F30000.000
G3 X13.041 Y-0.099 Z-6.500 I0.044 J-0.097 F30000.000
G1 X13.060 Y-0.089 Z-6.500 F30000.000
G3 X13.076 Y0.075 Z-6.500 I-0.059 J0.089 F30000.000
G1 X13.076 Y0.075 Z-7.000 F900.000
G3 X12.957 Y0.097 Z-7.000 I-0.075 J-0.075 F30000.000
G3 X13.041 Y-0.099 Z-7.000 I0.044 J-0.097 F30000.000
G1 X13.060 Y-0.089 Z-7.000 F30000.000
G3 X13.076 Y0.075 Z-7.000 I-0.059 J0.089 F30000.000
G1 X13.076 Y0.075 Z-7.500 F900.000
G3 X12.957 Y0.097 Z-7.500 I-0.075 J-0.075 F30000.000
G3 X13.041 Y-0.099 Z-7.500 I0.044 J-0.097 F30000.000
G1 X13.060 Y-0.089 Z-7.500 F30000.000
G3 X13.076 Y0.075 Z-7.500 I-0.059 J0.089 F30000.000
G1 X13.076 Y0.075 Z-8.000 F900.000
G3 X12.957 Y0.097 Z-8.000 I-0.075 J-0.075 F30000.000
G3 X13.041 Y-0.099 Z-8.000 I0.044 J-0.097 F30000.000
G1 X13.060 Y-0.089 Z-8.000 F30000.000
G3 X13.076 Y0.075 Z-8.000 I-0.059 J0.089 F30000.000
G1 X13.076 Y0.075 Z-8.500 F900.000
G3 X12.957 Y0.097 Z-8.500 I-0.075 J-0.075 F30000.000
G3 X13.041 Y-0.099 Z-8.500 I0.044 J-0.097 F30000.000
G1 X13.060 Y-0.089 Z-8.500 F30000.000
G3 X13.076 Y0.075 Z-8.500 I-0.059 J0.089 F30000.000
G1 X13.076 Y0.075 Z-9.000 F900.000
G3 X12.957 Y0.097 Z-9.000 I-0.075 J-0.075 F30000.000
G3 X13.041 Y-0.099 Z-9.000 I0.044 J-0.097 F30000.000
G1 X13.060 Y-0.089 Z-9.000 F30000.000
G3 X13.076 Y0.075 Z-9.000 I-0.059 J0.089 F30000.000
G1 X13.076 Y0.075 Z-9.500 F900.000
G3 X12.957 Y0.097 Z-9.500 I-0.075 J-0.075 F30000.000
G3 X13.041 Y-0.099 Z-9.500 I0.044 J-0.097 F30000.000
G1 X13.060 Y-0.089 Z-9.500 F30000.000
G3 X13.076 Y0.075 Z-9.500 I-0.059 J0.089 F30000.000
G1 X13.076 Y0.075 Z-10.000 F900.000
G3 X12.957 Y0.097 Z-10.000 I-0.075 J-0.075 F30000.000
G3 X13.041 Y-0.099 Z-10.000 I0.044 J-0.097 F30000.000
G1 X13.060 Y-0.089 Z-10.000 F30000.000
G3 X13.076 Y0.075 Z-10.000 I-0.059 J0.089 F30000.000
G1 X13.076 Y0.075 Z-10.500 F900.000
G3 X12.957 Y0.097 Z-10.500 I-0.075 J-0.075 F30000.000
G3 X13.041 Y-0.099 Z-10.500 I0.044 J-0.097 F30000.000
G1 X13.060 Y-0.089 Z-10.500 F30000.000
G3 X13.076 Y0.075 Z-10.500 I-0.059 J0.089 F30000.000
G0 Z5.000
G0 X-12.924 Y0.075
G0 Z3.000
G1 X-12.924 Y0.075 Z-0.500 F900.000
G3 X-13.043 Y0.097 Z-0.500 I-0.075 J-0.075 F30000.000
G3 X-12.959 Y-0.099 Z-0.500 I0.044 J-0.097 F30000.000
G1 X-12.940 Y-0.089 Z-0.500 F30000.000
G3 X-12.924 Y0.075 Z-0.500 I-0.059 J0.089 F30000.000
G1 X-12.924 Y0.075 Z-1.000 F900.000
G3 X-13.043 Y0.097 Z-1.000 I-0.075 J-0.075 F30000.000
G3 X-12.959 Y-0.099 Z-1.000 I0.044 J-0.097 F30000.000
G1 X-12.940 Y-0.089 Z-1.000 F30000.000
G3 X-12.924 Y0.075 Z-1.000 I-0.059 J0.089 F30000.000
G1 X-12.924 Y0.075 Z-1.500 F900.000
G3 X-13.043 Y0.097 Z-1.500 I-0.075 J-0.075 F30000.000
G3 X-12.959 Y-0.099 Z-1.500 I0.044 J-0.097 F30000.000
G1 X-12.940 Y-0.089 Z-1.500 F30000.000
G3 X-12.924 Y0.075 Z-1.500 I-0.059 J0.089 F30000.000
G1 X-12.924 Y0.075 Z-2.000 F900.000
G3 X-13.043 Y0.097 Z-2.000 I-0.075 J-0.075 F30000.000
G3 X-12.959 Y-0.099 Z-2.000 I0.044 J-0.097 F30000.000
G1 X-12.940 Y-0.089 Z-2.000 F30000.000
G3 X-12.924 Y0.075 Z-2.000 I-0.059 J0.089 F30000.000
G1 X-12.924 Y0.075 Z-2.500 F900.000
G3 X-13.043 Y0.097 Z-2.500 I-0.075 J-0.075 F30000.000
G3 X-12.959 Y-0.099 Z-2.500 I0.044 J-0.097 F30000.000
G1 X-12.940 Y-0.089 Z-2.500 F30000.000
G3 X-12.924 Y0.075 Z-2.500 I-0.059 J0.089 F30000.000
G1 X-12.924 Y0.075 Z-3.000 F900.000
G3 X-13.043 Y0.097 Z-3.000 I-0.075 J-0.075 F30000.000
G3 X-12.959 Y-0.099 Z-3.000 I0.044 J-0.097 F30000.000
G1 X-12.940 Y-0.089 Z-3.000 F30000.000
G3 X-12.924 Y0.075 Z-3.000 I-0.059 J0.089 F30000.000
G1 X-12.924 Y0.075 Z-3.500 F900.000
G3 X-13.043 Y0.097 Z-3.500 I-0.075 J-0.075 F30000.000
G3 X-12.959 Y-0.099 Z-3.500 I0.044 J-0.097 F30000.000
G1 X-12.940 Y-0.089 Z-3.500 F30000.000
G3 X-12.924 Y0.075 Z-3.500 I-0.059 J0.089 F30000.000
G1 X-12.924 Y0.075 Z-4.000 F900.000
G3 X-13.043 Y0.097 Z-4.000 I-0.075 J-0.075 F30000.000
G3 X-12.959 Y-0.099 Z-4.000 I0.044 J-0.097 F30000.000
G1 X-12.940 Y-0.089 Z-4.000 F30000.000
G3 X-12.924 Y0.075 Z-4.000 I-0.059 J0.089 F30000.000
G1 X-12.924 Y0.075 Z-4.500 F900.000
G3 X-13.043 Y0.097 Z-4.500 I-0.075 J-0.075 F30000.000
G3 X-12.959 Y-0.099 Z-4.500 I0.044 J-0.097 F30000.000
G1 X-12.940 Y-0.089 Z-4.500 F30000.000
G3 X-12.924 Y0.075 Z-4.500 I-0.059 J0.089 F30000.000
G1 X-12.924 Y0.075 Z-5.000 F900.000
G3 X-13.043 Y0.097 Z-5.000 I-0.075 J-0.075 F30000.000
G3 X-12.959 Y-0.099 Z-5.000 I0.044 J-0.097 F30000.000
G1 X-12.940 Y-0.089 Z-5.000 F30000.000
G3 X-12.924 Y0.075 Z-5.000 I-0.059 J0.089 F30000.000
G1 X-12.924 Y0.075 Z-5.500 F900.000
G3 X-13.043 Y0.097 Z-5.500 I-0.075 J-0.075 F30000.000
G3 X-12.959 Y-0.099 Z-5.500 I0.044 J-0.097 F30000.000
G1 X-12.940 Y-0.089 Z-5.500 F30000.000
G3 X-12.924 Y0.075 Z-5.500 I-0.059 J0.089 F30000.000
G1 X-12.924 Y0.075 Z-6.000 F900.000
G3 X-13.043 Y0.097 Z-6.000 I-0.075 J-0.075 F30000.000
G3 X-12.959 Y-0.099 Z-6.000 I0.044 J-0.097 F30000.000
G1 X-12.940 Y-0.089 Z-6.000 F30000.000
G3 X-12.924 Y0.075 Z-6.000 I-0.059 J0.089 F30000.000
G1 X-12.924 Y0.075 Z-6.500 F900.000
G3 X-13.043 Y0.097 Z-6.500 I-0.075 J-0.075 F30000.000
G3 X-12.959 Y-0.099 Z-6.500 I0.044 J-0.097 F30000.000
G1 X-12.940 Y-0.089 Z-6.500 F30000.000
G3 X-12.924 Y0.075 Z-6.500 I-0.059 J0.089 F30000.000
G1 X-12.924 Y0.075 Z-7.000 F900.000
G3 X-13.043 Y0.097 Z-7.000 I-0.075 J-0.075 F30000.000
G3 X-12.959 Y-0.099 Z-7.000 I0.044 J-0.097 F30000.000
G1 X-12.940 Y-0.089 Z-7.000 F30000.000
G3 X-12.924 Y0.075 Z-7.000 I-0.059 J0.089 F30000.000
G1 X-12.924 Y0.075 Z-7.500 F900.000
G3 X-13.043 Y0.097 Z-7.500 I-0.075 J-0.075 F30000.000
G3 X-12.959 Y-0.099 Z-7.500 I0.044 J-0.097 F30000.000
G1 X-12.940 Y-0.089 Z-7.500 F30000.000
G3 X-12.924 Y0.075 Z-7.500 I-0.059 J0.089 F30000.000
G1 X-12.924 Y0.075 Z-8.000 F900.000
G3 X-13.043 Y0.097 Z-8.000 I-0.075 J-0.075 F30000.000
G3 X-12.959 Y-0.099 Z-8.000 I0.044 J-0.097 F30000.000
G1 X-12.940 Y-0.089 Z-8.000 F30000.000
G3 X-12.924 Y0.075 Z-8.000 I-0.059 J0.089 F30000.000
G1 X-12.924 Y0.075 Z-8.500 F900.000
G3 X-13.043 Y0.097 Z-8.500 I-0.075 J-0.075 F30000.000
G3 X-12.959 Y-0.099 Z-8.500 I0.044 J-0.097 F30000.000
G1 X-12.940 Y-0.089 Z-8.500 F30000.000
G3 X-12.924 Y0.075 Z-8.500 I-0.059 J0.089 F30000.000
G1 X-12.924 Y0.075 Z-9.000 F900.000
G3 X-13.043 Y0.097 Z-9.000 I-0.075 J-0.075 F30000.000
G3 X-12.959 Y-0.099 Z-9.000 I0.044 J-0.097 F30000.000
G1 X-12.940 Y-0.089 Z-9.000 F30000.000
G3 X-12.924 Y0.075 Z-9.000 I-0.059 J0.089 F30000.000
G1 X-12.924 Y0.075 Z-9.500 F900.000
G3 X-13.043 Y0.097 Z-9.500 I-0.075 J-0.075 F30000.000
G3 X-12.959 Y-0.099 Z-9.500 I0.044 J-0.097 F30000.000
G1 X-12.940 Y-0.089 Z-9.500 F30000.000
G3 X-12.924 Y0.075 Z-9.500 I-0.059 J0.089 F30000.000
G1 X-12.924 Y0.075 Z-10.000 F900.000
G3 X-13.043 Y0.097 Z-10.000 I-0.075 J-0.075 F30000.000
G3 X-12.959 Y-0.099 Z-10.000 I0.044 J-0.097 F30000.000
G1 X-12.940 Y-0.089 Z-10.000 F30000.000
G3 X-12.924 Y0.075 Z-10.000 I-0.059 J0.089 F30000.000
G1 X-12.924 Y0.075 Z-10.500 F900.000
G3 X-13.043 Y0.097 Z-10.500 I-0.075 J-0.075 F30000.000
G3 X-12.959 Y-0.099 Z-10.500 I0.044 J-0.097 F30000.000
G1 X-12.940 Y-0.089 Z-10.500 F30000.000
G3 X-12.924 Y0.075 Z-10.500 I-0.059 J0.089 F30000.000
G0 Z5.000
(finish operation: Mounts)
(begin operation: T1: 125 End Mill)
(machine: not set, mm/min)
(T1: 125 End Mill)
M6 T1
M3 S24000
(finish operation: T1: 125 End Mill)
(begin operation: Pocket_Shape002)
(machine: not set, mm/min)
(Pocket_Shape002)
G0 Z5.000
G0 X-1.695 Y4.111
G0 Z3.000
G1 X-1.695 Y4.111 Z-0.500 F900.000
G2 X-1.608 Y3.360 Z-0.500 I-0.430 J-0.430 F30000.000
G2 X-2.642 Y4.001 Z-0.500 I-0.517 J0.320 F30000.000
G2 X-1.695 Y4.111 Z-0.500 I0.517 J-0.320 F30000.000
G1 X-1.695 Y4.111 Z-1.000 F900.000
G2 X-1.608 Y3.360 Z-1.000 I-0.430 J-0.430 F30000.000
G2 X-2.642 Y4.001 Z-1.000 I-0.517 J0.320 F30000.000
G2 X-1.695 Y4.111 Z-1.000 I0.517 J-0.320 F30000.000
G1 X-1.695 Y4.111 Z-1.500 F900.000
G2 X-1.608 Y3.360 Z-1.500 I-0.430 J-0.430 F30000.000
G2 X-2.642 Y4.001 Z-1.500 I-0.517 J0.320 F30000.000
G2 X-1.695 Y4.111 Z-1.500 I0.517 J-0.320 F30000.000
G1 X-1.695 Y4.111 Z-2.000 F900.000
G2 X-1.608 Y3.360 Z-2.000 I-0.430 J-0.430 F30000.000
G2 X-2.642 Y4.001 Z-2.000 I-0.517 J0.320 F30000.000
G2 X-1.695 Y4.111 Z-2.000 I0.517 J-0.320 F30000.000
G1 X-1.695 Y4.111 Z-2.500 F900.000
G2 X-1.608 Y3.360 Z-2.500 I-0.430 J-0.430 F30000.000
G2 X-2.642 Y4.001 Z-2.500 I-0.517 J0.320 F30000.000
G2 X-1.695 Y4.111 Z-2.500 I0.517 J-0.320 F30000.000
G1 X-1.695 Y4.111 Z-3.000 F900.000
G2 X-1.608 Y3.360 Z-3.000 I-0.430 J-0.430 F30000.000
G2 X-2.642 Y4.001 Z-3.000 I-0.517 J0.320 F30000.000
G2 X-1.695 Y4.111 Z-3.000 I0.517 J-0.320 F30000.000
G1 X-1.695 Y4.111 Z-3.500 F900.000
G2 X-1.608 Y3.360 Z-3.500 I-0.430 J-0.430 F30000.000
G2 X-2.642 Y4.001 Z-3.500 I-0.517 J0.320 F30000.000
G2 X-1.695 Y4.111 Z-3.500 I0.517 J-0.320 F30000.000
G1 X-1.695 Y4.111 Z-4.000 F900.000
G2 X-1.608 Y3.360 Z-4.000 I-0.430 J-0.430 F30000.000
G2 X-2.642 Y4.001 Z-4.000 I-0.517 J0.320 F30000.000
G2 X-1.695 Y4.111 Z-4.000 I0.517 J-0.320 F30000.000
G1 X-1.695 Y4.111 Z-4.500 F900.000
G2 X-1.608 Y3.360 Z-4.500 I-0.430 J-0.430 F30000.000
G2 X-2.642 Y4.001 Z-4.500 I-0.517 J0.320 F30000.000
G2 X-1.695 Y4.111 Z-4.500 I0.517 J-0.320 F30000.000
G1 X-1.695 Y4.111 Z-5.000 F900.000
G2 X-1.608 Y3.360 Z-5.000 I-0.430 J-0.430 F30000.000
G2 X-2.642 Y4.001 Z-5.000 I-0.517 J0.320 F30000.000
G2 X-1.695 Y4.111 Z-5.000 I0.517 J-0.320 F30000.000
G1 X-1.695 Y4.111 Z-5.500 F900.000
G2 X-1.608 Y3.360 Z-5.500 I-0.430 J-0.430 F30000.000
G2 X-2.642 Y4.001 Z-5.500 I-0.517 J0.320 F30000.000
G2 X-1.695 Y4.111 Z-5.500 I0.517 J-0.320 F30000.000
G1 X-1.695 Y4.111 Z-6.000 F900.000
G2 X-1.608 Y3.360 Z-6.000 I-0.430 J-0.430 F30000.000
G2 X-2.642 Y4.001 Z-6.000 I-0.517 J0.320 F30000.000
G2 X-1.695 Y4.111 Z-6.000 I0.517 J-0.320 F30000.000
G1 X-1.695 Y4.111 Z-6.500 F900.000
G2 X-1.608 Y3.360 Z-6.500 I-0.430 J-0.430 F30000.000
G2 X-2.642 Y4.001 Z-6.500 I-0.517 J0.320 F30000.000
G2 X-1.695 Y4.111 Z-6.500 I0.517 J-0.320 F30000.000
G1 X-1.695 Y4.111 Z-7.000 F900.000
G2 X-1.608 Y3.360 Z-7.000 I-0.430 J-0.430 F30000.000
G2 X-2.642 Y4.001 Z-7.000 I-0.517 J0.320 F30000.000
G2 X-1.695 Y4.111 Z-7.000 I0.517 J-0.320 F30000.000
G1 X-1.695 Y4.111 Z-7.500 F900.000
G2 X-1.608 Y3.360 Z-7.500 I-0.430 J-0.430 F30000.000
G2 X-2.642 Y4.001 Z-7.500 I-0.517 J0.320 F30000.000
G2 X-1.695 Y4.111 Z-7.500 I0.517 J-0.320 F30000.000
G1 X-1.695 Y4.111 Z-8.000 F900.000
G2 X-1.608 Y3.360 Z-8.000 I-0.430 J-0.430 F30000.000
G2 X-2.642 Y4.001 Z-8.000 I-0.517 J0.320 F30000.000
G2 X-1.695 Y4.111 Z-8.000 I0.517 J-0.320 F30000.000
G1 X-1.695 Y4.111 Z-8.500 F900.000
G2 X-1.608 Y3.360 Z-8.500 I-0.430 J-0.430 F30000.000
G2 X-2.642 Y4.001 Z-8.500 I-0.517 J0.320 F30000.000
G2 X-1.695 Y4.111 Z-8.500 I0.517 J-0.320 F30000.000
G1 X-1.695 Y4.111 Z-9.000 F900.000
G2 X-1.608 Y3.360 Z-9.000 I-0.430 J-0.430 F30000.000
G2 X-2.642 Y4.001 Z-9.000 I-0.517 J0.320 F30000.000
G2 X-1.695 Y4.111 Z-9.000 I0.517 J-0.320 F30000.000
G1 X-1.695 Y4.111 Z-9.200 F900.000
G2 X-1.608 Y3.360 Z-9.200 I-0.430 J-0.430 F30000.000
G2 X-2.642 Y4.001 Z-9.200 I-0.517 J0.320 F30000.000
G2 X-1.695 Y4.111 Z-9.200 I0.517 J-0.320 F30000.000
G0 Z5.000
G0 X-1.695 Y-3.251
G0 Z3.000
G1 X-1.695 Y-3.251 Z-0.500 F900.000
G2 X-1.608 Y-4.001 Z-0.500 I-0.430 J-0.430 F30000.000
G2 X-2.642 Y-3.360 Z-0.500 I-0.517 J0.320 F30000.000
G2 X-1.695 Y-3.251 Z-0.500 I0.517 J-0.320 F30000.000
G1 X-1.695 Y-3.251 Z-1.000 F900.000
G2 X-1.608 Y-4.001 Z-1.000 I-0.430 J-0.430 F30000.000
G2 X-2.642 Y-3.360 Z-1.000 I-0.517 J0.320 F30000.000
G2 X-1.695 Y-3.251 Z-1.000 I0.517 J-0.320 F30000.000
G1 X-1.695 Y-3.251 Z-1.500 F900.000
G2 X-1.608 Y-4.001 Z-1.500 I-0.430 J-0.430 F30000.000
G2 X-2.642 Y-3.360 Z-1.500 I-0.517 J0.320 F30000.000
G2 X-1.695 Y-3.251 Z-1.500 I0.517 J-0.320 F30000.000
G1 X-1.695 Y-3.251 Z-2.000 F900.000
G2 X-1.608 Y-4.001 Z-2.000 I-0.430 J-0.430 F30000.000
G2 X-2.642 Y-3.360 Z-2.000 I-0.517 J0.320 F30000.000
G2 X-1.695 Y-3.251 Z-2.000 I0.517 J-0.320 F30000.000
G1 X-1.695 Y-3.251 Z-2.500 F900.000
G2 X-1.608 Y-4.001 Z-2.500 I-0.430 J-0.430 F30000.000
G2 X-2.642 Y-3.360 Z-2.500 I-0.517 J0.320 F30000.000
G2 X-1.695 Y-3.251 Z-2.500 I0.517 J-0.320 F30000.000
G1 X-1.695 Y-3.251 Z-3.000 F900.000
G2 X-1.608 Y-4.001 Z-3.000 I-0.430 J-0.430 F30000.000
G2 X-2.642 Y-3.360 Z-3.000 I-0.517 J0.320 F30000.000
G2 X-1.695 Y-3.251 Z-3.000 I0.517 J-0.320 F30000.000
G1 X-1.695 Y-3.251 Z-3.500 F900.000
G2 X-1.608 Y-4.001 Z-3.500 I-0.430 J-0.430 F30000.000
G2 X-2.642 Y-3.360 Z-3.500 I-0.517 J0.320 F30000.000
G2 X-1.695 Y-3.251 Z-3.500 I0.517 J-0.320 F30000.000
G1 X-1.695 Y-3.251 Z-4.000 F900.000
G2 X-1.608 Y-4.001 Z-4.000 I-0.430 J-0.430 F30000.000
G2 X-2.642 Y-3.360 Z-4.000 I-0.517 J0.320 F30000.000
G2 X-1.695 Y-3.251 Z-4.000 I0.517 J-0.320 F30000.000
G1 X-1.695 Y-3.251 Z-4.500 F900.000
G2 X-1.608 Y-4.001 Z-4.500 I-0.430 J-0.430 F30000.000
G2 X-2.642 Y-3.360 Z-4.500 I-0.517 J0.320 F30000.000
G2 X-1.695 Y-3.251 Z-4.500 I0.517 J-0.320 F30000.000
G1 X-1.695 Y-3.251 Z-5.000 F900.000
G2 X-1.608 Y-4.001 Z-5.000 I-0.430 J-0.430 F30000.000
G2 X-2.642 Y-3.360 Z-5.000 I-0.517 J0.320 F30000.000
G2 X-1.695 Y-3.251 Z-5.000 I0.517 J-0.320 F30000.000
G1 X-1.695 Y-3.251 Z-5.500 F900.000
G2 X-1.608 Y-4.001 Z-5.500 I-0.430 J-0.430 F30000.000
G2 X-2.642 Y-3.360 Z-5.500 I-0.517 J0.320 F30000.000
G2 X-1.695 Y-3.251 Z-5.500 I0.517 J-0.320 F30000.000
G1 X-1.695 Y-3.251 Z-6.000 F900.000
G2 X-1.608 Y-4.001 Z-6.000 I-0.430 J-0.430 F30000.000
G2 X-2.642 Y-3.360 Z-6.000 I-0.517 J0.320 F30000.000
G2 X-1.695 Y-3.251 Z-6.000 I0.517 J-0.320 F30000.000
G1 X-1.695 Y-3.251 Z-6.500 F900.000
G2 X-1.608 Y-4.001 Z-6.500 I-0.430 J-0.430 F30000.000
G2 X-2.642 Y-3.360 Z-6.500 I-0.517 J0.320 F30000.000
G2 X-1.695 Y-3.251 Z-6.500 I0.517 J-0.320 F30000.000
G1 X-1.695 Y-3.251 Z-7.000 F900.000
G2 X-1.608 Y-4.001 Z-7.000 I-0.430 J-0.430 F30000.000
G2 X-2.642 Y-3.360 Z-7.000 I-0.517 J0.320 F30000.000
G2 X-1.695 Y-3.251 Z-7.000 I0.517 J-0.320 F30000.000
G1 X-1.695 Y-3.251 Z-7.500 F900.000
G2 X-1.608 Y-4.001 Z-7.500 I-0.430 J-0.430 F30000.000
G2 X-2.642 Y-3.360 Z-7.500 I-0.517 J0.320 F30000.000
G2 X-1.695 Y-3.251 Z-7.500 I0.517 J-0.320 F30000.000
G1 X-1.695 Y-3.251 Z-8.000 F900.000
G2 X-1.608 Y-4.001 Z-8.000 I-0.430 J-0.430 F30000.000
G2 X-2.642 Y-3.360 Z-8.000 I-0.517 J0.320 F30000.000
G2 X-1.695 Y-3.251 Z-8.000 I0.517 J-0.320 F30000.000
G1 X-1.695 Y-3.251 Z-8.500 F900.000
G2 X-1.608 Y-4.001 Z-8.500 I-0.430 J-0.430 F30000.000
G2 X-2.642 Y-3.360 Z-8.500 I-0.517 J0.320 F30000.000
G2 X-1.695 Y-3.251 Z-8.500 I0.517 J-0.320 F30000.000
G1 X-1.695 Y-3.251 Z-9.000 F900.000
G2 X-1.608 Y-4.001 Z-9.000 I-0.430 J-0.430 F30000.000
G2 X-2.642 Y-3.360 Z-9.000 I-0.517 J0.320 F30000.000
G2 X-1.695 Y-3.251 Z-9.000 I0.517 J-0.320 F30000.000
G1 X-1.695 Y-3.251 Z-9.200 F900.000
G2 X-1.608 Y-4.001 Z-9.200 I-0.430 J-0.430 F30000.000
G2 X-2.642 Y-3.360 Z-9.200 I-0.517 J0.320 F30000.000
G2 X-1.695 Y-3.251 Z-9.200 I0.517 J-0.320 F30000.000
G0 Z5.000
G0 X4.680 Y0.430
G0 Z3.000
G1 X4.680 Y0.430 Z-0.500 F900.000
G2 X4.767 Y-0.320 Z-0.500 I-0.430 J-0.430 F30000.000
G2 X3.733 Y0.320 Z-0.500 I-0.517 J0.320 F30000.000
G2 X4.680 Y0.430 Z-0.500 I0.517 J-0.320 F30000.000
G1 X4.680 Y0.430 Z-1.000 F900.000
G2 X4.767 Y-0.320 Z-1.000 I-0.430 J-0.430 F30000.000
G2 X3.733 Y0.320 Z-1.000 I-0.517 J0.320 F30000.000
G2 X4.680 Y0.430 Z-1.000 I0.517 J-0.320 F30000.000
G1 X4.680 Y0.430 Z-1.500 F900.000
G2 X4.767 Y-0.320 Z-1.500 I-0.430 J-0.430 F30000.000
G2 X3.733 Y0.320 Z-1.500 I-0.517 J0.320 F30000.000
G2 X4.680 Y0.430 Z-1.500 I0.517 J-0.320 F30000.000
G1 X4.680 Y0.430 Z-2.000 F900.000
G2 X4.767 Y-0.320 Z-2.000 I-0.430 J-0.430 F30000.000
G2 X3.733 Y0.320 Z-2.000 I-0.517 J0.320 F30000.000
G2 X4.680 Y0.430 Z-2.000 I0.517 J-0.320 F30000.000
G1 X4.680 Y0.430 Z-2.500 F900.000
G2 X4.767 Y-0.320 Z-2.500 I-0.430 J-0.430 F30000.000
G2 X3.733 Y0.320 Z-2.500 I-0.517 J0.320 F30000.000
G2 X4.680 Y0.430 Z-2.500 I0.517 J-0.320 F30000.000
G1 X4.680 Y0.430 Z-3.000 F900.000
G2 X4.767 Y-0.320 Z-3.000 I-0.430 J-0.430 F30000.000
G2 X3.733 Y0.320 Z-3.000 I-0.517 J0.320 F30000.000
G2 X4.680 Y0.430 Z-3.000 I0.517 J-0.320 F30000.000
G1 X4.680 Y0.430 Z-3.500 F900.000
G2 X4.767 Y-0.320 Z-3.500 I-0.430 J-0.430 F30000.000
G2 X3.733 Y0.320 Z-3.500 I-0.517 J0.320 F30000.000
G2 X4.680 Y0.430 Z-3.500 I0.517 J-0.320 F30000.000
G1 X4.680 Y0.430 Z-4.000 F900.000
G2 X4.767 Y-0.320 Z-4.000 I-0.430 J-0.430 F30000.000
G2 X3.733 Y0.320 Z-4.000 I-0.517 J0.320 F30000.000
G2 X4.680 Y0.430 Z-4.000 I0.517 J-0.320 F30000.000
G1 X4.680 Y0.430 Z-4.500 F900.000
G2 X4.767 Y-0.320 Z-4.500 I-0.430 J-0.430 F30000.000
G2 X3.733 Y0.320 Z-4.500 I-0.517 J0.320 F30000.000
G2 X4.680 Y0.430 Z-4.500 I0.517 J-0.320 F30000.000
G1 X4.680 Y0.430 Z-5.000 F900.000
G2 X4.767 Y-0.320 Z-5.000 I-0.430 J-0.430 F30000.000
G2 X3.733 Y0.320 Z-5.000 I-0.517 J0.320 F30000.000
G2 X4.680 Y0.430 Z-5.000 I0.517 J-0.320 F30000.000
G1 X4.680 Y0.430 Z-5.500 F900.000
G2 X4.767 Y-0.320 Z-5.500 I-0.430 J-0.430 F30000.000
G2 X3.733 Y0.320 Z-5.500 I-0.517 J0.320 F30000.000
G2 X4.680 Y0.430 Z-5.500 I0.517 J-0.320 F30000.000
G1 X4.680 Y0.430 Z-6.000 F900.000
G2 X4.767 Y-0.320 Z-6.000 I-0.430 J-0.430 F30000.000
G2 X3.733 Y0.320 Z-6.000 I-0.517 J0.320 F30000.000
G2 X4.680 Y0.430 Z-6.000 I0.517 J-0.320 F30000.000
G1 X4.680 Y0.430 Z-6.500 F900.000
G2 X4.767 Y-0.320 Z-6.500 I-0.430 J-0.430 F30000.000
G2 X3.733 Y0.320 Z-6.500 I-0.517 J0.320 F30000.000
G2 X4.680 Y0.430 Z-6.500 I0.517 J-0.320 F30000.000
G1 X4.680 Y0.430 Z-7.000 F900.000
G2 X4.767 Y-0.320 Z-7.000 I-0.430 J-0.430 F30000.000
G2 X3.733 Y0.320 Z-7.000 I-0.517 J0.320 F30000.000
G2 X4.680 Y0.430 Z-7.000 I0.517 J-0.320 F30000.000
G1 X4.680 Y0.430 Z-7.500 F900.000
G2 X4.767 Y-0.320 Z-7.500 I-0.430 J-0.430 F30000.000
G2 X3.733 Y0.320 Z-7.500 I-0.517 J0.320 F30000.000
G2 X4.680 Y0.430 Z-7.500 I0.517 J-0.320 F30000.000
G1 X4.680 Y0.430 Z-8.000 F900.000
G2 X4.767 Y-0.320 Z-8.000 I-0.430 J-0.430 F30000.000
G2 X3.733 Y0.320 Z-8.000 I-0.517 J0.320 F30000.000
G2 X4.680 Y0.430 Z-8.000 I0.517 J-0.320 F30000.000
G1 X4.680 Y0.430 Z-8.500 F900.000
G2 X4.767 Y-0.320 Z-8.500 I-0.430 J-0.430 F30000.000
G2 X3.733 Y0.320 Z-8.500 I-0.517 J0.320 F30000.000
G2 X4.680 Y0.430 Z-8.500 I0.517 J-0.320 F30000.000
G1 X4.680 Y0.430 Z-9.000 F900.000
G2 X4.767 Y-0.320 Z-9.000 I-0.430 J-0.430 F30000.000
G2 X3.733 Y0.320 Z-9.000 I-0.517 J0.320 F30000.000
G2 X4.680 Y0.430 Z-9.000 I0.517 J-0.320 F30000.000
G1 X4.680 Y0.430 Z-9.200 F900.000
G2 X4.767 Y-0.320 Z-9.200 I-0.430 J-0.430 F30000.000
G2 X3.733 Y0.320 Z-9.200 I-0.517 J0.320 F30000.000
G2 X4.680 Y0.430 Z-9.200 I0.517 J-0.320 F30000.000
G0 Z5.000
(finish operation: Pocket_Shape002)
(begin operation: T1: 125 End Mill)
(machine: not set, mm/min)
(T1: 125 End Mill)
M6 T1
M3 S24000
(finish operation: T1: 125 End Mill)
(begin operation: Pocket_Shape001)
(machine: not set, mm/min)
(Pocket_Shape001)
G0 Z5.000
G0 X-1.429 Y4.376
G0 Z3.000
G1 X-1.429 Y4.376 Z-0.500 F900.000
G2 X-1.371 Y3.048 Z-0.500 I-0.696 J-0.696 F30000.000
G2 X-2.879 Y4.313 Z-0.500 I-0.754 J0.632 F30000.000
G2 X-1.429 Y4.376 Z-0.500 I0.754 J-0.632 F30000.000
G1 X-1.429 Y4.376 Z-1.000 F900.000
G2 X-1.371 Y3.048 Z-1.000 I-0.696 J-0.696 F30000.000
G2 X-2.879 Y4.313 Z-1.000 I-0.754 J0.632 F30000.000
G2 X-1.429 Y4.376 Z-1.000 I0.754 J-0.632 F30000.000
G1 X-1.429 Y4.376 Z-1.500 F900.000
G2 X-1.371 Y3.048 Z-1.500 I-0.696 J-0.696 F30000.000
G2 X-2.879 Y4.313 Z-1.500 I-0.754 J0.632 F30000.000
G2 X-1.429 Y4.376 Z-1.500 I0.754 J-0.632 F30000.000
G1 X-1.429 Y4.376 Z-2.000 F900.000
G2 X-1.371 Y3.048 Z-2.000 I-0.696 J-0.696 F30000.000
G2 X-2.879 Y4.313 Z-2.000 I-0.754 J0.632 F30000.000
G2 X-1.429 Y4.376 Z-2.000 I0.754 J-0.632 F30000.000
G1 X-1.429 Y4.376 Z-2.500 F900.000
G2 X-1.371 Y3.048 Z-2.500 I-0.696 J-0.696 F30000.000
G2 X-2.879 Y4.313 Z-2.500 I-0.754 J0.632 F30000.000
G2 X-1.429 Y4.376 Z-2.500 I0.754 J-0.632 F30000.000
G1 X-1.429 Y4.376 Z-3.000 F900.000
G2 X-1.371 Y3.048 Z-3.000 I-0.696 J-0.696 F30000.000
G2 X-2.879 Y4.313 Z-3.000 I-0.754 J0.632 F30000.000
G2 X-1.429 Y4.376 Z-3.000 I0.754 J-0.632 F30000.000
G1 X-1.429 Y4.376 Z-3.500 F900.000
G2 X-1.371 Y3.048 Z-3.500 I-0.696 J-0.696 F30000.000
G2 X-2.879 Y4.313 Z-3.500 I-0.754 J0.632 F30000.000
G2 X-1.429 Y4.376 Z-3.500 I0.754 J-0.632 F30000.000
G1 X-1.429 Y4.376 Z-4.000 F900.000
G2 X-1.371 Y3.048 Z-4.000 I-0.696 J-0.696 F30000.000
G2 X-2.879 Y4.313 Z-4.000 I-0.754 J0.632 F30000.000
G2 X-1.429 Y4.376 Z-4.000 I0.754 J-0.632 F30000.000
G1 X-1.429 Y4.376 Z-4.500 F900.000
G2 X-1.371 Y3.048 Z-4.500 I-0.696 J-0.696 F30000.000
G2 X-2.879 Y4.313 Z-4.500 I-0.754 J0.632 F30000.000
G2 X-1.429 Y4.376 Z-4.500 I0.754 J-0.632 F30000.000
G1 X-1.429 Y4.376 Z-5.000 F900.000
G2 X-1.371 Y3.048 Z-5.000 I-0.696 J-0.696 F30000.000
G2 X-2.879 Y4.313 Z-5.000 I-0.754 J0.632 F30000.000
G2 X-1.429 Y4.376 Z-5.000 I0.754 J-0.632 F30000.000
G1 X-1.429 Y4.376 Z-5.500 F900.000
G2 X-1.371 Y3.048 Z-5.500 I-0.696 J-0.696 F30000.000
G2 X-2.879 Y4.313 Z-5.500 I-0.754 J0.632 F30000.000
G2 X-1.429 Y4.376 Z-5.500 I0.754 J-0.632 F30000.000
G1 X-1.429 Y4.376 Z-6.000 F900.000
G2 X-1.371 Y3.048 Z-6.000 I-0.696 J-0.696 F30000.000
G2 X-2.879 Y4.313 Z-6.000 I-0.754 J0.632 F30000.000
G2 X-1.429 Y4.376 Z-6.000 I0.754 J-0.632 F30000.000
G0 Z5.000
G0 X-1.429 Y-2.985
G0 Z3.000
G1 X-1.429 Y-2.985 Z-0.500 F900.000
G2 X-1.371 Y-4.313 Z-0.500 I-0.696 J-0.696 F30000.000
G2 X-2.879 Y-3.048 Z-0.500 I-0.754 J0.632 F30000.000
G2 X-1.429 Y-2.985 Z-0.500 I0.754 J-0.632 F30000.000
G1 X-1.429 Y-2.985 Z-1.000 F900.000
G2 X-1.371 Y-4.313 Z-1.000 I-0.696 J-0.696 F30000.000
G2 X-2.879 Y-3.048 Z-1.000 I-0.754 J0.632 F30000.000
G2 X-1.429 Y-2.985 Z-1.000 I0.754 J-0.632 F30000.000
G1 X-1.429 Y-2.985 Z-1.500 F900.000
G2 X-1.371 Y-4.313 Z-1.500 I-0.696 J-0.696 F30000.000
G2 X-2.879 Y-3.048 Z-1.500 I-0.754 J0.632 F30000.000
G2 X-1.429 Y-2.985 Z-1.500 I0.754 J-0.632 F30000.000
G1 X-1.429 Y-2.985 Z-2.000 F900.000
G2 X-1.371 Y-4.313 Z-2.000 I-0.696 J-0.696 F30000.000
G2 X-2.879 Y-3.048 Z-2.000 I-0.754 J0.632 F30000.000
G2 X-1.429 Y-2.985 Z-2.000 I0.754 J-0.632 F30000.000
G1 X-1.429 Y-2.985 Z-2.500 F900.000
G2 X-1.371 Y-4.313 Z-2.500 I-0.696 J-0.696 F30000.000
G2 X-2.879 Y-3.048 Z-2.500 I-0.754 J0.632 F30000.000
G2 X-1.429 Y-2.985 Z-2.500 I0.754 J-0.632 F30000.000
G1 X-1.429 Y-2.985 Z-3.000 F900.000
G2 X-1.371 Y-4.313 Z-3.000 I-0.696 J-0.696 F30000.000
G2 X-2.879 Y-3.048 Z-3.000 I-0.754 J0.632 F30000.000
G2 X-1.429 Y-2.985 Z-3.000 I0.754 J-0.632 F30000.000
G1 X-1.429 Y-2.985 Z-3.500 F900.000
G2 X-1.371 Y-4.313 Z-3.500 I-0.696 J-0.696 F30000.000
G2 X-2.879 Y-3.048 Z-3.500 I-0.754 J0.632 F30000.000
G2 X-1.429 Y-2.985 Z-3.500 I0.754 J-0.632 F30000.000
G1 X-1.429 Y-2.985 Z-4.000 F900.000
G2 X-1.371 Y-4.313 Z-4.000 I-0.696 J-0.696 F30000.000
G2 X-2.879 Y-3.048 Z-4.000 I-0.754 J0.632 F30000.000
G2 X-1.429 Y-2.985 Z-4.000 I0.754 J-0.632 F30000.000
G1 X-1.429 Y-2.985 Z-4.500 F900.000
G2 X-1.371 Y-4.313 Z-4.500 I-0.696 J-0.696 F30000.000
G2 X-2.879 Y-3.048 Z-4.500 I-0.754 J0.632 F30000.000
G2 X-1.429 Y-2.985 Z-4.500 I0.754 J-0.632 F30000.000
G1 X-1.429 Y-2.985 Z-5.000 F900.000
G2 X-1.371 Y-4.313 Z-5.000 I-0.696 J-0.696 F30000.000
G2 X-2.879 Y-3.048 Z-5.000 I-0.754 J0.632 F30000.000
G2 X-1.429 Y-2.985 Z-5.000 I0.754 J-0.632 F30000.000
G1 X-1.429 Y-2.985 Z-5.500 F900.000
G2 X-1.371 Y-4.313 Z-5.500 I-0.696 J-0.696 F30000.000
G2 X-2.879 Y-3.048 Z-5.500 I-0.754 J0.632 F30000.000
G2 X-1.429 Y-2.985 Z-5.500 I0.754 J-0.632 F30000.000
G1 X-1.429 Y-2.985 Z-6.000 F900.000
G2 X-1.371 Y-4.313 Z-6.000 I-0.696 J-0.696 F30000.000
G2 X-2.879 Y-3.048 Z-6.000 I-0.754 J0.632 F30000.000
G2 X-1.429 Y-2.985 Z-6.000 I0.754 J-0.632 F30000.000
G0 Z5.000
G0 X4.946 Y0.696
G0 Z3.000
G1 X4.946 Y0.696 Z-0.500 F900.000
G2 X5.004 Y-0.632 Z-0.500 I-0.696 J-0.696 F30000.000
G2 X3.496 Y0.632 Z-0.500 I-0.754 J0.632 F30000.000
G2 X4.946 Y0.696 Z-0.500 I0.754 J-0.632 F30000.000
G1 X4.946 Y0.696 Z-1.000 F900.000
G2 X5.004 Y-0.632 Z-1.000 I-0.696 J-0.696 F30000.000
G2 X3.496 Y0.632 Z-1.000 I-0.754 J0.632 F30000.000
G2 X4.946 Y0.696 Z-1.000 I0.754 J-0.632 F30000.000
G1 X4.946 Y0.696 Z-1.500 F900.000
G2 X5.004 Y-0.632 Z-1.500 I-0.696 J-0.696 F30000.000
G2 X3.496 Y0.632 Z-1.500 I-0.754 J0.632 F30000.000
G2 X4.946 Y0.696 Z-1.500 I0.754 J-0.632 F30000.000
G1 X4.946 Y0.696 Z-2.000 F900.000
G2 X5.004 Y-0.632 Z-2.000 I-0.696 J-0.696 F30000.000
G2 X3.496 Y0.632 Z-2.000 I-0.754 J0.632 F30000.000
G2 X4.946 Y0.696 Z-2.000 I0.754 J-0.632 F30000.000
G1 X4.946 Y0.696 Z-2.500 F900.000
G2 X5.004 Y-0.632 Z-2.500 I-0.696 J-0.696 F30000.000
G2 X3.496 Y0.632 Z-2.500 I-0.754 J0.632 F30000.000
G2 X4.946 Y0.696 Z-2.500 I0.754 J-0.632 F30000.000
G1 X4.946 Y0.696 Z-3.000 F900.000
G2 X5.004 Y-0.632 Z-3.000 I-0.696 J-0.696 F30000.000
G2 X3.496 Y0.632 Z-3.000 I-0.754 J0.632 F30000.000
G2 X4.946 Y0.696 Z-3.000 I0.754 J-0.632 F30000.000
G1 X4.946 Y0.696 Z-3.500 F900.000
G2 X5.004 Y-0.632 Z-3.500 I-0.696 J-0.696 F30000.000
G2 X3.496 Y0.632 Z-3.500 I-0.754 J0.632 F30000.000
G2 X4.946 Y0.696 Z-3.500 I0.754 J-0.632 F30000.000
G1 X4.946 Y0.696 Z-4.000 F900.000
G2 X5.004 Y-0.632 Z-4.000 I-0.696 J-0.696 F30000.000
G2 X3.496 Y0.632 Z-4.000 I-0.754 J0.632 F30000.000
G2 X4.946 Y0.696 Z-4.000 I0.754 J-0.632 F30000.000
G1 X4.946 Y0.696 Z-4.500 F900.000
G2 X5.004 Y-0.632 Z-4.500 I-0.696 J-0.696 F30000.000
G2 X3.496 Y0.632 Z-4.500 I-0.754 J0.632 F30000.000
G2 X4.946 Y0.696 Z-4.500 I0.754 J-0.632 F30000.000
G1 X4.946 Y0.696 Z-5.000 F900.000
G2 X5.004 Y-0.632 Z-5.000 I-0.696 J-0.696 F30000.000
G2 X3.496 Y0.632 Z-5.000 I-0.754 J0.632 F30000.000
G2 X4.946 Y0.696 Z-5.000 I0.754 J-0.632 F30000.000
G1 X4.946 Y0.696 Z-5.500 F900.000
G2 X5.004 Y-0.632 Z-5.500 I-0.696 J-0.696 F30000.000
G2 X3.496 Y0.632 Z-5.500 I-0.754 J0.632 F30000.000
G2 X4.946 Y0.696 Z-5.500 I0.754 J-0.632 F30000.000
G1 X4.946 Y0.696 Z-6.000 F900.000
G2 X5.004 Y-0.632 Z-6.000 I-0.696 J-0.696 F30000.000
G2 X3.496 Y0.632 Z-6.000 I-0.754 J0.632 F30000.000
G2 X4.946 Y0.696 Z-6.000 I0.754 J-0.632 F30000.000
G0 Z5.000
(finish operation: Pocket_Shape001)
(begin operation: T1: 125 End Mill)
(machine: not set, mm/min)
(T1: 125 End Mill)
M6 T1
M3 S24000
(finish operation: T1: 125 End Mill)
(begin operation: Contour)
(machine: not set, mm/min)
(Contour)
(Compensated Tool Path. Diameter: 3.17)
G0 Z5.000
G0 X14.567 Y4.308
G0 Z3.000
G1 X14.567 Y4.308 Z-0.500 F900.000
G2 X13.594 Y-4.543 Z-0.500 I-1.569 J-4.307 F30000.000
G2 X11.711 Y-4.583 Z-0.500 I-1.199 J12.239 F30000.000
G2 X1.638 Y-12.477 Z-0.500 I-11.699 J4.554 F30000.000
G2 X-11.715 Y-4.585 Z-0.500 I-1.640 J12.467 F30000.000
G1 X-13.000 Y-4.585 Z-0.500 F30000.000
G2 X-13.594 Y4.543 Z-0.500 I0.002 J4.584 F30000.000
G2 X-11.711 Y4.583 Z-0.500 I1.199 J-12.239 F30000.000
G2 X11.715 Y4.585 Z-0.500 I11.714 J-4.574 F30000.000
G1 X13.000 Y4.585 Z-0.500 F30000.000
G2 X14.567 Y4.308 Z-0.500 I-0.002 J-4.584 F30000.000
G1 X14.567 Y4.308 Z-1.000 F900.000
G2 X13.594 Y-4.543 Z-1.000 I-1.569 J-4.307 F30000.000
G2 X11.711 Y-4.583 Z-1.000 I-1.199 J12.239 F30000.000
G2 X1.638 Y-12.477 Z-1.000 I-11.699 J4.554 F30000.000
G2 X-11.715 Y-4.585 Z-1.000 I-1.640 J12.467 F30000.000
G1 X-13.000 Y-4.585 Z-1.000 F30000.000
G2 X-13.594 Y4.543 Z-1.000 I0.002 J4.584 F30000.000
G2 X-11.711 Y4.583 Z-1.000 I1.199 J-12.239 F30000.000
G2 X11.715 Y4.585 Z-1.000 I11.714 J-4.574 F30000.000
G1 X13.000 Y4.585 Z-1.000 F30000.000
G2 X14.567 Y4.308 Z-1.000 I-0.002 J-4.584 F30000.000
G1 X14.567 Y4.308 Z-1.500 F900.000
G2 X13.594 Y-4.543 Z-1.500 I-1.569 J-4.307 F30000.000
G2 X11.711 Y-4.583 Z-1.500 I-1.199 J12.239 F30000.000
G2 X1.638 Y-12.477 Z-1.500 I-11.699 J4.554 F30000.000
G2 X-11.715 Y-4.585 Z-1.500 I-1.640 J12.467 F30000.000
G1 X-13.000 Y-4.585 Z-1.500 F30000.000
G2 X-13.594 Y4.543 Z-1.500 I0.002 J4.584 F30000.000
G2 X-11.711 Y4.583 Z-1.500 I1.199 J-12.239 F30000.000
G2 X11.715 Y4.585 Z-1.500 I11.714 J-4.574 F30000.000
G1 X13.000 Y4.585 Z-1.500 F30000.000
G2 X14.567 Y4.308 Z-1.500 I-0.002 J-4.584 F30000.000
G1 X14.567 Y4.308 Z-2.000 F900.000
G2 X13.594 Y-4.543 Z-2.000 I-1.569 J-4.307 F30000.000
G2 X11.711 Y-4.583 Z-2.000 I-1.199 J12.239 F30000.000
G2 X1.638 Y-12.477 Z-2.000 I-11.699 J4.554 F30000.000
G2 X-11.715 Y-4.585 Z-2.000 I-1.640 J12.467 F30000.000
G1 X-13.000 Y-4.585 Z-2.000 F30000.000
G2 X-13.594 Y4.543 Z-2.000 I0.002 J4.584 F30000.000
G2 X-11.711 Y4.583 Z-2.000 I1.199 J-12.239 F30000.000
G2 X11.715 Y4.585 Z-2.000 I11.714 J-4.574 F30000.000
G1 X13.000 Y4.585 Z-2.000 F30000.000
G2 X14.567 Y4.308 Z-2.000 I-0.002 J-4.584 F30000.000
G1 X14.567 Y4.308 Z-2.500 F900.000
G2 X13.594 Y-4.543 Z-2.500 I-1.569 J-4.307 F30000.000
G2 X11.711 Y-4.583 Z-2.500 I-1.199 J12.239 F30000.000
G2 X1.638 Y-12.477 Z-2.500 I-11.699 J4.554 F30000.000
G2 X-11.715 Y-4.585 Z-2.500 I-1.640 J12.467 F30000.000
G1 X-13.000 Y-4.585 Z-2.500 F30000.000
G2 X-13.594 Y4.543 Z-2.500 I0.002 J4.584 F30000.000
G2 X-11.711 Y4.583 Z-2.500 I1.199 J-12.239 F30000.000
G2 X11.715 Y4.585 Z-2.500 I11.714 J-4.574 F30000.000
G1 X13.000 Y4.585 Z-2.500 F30000.000
G2 X14.567 Y4.308 Z-2.500 I-0.002 J-4.584 F30000.000
G1 X14.567 Y4.308 Z-3.000 F900.000
G2 X13.594 Y-4.543 Z-3.000 I-1.569 J-4.307 F30000.000
G2 X11.711 Y-4.583 Z-3.000 I-1.199 J12.239 F30000.000
G2 X1.638 Y-12.477 Z-3.000 I-11.699 J4.554 F30000.000
G2 X-11.715 Y-4.585 Z-3.000 I-1.640 J12.467 F30000.000
G1 X-13.000 Y-4.585 Z-3.000 F30000.000
G2 X-13.594 Y4.543 Z-3.000 I0.002 J4.584 F30000.000
G2 X-11.711 Y4.583 Z-3.000 I1.199 J-12.239 F30000.000
G2 X11.715 Y4.585 Z-3.000 I11.714 J-4.574 F30000.000
G1 X13.000 Y4.585 Z-3.000 F30000.000
G2 X14.567 Y4.308 Z-3.000 I-0.002 J-4.584 F30000.000
G1 X14.567 Y4.308 Z-3.500 F900.000
G2 X13.594 Y-4.543 Z-3.500 I-1.569 J-4.307 F30000.000
G2 X11.711 Y-4.583 Z-3.500 I-1.199 J12.239 F30000.000
G2 X1.638 Y-12.477 Z-3.500 I-11.699 J4.554 F30000.000
G2 X-11.715 Y-4.585 Z-3.500 I-1.640 J12.467 F30000.000
G1 X-13.000 Y-4.585 Z-3.500 F30000.000
G2 X-13.594 Y4.543 Z-3.500 I0.002 J4.584 F30000.000
G2 X-11.711 Y4.583 Z-3.500 I1.199 J-12.239 F30000.000
G2 X11.715 Y4.585 Z-3.500 I11.714 J-4.574 F30000.000
G1 X13.000 Y4.585 Z-3.500 F30000.000
G2 X14.567 Y4.308 Z-3.500 I-0.002 J-4.584 F30000.000
G1 X14.567 Y4.308 Z-4.000 F900.000
G2 X13.594 Y-4.543 Z-4.000 I-1.569 J-4.307 F30000.000
G2 X11.711 Y-4.583 Z-4.000 I-1.199 J12.239 F30000.000
G2 X1.638 Y-12.477 Z-4.000 I-11.699 J4.554 F30000.000
G2 X-11.715 Y-4.585 Z-4.000 I-1.640 J12.467 F30000.000
G1 X-13.000 Y-4.585 Z-4.000 F30000.000
G2 X-13.594 Y4.543 Z-4.000 I0.002 J4.584 F30000.000
G2 X-11.711 Y4.583 Z-4.000 I1.199 J-12.239 F30000.000
G2 X11.715 Y4.585 Z-4.000 I11.714 J-4.574 F30000.000
G1 X13.000 Y4.585 Z-4.000 F30000.000
G2 X14.567 Y4.308 Z-4.000 I-0.002 J-4.584 F30000.000
G1 X14.567 Y4.308 Z-4.500 F900.000
G2 X13.594 Y-4.543 Z-4.500 I-1.569 J-4.307 F30000.000
G2 X11.711 Y-4.583 Z-4.500 I-1.199 J12.239 F30000.000
G2 X1.638 Y-12.477 Z-4.500 I-11.699 J4.554 F30000.000
G2 X-11.715 Y-4.585 Z-4.500 I-1.640 J12.467 F30000.000
G1 X-13.000 Y-4.585 Z-4.500 F30000.000
G2 X-13.594 Y4.543 Z-4.500 I0.002 J4.584 F30000.000
G2 X-11.711 Y4.583 Z-4.500 I1.199 J-12.239 F30000.000
G2 X11.715 Y4.585 Z-4.500 I11.714 J-4.574 F30000.000
G1 X13.000 Y4.585 Z-4.500 F30000.000
G2 X14.567 Y4.308 Z-4.500 I-0.002 J-4.584 F30000.000
G1 X14.567 Y4.308 Z-5.000 F900.000
G2 X13.594 Y-4.543 Z-5.000 I-1.569 J-4.307 F30000.000
G2 X11.711 Y-4.583 Z-5.000 I-1.199 J12.239 F30000.000
G2 X1.638 Y-12.477 Z-5.000 I-11.699 J4.554 F30000.000
G2 X-11.715 Y-4.585 Z-5.000 I-1.640 J12.467 F30000.000
G1 X-13.000 Y-4.585 Z-5.000 F30000.000
G2 X-13.594 Y4.543 Z-5.000 I0.002 J4.584 F30000.000
G2 X-11.711 Y4.583 Z-5.000 I1.199 J-12.239 F30000.000
G2 X11.715 Y4.585 Z-5.000 I11.714 J-4.574 F30000.000
G1 X13.000 Y4.585 Z-5.000 F30000.000
G2 X14.567 Y4.308 Z-5.000 I-0.002 J-4.584 F30000.000
G1 X14.567 Y4.308 Z-5.500 F900.000
G2 X13.594 Y-4.543 Z-5.500 I-1.569 J-4.307 F30000.000
G2 X11.711 Y-4.583 Z-5.500 I-1.199 J12.239 F30000.000
G2 X1.638 Y-12.477 Z-5.500 I-11.699 J4.554 F30000.000
G2 X-11.715 Y-4.585 Z-5.500 I-1.640 J12.467 F30000.000
G1 X-13.000 Y-4.585 Z-5.500 F30000.000
G2 X-13.594 Y4.543 Z-5.500 I0.002 J4.584 F30000.000
G2 X-11.711 Y4.583 Z-5.500 I1.199 J-12.239 F30000.000
G2 X11.715 Y4.585 Z-5.500 I11.714 J-4.574 F30000.000
G1 X13.000 Y4.585 Z-5.500 F30000.000
G2 X14.567 Y4.308 Z-5.500 I-0.002 J-4.584 F30000.000
G1 X14.567 Y4.308 Z-6.000 F900.000
G2 X13.594 Y-4.543 Z-6.000 I-1.569 J-4.307 F30000.000
G2 X11.711 Y-4.583 Z-6.000 I-1.199 J12.239 F30000.000
G2 X1.638 Y-12.477 Z-6.000 I-11.699 J4.554 F30000.000
G2 X-11.715 Y-4.585 Z-6.000 I-1.640 J12.467 F30000.000
G1 X-13.000 Y-4.585 Z-6.000 F30000.000
G2 X-13.594 Y4.543 Z-6.000 I0.002 J4.584 F30000.000
G2 X-11.711 Y4.583 Z-6.000 I1.199 J-12.239 F30000.000
G2 X11.715 Y4.585 Z-6.000 I11.714 J-4.574 F30000.000
G1 X13.000 Y4.585 Z-6.000 F30000.000
G2 X14.567 Y4.308 Z-6.000 I-0.002 J-4.584 F30000.000
G1 X14.567 Y4.308 Z-6.500 F900.000
G2 X13.594 Y-4.543 Z-6.500 I-1.569 J-4.307 F30000.000
G2 X11.711 Y-4.583 Z-6.500 I-1.199 J12.239 F30000.000
G2 X1.638 Y-12.477 Z-6.500 I-11.699 J4.554 F30000.000
G2 X-11.715 Y-4.585 Z-6.500 I-1.640 J12.467 F30000.000
G1 X-13.000 Y-4.585 Z-6.500 F30000.000
G2 X-13.594 Y4.543 Z-6.500 I0.002 J4.584 F30000.000
G2 X-11.711 Y4.583 Z-6.500 I1.199 J-12.239 F30000.000
G2 X11.715 Y4.585 Z-6.500 I11.714 J-4.574 F30000.000
G1 X13.000 Y4.585 Z-6.500 F30000.000
G2 X14.567 Y4.308 Z-6.500 I-0.002 J-4.584 F30000.000
G1 X14.567 Y4.308 Z-7.000 F900.000
G2 X13.594 Y-4.543 Z-7.000 I-1.569 J-4.307 F30000.000
G2 X11.711 Y-4.583 Z-7.000 I-1.199 J12.239 F30000.000
G2 X1.638 Y-12.477 Z-7.000 I-11.699 J4.554 F30000.000
G2 X-11.715 Y-4.585 Z-7.000 I-1.640 J12.467 F30000.000
G1 X-13.000 Y-4.585 Z-7.000 F30000.000
G2 X-13.594 Y4.543 Z-7.000 I0.002 J4.584 F30000.000
G2 X-11.711 Y4.583 Z-7.000 I1.199 J-12.239 F30000.000
G2 X11.715 Y4.585 Z-7.000 I11.714 J-4.574 F30000.000
G1 X13.000 Y4.585 Z-7.000 F30000.000
G2 X14.567 Y4.308 Z-7.000 I-0.002 J-4.584 F30000.000
G1 X14.567 Y4.308 Z-7.500 F900.000
G2 X13.594 Y-4.543 Z-7.500 I-1.569 J-4.307 F30000.000
G2 X11.711 Y-4.583 Z-7.500 I-1.199 J12.239 F30000.000
G2 X1.638 Y-12.477 Z-7.500 I-11.699 J4.554 F30000.000
G2 X-11.715 Y-4.585 Z-7.500 I-1.640 J12.467 F30000.000
G1 X-13.000 Y-4.585 Z-7.500 F30000.000
G2 X-13.594 Y4.543 Z-7.500 I0.002 J4.584 F30000.000
G2 X-11.711 Y4.583 Z-7.500 I1.199 J-12.239 F30000.000
G2 X11.715 Y4.585 Z-7.500 I11.714 J-4.574 F30000.000
G1 X13.000 Y4.585 Z-7.500 F30000.000
G2 X14.567 Y4.308 Z-7.500 I-0.002 J-4.584 F30000.000
G1 X14.567 Y4.308 Z-8.000 F900.000
G2 X13.594 Y-4.543 Z-8.000 I-1.569 J-4.307 F30000.000
G2 X11.711 Y-4.583 Z-8.000 I-1.199 J12.239 F30000.000
G2 X1.638 Y-12.477 Z-8.000 I-11.699 J4.554 F30000.000
G2 X-11.715 Y-4.585 Z-8.000 I-1.640 J12.467 F30000.000
G1 X-13.000 Y-4.585 Z-8.000 F30000.000
G2 X-13.594 Y4.543 Z-8.000 I0.002 J4.584 F30000.000
G2 X-11.711 Y4.583 Z-8.000 I1.199 J-12.239 F30000.000
G2 X11.715 Y4.585 Z-8.000 I11.714 J-4.574 F30000.000
G1 X13.000 Y4.585 Z-8.000 F30000.000
G2 X14.567 Y4.308 Z-8.000 I-0.002 J-4.584 F30000.000
G1 X14.567 Y4.308 Z-8.500 F900.000
G2 X13.594 Y-4.543 Z-8.500 I-1.569 J-4.307 F30000.000
G2 X11.711 Y-4.583 Z-8.500 I-1.199 J12.239 F30000.000
G2 X1.638 Y-12.477 Z-8.500 I-11.699 J4.554 F30000.000
G2 X-11.715 Y-4.585 Z-8.500 I-1.640 J12.467 F30000.000
G1 X-13.000 Y-4.585 Z-8.500 F30000.000
G2 X-13.594 Y4.543 Z-8.500 I0.002 J4.584 F30000.000
G2 X-11.711 Y4.583 Z-8.500 I1.199 J-12.239 F30000.000
G2 X11.715 Y4.585 Z-8.500 I11.714 J-4.574 F30000.000
G1 X13.000 Y4.585 Z-8.500 F30000.000
G2 X14.567 Y4.308 Z-8.500 I-0.002 J-4.584 F30000.000
G1 X14.567 Y4.308 Z-9.000 F900.000
G2 X13.594 Y-4.543 Z-9.000 I-1.569 J-4.307 F30000.000
G2 X11.711 Y-4.583 Z-9.000 I-1.199 J12.239 F30000.000
G2 X1.638 Y-12.477 Z-9.000 I-11.699 J4.554 F30000.000
G2 X-11.715 Y-4.585 Z-9.000 I-1.640 J12.467 F30000.000
G1 X-13.000 Y-4.585 Z-9.000 F30000.000
G2 X-13.594 Y4.543 Z-9.000 I0.002 J4.584 F30000.000
G2 X-11.711 Y4.583 Z-9.000 I1.199 J-12.239 F30000.000
G2 X11.715 Y4.585 Z-9.000 I11.714 J-4.574 F30000.000
G1 X13.000 Y4.585 Z-9.000 F30000.000
G2 X14.567 Y4.308 Z-9.000 I-0.002 J-4.584 F30000.000
G1 X14.567 Y4.308 Z-9.500 F900.000
G2 X13.594 Y-4.543 Z-9.500 I-1.569 J-4.307 F30000.000
G2 X11.711 Y-4.583 Z-9.500 I-1.199 J12.239 F30000.000
G2 X1.638 Y-12.477 Z-9.500 I-11.699 J4.554 F30000.000
G2 X-11.715 Y-4.585 Z-9.500 I-1.640 J12.467 F30000.000
G1 X-13.000 Y-4.585 Z-9.500 F30000.000
G2 X-13.594 Y4.543 Z-9.500 I0.002 J4.584 F30000.000
G2 X-11.711 Y4.583 Z-9.500 I1.199 J-12.239 F30000.000
G2 X11.715 Y4.585 Z-9.500 I11.714 J-4.574 F30000.000
G1 X13.000 Y4.585 Z-9.500 F30000.000
G2 X14.567 Y4.308 Z-9.500 I-0.002 J-4.584 F30000.000
G1 X14.567 Y4.308 Z-10.000 F900.000
G2 X13.594 Y-4.543 Z-10.000 I-1.569 J-4.307 F30000.000
G2 X11.711 Y-4.583 Z-10.000 I-1.199 J12.239 F30000.000
G2 X1.638 Y-12.477 Z-10.000 I-11.699 J4.554 F30000.000
G2 X-11.715 Y-4.585 Z-10.000 I-1.640 J12.467 F30000.000
G1 X-13.000 Y-4.585 Z-10.000 F30000.000
G2 X-13.594 Y4.543 Z-10.000 I0.002 J4.584 F30000.000
G2 X-11.711 Y4.583 Z-10.000 I1.199 J-12.239 F30000.000
G2 X11.715 Y4.585 Z-10.000 I11.714 J-4.574 F30000.000
G1 X13.000 Y4.585 Z-10.000 F30000.000
G2 X14.567 Y4.308 Z-10.000 I-0.002 J-4.584 F30000.000
G1 X14.567 Y4.308 Z-10.500 F900.000
G2 X13.594 Y-4.543 Z-10.500 I-1.569 J-4.307 F30000.000
G2 X11.711 Y-4.583 Z-10.500 I-1.199 J12.239 F30000.000
G2 X1.638 Y-12.477 Z-10.500 I-11.699 J4.554 F30000.000
G2 X-11.715 Y-4.585 Z-10.500 I-1.640 J12.467 F30000.000
G1 X-13.000 Y-4.585 Z-10.500 F30000.000
G2 X-13.594 Y4.543 Z-10.500 I0.002 J4.584 F30000.000
G2 X-11.711 Y4.583 Z-10.500 I1.199 J-12.239 F30000.000
G2 X11.715 Y4.585 Z-10.500 I11.714 J-4.574 F30000.000
G1 X13.000 Y4.585 Z-10.500 F30000.000
G2 X14.567 Y4.308 Z-10.500 I-0.002 J-4.584 F30000.000
G0 Z5.000
(finish operation: Contour)
(begin postamble)
M05
G17 G54 G90 G80 G40
M2
