(Exported by FreeCAD)
(Post Processor: linuxcnc_post)
(Output Time:2019-01-06 22:20:00.997387)
(begin preamble)
G17 G54 G40 G49 G80 G90
G21
(begin operation: T1: 125 End Mill)
(machine: not set, mm/min)
(T1: 125 End Mill)
M6 T1
M3 S15000
G4 P10
(finish operation: T1: 125 End Mill)
(begin operation: Pocket_Shape)
(machine: not set, mm/min)
(Pocket_Shape)
G0 Z25.500
G0 X121.259 Y50.849
G0 Z23.500
G1 X121.259 Y50.849 Z20.000 F60.000
G2 X106.045 Y12.595 Z20.000 I-15.849 J-15.849 F420.000
G1 X106.045 Y12.790 Z20.000 F420.000
G1 X106.045 Y12.595 Z20.000 F420.000
G2 X104.770 Y57.405 Z20.000 I-0.636 J22.405 F420.000
G2 X121.259 Y50.849 Z20.000 I0.640 J-22.405 F420.000
G0 X121.259 Y50.849 Z25.500
G0 X121.122 Y50.712 Z25.500
G1 X121.122 Y50.712 Z20.000 F60.000
G3 X104.775 Y57.210 Z20.000 I-15.711 J-15.712 F420.000
G3 X83.199 Y34.365 Z20.000 I0.635 J-22.210 F420.000
G3 X106.045 Y12.790 Z20.000 I22.210 J0.635 F420.000
G3 X121.122 Y50.712 Z20.000 I-0.635 J22.210 F420.000
G1 X121.122 Y50.712 Z19.500 F60.000
G3 X104.775 Y57.210 Z19.500 I-15.711 J-15.712 F420.000
G3 X83.199 Y34.365 Z19.500 I0.635 J-22.210 F420.000
G3 X106.045 Y12.790 Z19.500 I22.210 J0.635 F420.000
G3 X121.122 Y50.712 Z19.500 I-0.635 J22.210 F420.000
G0 X121.122 Y50.712 Z25.500
G0 X121.259 Y50.849 Z25.500
G1 X121.259 Y50.849 Z19.500 F60.000
G2 X106.045 Y12.595 Z19.500 I-15.849 J-15.849 F420.000
G1 X106.045 Y12.790 Z19.500 F420.000
G1 X106.045 Y12.595 Z19.500 F420.000
G2 X104.770 Y57.405 Z19.500 I-0.636 J22.405 F420.000
G2 X121.259 Y50.849 Z19.500 I0.640 J-22.405 F420.000
G1 X121.259 Y50.849 Z19.000 F60.000
G2 X106.045 Y12.595 Z19.000 I-15.849 J-15.849 F420.000
G1 X106.045 Y12.790 Z19.000 F420.000
G1 X106.045 Y12.595 Z19.000 F420.000
G2 X104.770 Y57.405 Z19.000 I-0.636 J22.405 F420.000
G2 X121.259 Y50.849 Z19.000 I0.640 J-22.405 F420.000
G0 X121.259 Y50.849 Z25.500
G0 X121.122 Y50.712 Z25.500
G1 X121.122 Y50.712 Z19.000 F60.000
G3 X104.775 Y57.210 Z19.000 I-15.711 J-15.712 F420.000
G3 X83.199 Y34.365 Z19.000 I0.635 J-22.210 F420.000
G3 X106.045 Y12.790 Z19.000 I22.210 J0.635 F420.000
G3 X121.122 Y50.712 Z19.000 I-0.635 J22.210 F420.000
G1 X121.122 Y50.712 Z18.500 F60.000
G3 X104.775 Y57.210 Z18.500 I-15.711 J-15.712 F420.000
G3 X83.199 Y34.365 Z18.500 I0.635 J-22.210 F420.000
G3 X106.045 Y12.790 Z18.500 I22.210 J0.635 F420.000
G3 X121.122 Y50.712 Z18.500 I-0.635 J22.210 F420.000
G0 X121.122 Y50.712 Z25.500
G0 X121.259 Y50.849 Z25.500
G1 X121.259 Y50.849 Z18.500 F60.000
G2 X106.045 Y12.595 Z18.500 I-15.849 J-15.849 F420.000
G1 X106.045 Y12.790 Z18.500 F420.000
G1 X106.045 Y12.595 Z18.500 F420.000
G2 X104.770 Y57.405 Z18.500 I-0.636 J22.405 F420.000
G2 X121.259 Y50.849 Z18.500 I0.640 J-22.405 F420.000
G1 X121.259 Y50.849 Z18.250 F60.000
G2 X106.045 Y12.595 Z18.250 I-15.849 J-15.849 F420.000
G1 X106.045 Y12.790 Z18.250 F420.000
G1 X106.045 Y12.595 Z18.250 F420.000
G2 X104.770 Y57.405 Z18.250 I-0.636 J22.405 F420.000
G2 X121.259 Y50.849 Z18.250 I0.640 J-22.405 F420.000
G0 X121.259 Y50.849 Z25.500
G0 X121.122 Y50.712 Z25.500
G1 X121.122 Y50.712 Z18.250 F60.000
G3 X104.775 Y57.210 Z18.250 I-15.711 J-15.712 F420.000
G3 X83.199 Y34.365 Z18.250 I0.635 J-22.210 F420.000
G3 X106.045 Y12.790 Z18.250 I22.210 J0.635 F420.000
G3 X121.122 Y50.712 Z18.250 I-0.635 J22.210 F420.000
G0 Z25.500
(finish operation: Pocket_Shape)
(begin operation: Pocket_Shape001)
(machine: not set, mm/min)
(Pocket_Shape001)
G0 Z25.500
G0 X76.699 Y35.699
G0 Z23.500
G1 X76.699 Y35.699 Z20.000 F60.000
G2 X76.989 Y35.000 Z20.000 I-0.699 J-0.699 F420.000
G2 X75.011 Y35.000 Z20.000 I-0.989 J0.000 F420.000
G2 X76.699 Y35.699 Z20.000 I0.989 J0.000 F420.000
G1 X76.699 Y35.699 Z19.500 F60.000
G2 X76.989 Y35.000 Z19.500 I-0.699 J-0.699 F420.000
G2 X75.011 Y35.000 Z19.500 I-0.989 J0.000 F420.000
G2 X76.699 Y35.699 Z19.500 I0.989 J0.000 F420.000
G1 X76.699 Y35.699 Z19.000 F60.000
G2 X76.989 Y35.000 Z19.000 I-0.699 J-0.699 F420.000
G2 X75.011 Y35.000 Z19.000 I-0.989 J0.000 F420.000
G2 X76.699 Y35.699 Z19.000 I0.989 J0.000 F420.000
G1 X76.699 Y35.699 Z18.500 F60.000
G2 X76.989 Y35.000 Z18.500 I-0.699 J-0.699 F420.000
G2 X75.011 Y35.000 Z18.500 I-0.989 J0.000 F420.000
G2 X76.699 Y35.699 Z18.500 I0.989 J0.000 F420.000
G1 X76.699 Y35.699 Z18.000 F60.000
G2 X76.989 Y35.000 Z18.000 I-0.699 J-0.699 F420.000
G2 X75.011 Y35.000 Z18.000 I-0.989 J0.000 F420.000
G2 X76.699 Y35.699 Z18.000 I0.989 J0.000 F420.000
G1 X76.699 Y35.699 Z17.500 F60.000
G2 X76.989 Y35.000 Z17.500 I-0.699 J-0.699 F420.000
G2 X75.011 Y35.000 Z17.500 I-0.989 J0.000 F420.000
G2 X76.699 Y35.699 Z17.500 I0.989 J0.000 F420.000
G1 X76.699 Y35.699 Z17.000 F60.000
G2 X76.989 Y35.000 Z17.000 I-0.699 J-0.699 F420.000
G2 X75.011 Y35.000 Z17.000 I-0.989 J0.000 F420.000
G2 X76.699 Y35.699 Z17.000 I0.989 J0.000 F420.000
G1 X76.699 Y35.699 Z16.500 F60.000
G2 X76.989 Y35.000 Z16.500 I-0.699 J-0.699 F420.000
G2 X75.011 Y35.000 Z16.500 I-0.989 J0.000 F420.000
G2 X76.699 Y35.699 Z16.500 I0.989 J0.000 F420.000
G1 X76.699 Y35.699 Z16.000 F60.000
G2 X76.989 Y35.000 Z16.000 I-0.699 J-0.699 F420.000
G2 X75.011 Y35.000 Z16.000 I-0.989 J0.000 F420.000
G2 X76.699 Y35.699 Z16.000 I0.989 J0.000 F420.000
G1 X76.699 Y35.699 Z15.500 F60.000
G2 X76.989 Y35.000 Z15.500 I-0.699 J-0.699 F420.000
G2 X75.011 Y35.000 Z15.500 I-0.989 J0.000 F420.000
G2 X76.699 Y35.699 Z15.500 I0.989 J0.000 F420.000
G1 X76.699 Y35.699 Z15.000 F60.000
G2 X76.989 Y35.000 Z15.000 I-0.699 J-0.699 F420.000
G2 X75.011 Y35.000 Z15.000 I-0.989 J0.000 F420.000
G2 X76.699 Y35.699 Z15.000 I0.989 J0.000 F420.000
G1 X76.699 Y35.699 Z14.500 F60.000
G2 X76.989 Y35.000 Z14.500 I-0.699 J-0.699 F420.000
G2 X75.011 Y35.000 Z14.500 I-0.989 J0.000 F420.000
G2 X76.699 Y35.699 Z14.500 I0.989 J0.000 F420.000
G1 X76.699 Y35.699 Z14.000 F60.000
G2 X76.989 Y35.000 Z14.000 I-0.699 J-0.699 F420.000
G2 X75.011 Y35.000 Z14.000 I-0.989 J0.000 F420.000
G2 X76.699 Y35.699 Z14.000 I0.989 J0.000 F420.000
G0 Z25.500
G0 X135.487 Y35.487
G0 Z23.500
G1 X135.487 Y35.487 Z20.000 F60.000
G2 X135.688 Y35.000 Z20.000 I-0.487 J-0.487 F420.000
G2 X134.312 Y35.000 Z20.000 I-0.688 J0.000 F420.000
G2 X135.487 Y35.487 Z20.000 I0.688 J0.000 F420.000
G1 X135.487 Y35.487 Z19.500 F60.000
G2 X135.688 Y35.000 Z19.500 I-0.487 J-0.487 F420.000
G2 X134.312 Y35.000 Z19.500 I-0.688 J0.000 F420.000
G2 X135.487 Y35.487 Z19.500 I0.688 J0.000 F420.000
G1 X135.487 Y35.487 Z19.000 F60.000
G2 X135.688 Y35.000 Z19.000 I-0.487 J-0.487 F420.000
G2 X134.312 Y35.000 Z19.000 I-0.688 J0.000 F420.000
G2 X135.487 Y35.487 Z19.000 I0.688 J0.000 F420.000
G1 X135.487 Y35.487 Z18.500 F60.000
G2 X135.688 Y35.000 Z18.500 I-0.487 J-0.487 F420.000
G2 X134.312 Y35.000 Z18.500 I-0.688 J0.000 F420.000
G2 X135.487 Y35.487 Z18.500 I0.688 J0.000 F420.000
G1 X135.487 Y35.487 Z18.000 F60.000
G2 X135.688 Y35.000 Z18.000 I-0.487 J-0.487 F420.000
G2 X134.312 Y35.000 Z18.000 I-0.688 J0.000 F420.000
G2 X135.487 Y35.487 Z18.000 I0.688 J0.000 F420.000
G1 X135.487 Y35.487 Z17.500 F60.000
G2 X135.688 Y35.000 Z17.500 I-0.487 J-0.487 F420.000
G2 X134.312 Y35.000 Z17.500 I-0.688 J0.000 F420.000
G2 X135.487 Y35.487 Z17.500 I0.688 J0.000 F420.000
G1 X135.487 Y35.487 Z17.000 F60.000
G2 X135.688 Y35.000 Z17.000 I-0.487 J-0.487 F420.000
G2 X134.312 Y35.000 Z17.000 I-0.688 J0.000 F420.000
G2 X135.487 Y35.487 Z17.000 I0.688 J0.000 F420.000
G1 X135.487 Y35.487 Z16.500 F60.000
G2 X135.688 Y35.000 Z16.500 I-0.487 J-0.487 F420.000
G2 X134.312 Y35.000 Z16.500 I-0.688 J0.000 F420.000
G2 X135.487 Y35.487 Z16.500 I0.688 J0.000 F420.000
G1 X135.487 Y35.487 Z16.000 F60.000
G2 X135.688 Y35.000 Z16.000 I-0.487 J-0.487 F420.000
G2 X134.312 Y35.000 Z16.000 I-0.688 J0.000 F420.000
G2 X135.487 Y35.487 Z16.000 I0.688 J0.000 F420.000
G1 X135.487 Y35.487 Z15.500 F60.000
G2 X135.688 Y35.000 Z15.500 I-0.487 J-0.487 F420.000
G2 X134.312 Y35.000 Z15.500 I-0.688 J0.000 F420.000
G2 X135.487 Y35.487 Z15.500 I0.688 J0.000 F420.000
G1 X135.487 Y35.487 Z15.000 F60.000
G2 X135.688 Y35.000 Z15.000 I-0.487 J-0.487 F420.000
G2 X134.312 Y35.000 Z15.000 I-0.688 J0.000 F420.000
G2 X135.487 Y35.487 Z15.000 I0.688 J0.000 F420.000
G1 X135.487 Y35.487 Z14.500 F60.000
G2 X135.688 Y35.000 Z14.500 I-0.487 J-0.487 F420.000
G2 X134.312 Y35.000 Z14.500 I-0.688 J0.000 F420.000
G2 X135.487 Y35.487 Z14.500 I0.688 J0.000 F420.000
G1 X135.487 Y35.487 Z14.000 F60.000
G2 X135.688 Y35.000 Z14.000 I-0.487 J-0.487 F420.000
G2 X134.312 Y35.000 Z14.000 I-0.688 J0.000 F420.000
G2 X135.487 Y35.487 Z14.000 I0.688 J0.000 F420.000
G0 Z25.500
(finish operation: Pocket_Shape001)
(begin postamble)
M05
G17 G54 G90 G80 G40
M2
