(Exported by FreeCAD)
(Post Processor: linuxcnc_post)
(Output Time:2019-01-06 22:26:09.523427)
(begin preamble)
G17 G54 G40 G49 G80 G90
G21
(begin operation: T1: 125 End Mill001)
(machine: not set, mm/min)
(T1: 125 End Mill001)
M6 T1
M3 S15000
G4 P10
(finish operation: T1: 125 End Mill001)
(begin operation: Pocket_Shape002)
(machine: not set, mm/min)
(Pocket_Shape002)
G0 Z25.500
G0 X158.531 Y201.121
G0 Z23.500
G1 X158.531 Y201.121 Z20.000 F60.000
G2 X104.169 Y72.897 Z20.000 I-53.116 J-53.116 F420.000
G1 X104.185 Y73.908 Z20.000 F420.000
G1 X104.169 Y72.897 Z20.000 F420.000
G1 X103.002 Y72.916 Z20.000 F420.000
G2 X107.818 Y223.084 Z20.000 I2.408 J75.084 F420.000
G2 X158.531 Y201.121 Z20.000 I-2.403 J-75.079 F420.000
G0 X158.531 Y201.121 Z25.500
G0 X157.808 Y200.398 Z25.500
G1 X157.808 Y200.398 Z20.000 F60.000
G3 X106.661 Y222.091 Z20.000 I-52.398 J-52.398 F420.000
G3 X31.318 Y149.238 Z20.000 I-1.251 J-74.091 F420.000
G3 X104.185 Y73.908 Z20.000 I74.092 J-1.238 F420.000
G3 X157.808 Y200.398 Z20.000 I1.225 J74.092 F420.000
G1 X157.808 Y200.398 Z19.500 F60.000
G3 X106.661 Y222.091 Z19.500 I-52.398 J-52.398 F420.000
G3 X31.318 Y149.238 Z19.500 I-1.251 J-74.091 F420.000
G3 X104.185 Y73.908 Z19.500 I74.092 J-1.238 F420.000
G3 X157.808 Y200.398 Z19.500 I1.225 J74.092 F420.000
G0 X157.808 Y200.398 Z25.500
G0 X158.531 Y201.121 Z25.500
G1 X158.531 Y201.121 Z19.500 F60.000
G2 X104.169 Y72.897 Z19.500 I-53.116 J-53.116 F420.000
G1 X104.185 Y73.908 Z19.500 F420.000
G1 X104.169 Y72.897 Z19.500 F420.000
G1 X103.002 Y72.916 Z19.500 F420.000
G2 X107.818 Y223.084 Z19.500 I2.408 J75.084 F420.000
G2 X158.531 Y201.121 Z19.500 I-2.403 J-75.079 F420.000
G1 X158.531 Y201.121 Z19.000 F60.000
G2 X104.169 Y72.897 Z19.000 I-53.116 J-53.116 F420.000
G1 X104.185 Y73.908 Z19.000 F420.000
G1 X104.169 Y72.897 Z19.000 F420.000
G1 X103.002 Y72.916 Z19.000 F420.000
G2 X107.818 Y223.084 Z19.000 I2.408 J75.084 F420.000
G2 X158.531 Y201.121 Z19.000 I-2.403 J-75.079 F420.000
G0 X158.531 Y201.121 Z25.500
G0 X157.808 Y200.398 Z25.500
G1 X157.808 Y200.398 Z19.000 F60.000
G3 X106.661 Y222.091 Z19.000 I-52.398 J-52.398 F420.000
G3 X31.318 Y149.238 Z19.000 I-1.251 J-74.091 F420.000
G3 X104.185 Y73.908 Z19.000 I74.092 J-1.238 F420.000
G3 X157.808 Y200.398 Z19.000 I1.225 J74.092 F420.000
G1 X157.808 Y200.398 Z18.500 F60.000
G3 X106.661 Y222.091 Z18.500 I-52.398 J-52.398 F420.000
G3 X31.318 Y149.238 Z18.500 I-1.251 J-74.091 F420.000
G3 X104.185 Y73.908 Z18.500 I74.092 J-1.238 F420.000
G3 X157.808 Y200.398 Z18.500 I1.225 J74.092 F420.000
G0 X157.808 Y200.398 Z25.500
G0 X158.531 Y201.121 Z25.500
G1 X158.531 Y201.121 Z18.500 F60.000
G2 X104.169 Y72.897 Z18.500 I-53.116 J-53.116 F420.000
G1 X104.185 Y73.908 Z18.500 F420.000
G1 X104.169 Y72.897 Z18.500 F420.000
G1 X103.002 Y72.916 Z18.500 F420.000
G2 X107.818 Y223.084 Z18.500 I2.408 J75.084 F420.000
G2 X158.531 Y201.121 Z18.500 I-2.403 J-75.079 F420.000
G1 X158.531 Y201.121 Z18.000 F60.000
G2 X104.169 Y72.897 Z18.000 I-53.116 J-53.116 F420.000
G1 X104.185 Y73.908 Z18.000 F420.000
G1 X104.169 Y72.897 Z18.000 F420.000
G1 X103.002 Y72.916 Z18.000 F420.000
G2 X107.818 Y223.084 Z18.000 I2.408 J75.084 F420.000
G2 X158.531 Y201.121 Z18.000 I-2.403 J-75.079 F420.000
G0 X158.531 Y201.121 Z25.500
G0 X157.808 Y200.398 Z25.500
G1 X157.808 Y200.398 Z18.000 F60.000
G3 X106.661 Y222.091 Z18.000 I-52.398 J-52.398 F420.000
G3 X31.318 Y149.238 Z18.000 I-1.251 J-74.091 F420.000
G3 X104.185 Y73.908 Z18.000 I74.092 J-1.238 F420.000
G3 X157.808 Y200.398 Z18.000 I1.225 J74.092 F420.000
G1 X157.808 Y200.398 Z17.500 F60.000
G3 X106.661 Y222.091 Z17.500 I-52.398 J-52.398 F420.000
G3 X31.318 Y149.238 Z17.500 I-1.251 J-74.091 F420.000
G3 X104.185 Y73.908 Z17.500 I74.092 J-1.238 F420.000
G3 X157.808 Y200.398 Z17.500 I1.225 J74.092 F420.000
G0 X157.808 Y200.398 Z25.500
G0 X158.531 Y201.121 Z25.500
G1 X158.531 Y201.121 Z17.500 F60.000
G2 X104.169 Y72.897 Z17.500 I-53.116 J-53.116 F420.000
G1 X104.185 Y73.908 Z17.500 F420.000
G1 X104.169 Y72.897 Z17.500 F420.000
G1 X103.002 Y72.916 Z17.500 F420.000
G2 X107.818 Y223.084 Z17.500 I2.408 J75.084 F420.000
G2 X158.531 Y201.121 Z17.500 I-2.403 J-75.079 F420.000
G1 X158.531 Y201.121 Z17.000 F60.000
G2 X104.169 Y72.897 Z17.000 I-53.116 J-53.116 F420.000
G1 X104.185 Y73.908 Z17.000 F420.000
G1 X104.169 Y72.897 Z17.000 F420.000
G1 X103.002 Y72.916 Z17.000 F420.000
G2 X107.818 Y223.084 Z17.000 I2.408 J75.084 F420.000
G2 X158.531 Y201.121 Z17.000 I-2.403 J-75.079 F420.000
G0 X158.531 Y201.121 Z25.500
G0 X157.808 Y200.398 Z25.500
G1 X157.808 Y200.398 Z17.000 F60.000
G3 X106.661 Y222.091 Z17.000 I-52.398 J-52.398 F420.000
G3 X31.318 Y149.238 Z17.000 I-1.251 J-74.091 F420.000
G3 X104.185 Y73.908 Z17.000 I74.092 J-1.238 F420.000
G3 X157.808 Y200.398 Z17.000 I1.225 J74.092 F420.000
G0 Z25.500
(finish operation: Pocket_Shape002)
(begin postamble)
M05
G17 G54 G90 G80 G40
M2
