(Exported by FreeCAD)
(Post Processor: linuxcnc_post)
(Output Time:2019-01-06 22:19:36.481480)
(begin preamble)
G17 G54 G40 G49 G80 G90
G21
(begin operation: T2: 250 End Mill)
(machine: not set, mm/min)
(T2: 250 End Mill)
M6 T1
M3 S15000
G4 P10
(finish operation: T2: 250 End Mill)
(begin operation: Adaptive)
(machine: not set, mm/min)
(Adaptive)
(helix to depth: 19.500000)
G0 X107.668 Y34.309 Z25.500
G0 X107.668 Y34.309 Z23.500
G1 X107.668 Y34.309 Z20.500 F60.000
G1 X107.668 Y34.309 Z20.500 F60.000
G1 X107.759 Y34.763 Z20.459 F60.000
G1 X107.760 Y35.227 Z20.418 F60.000
G1 X107.671 Y35.682 Z20.378 F60.000
G1 X107.494 Y36.110 Z20.337 F60.000
G1 X107.238 Y36.497 Z20.296 F60.000
G1 X106.910 Y36.825 Z20.255 F60.000
G1 X106.525 Y37.083 Z20.214 F60.000
G1 X106.098 Y37.262 Z20.174 F60.000
G1 X105.643 Y37.353 Z20.133 F60.000
G1 X105.179 Y37.354 Z20.092 F60.000
G1 X104.724 Y37.265 Z20.051 F60.000
G1 X104.296 Y37.088 Z20.010 F60.000
G1 X103.910 Y36.831 Z19.970 F60.000
G1 X103.581 Y36.504 Z19.929 F60.000
G1 X103.323 Y36.119 Z19.888 F60.000
G1 X103.145 Y35.691 Z19.847 F60.000
G1 X103.053 Y35.237 Z19.806 F60.000
G1 X103.052 Y34.773 Z19.766 F60.000
G1 X103.142 Y34.318 Z19.725 F60.000
G1 X103.318 Y33.890 Z19.684 F60.000
G1 X103.575 Y33.503 Z19.643 F60.000
G1 X103.902 Y33.175 Z19.602 F60.000
G1 X104.287 Y32.917 Z19.562 F60.000
G1 X104.715 Y32.738 Z19.521 F60.000
G1 X105.170 Y32.647 Z19.500 F696.000
G1 X105.633 Y32.646 Z19.500 F696.000
G1 X106.088 Y32.735 Z19.500 F696.000
G1 X106.517 Y32.912 Z19.500 F696.000
G1 X106.903 Y33.169 Z19.500 F696.000
G1 X107.231 Y33.496 Z19.500 F696.000
G1 X107.490 Y33.881 Z19.500 F696.000
G1 X107.668 Y34.309 Z19.500 F696.000
G1 X107.759 Y34.763 Z19.500 F696.000
G1 X107.760 Y35.227 Z19.500 F696.000
G1 X107.671 Y35.682 Z19.500 F696.000
G1 X107.494 Y36.110 Z19.500 F696.000
G1 X107.238 Y36.497 Z19.500 F696.000
G1 X106.910 Y36.825 Z19.500 F696.000
G1 X106.525 Y37.083 Z19.500 F696.000
G1 X106.098 Y37.262 Z19.500 F696.000
G1 X105.643 Y37.353 Z19.500 F696.000
G1 X105.179 Y37.354 Z19.500 F696.000
G1 X104.724 Y37.265 Z19.500 F696.000
G1 X104.296 Y37.088 Z19.500 F696.000
G1 X103.910 Y36.831 Z19.500 F696.000
G1 X103.581 Y36.504 Z19.500 F696.000
G1 X103.323 Y36.119 Z19.500 F696.000
G1 X103.145 Y35.691 Z19.500 F696.000
G1 X103.053 Y35.237 Z19.500 F696.000
G1 X103.052 Y34.773 Z19.500 F696.000
G1 X103.142 Y34.318 Z19.500 F696.000
G1 X103.318 Y33.890 Z19.500 F696.000
G1 X103.575 Y33.503 Z19.500 F696.000
G1 X103.902 Y33.175 Z19.500 F696.000
G1 X104.287 Y32.917 Z19.500 F696.000
G1 X104.715 Y32.738 Z19.500 F696.000
(Adaptive - depth: 19.500000)
G1 X105.406 Y32.625 F696.000
G1 X105.475 Y32.550 F696.000
G1 X105.650 Y32.462 F696.000
G1 X105.931 Y32.388 F696.000
G1 X106.213 Y32.375 F696.000
G1 X106.912 Y32.562 F696.000
G1 X107.225 Y32.737 F696.000
G1 X107.406 Y32.875 F696.000
G1 X107.594 Y33.044 F696.000
G1 X107.856 Y33.350 F696.000
G1 X108.081 Y33.706 F696.000
G1 X108.231 Y34.062 F696.000
G1 X108.319 Y34.369 F696.000
G1 X108.375 Y34.737 F696.000
G1 X108.388 Y35.125 F696.000
G1 X108.350 Y35.531 F696.000
G1 X108.263 Y35.913 F696.000
G1 X108.106 Y36.281 F696.000
G1 X107.950 Y36.562 F696.000
G1 X107.737 Y36.862 F696.000
G1 X107.456 Y37.163 F696.000
G1 X107.138 Y37.431 F696.000
G1 X106.794 Y37.638 F696.000
G1 X106.469 Y37.788 F696.000
G1 X106.094 Y37.906 F696.000
G1 X105.713 Y37.969 F696.000
G1 X105.338 Y37.987 F696.000
G1 X104.956 Y37.956 F696.000
G1 X104.581 Y37.875 F696.000
G1 X104.219 Y37.744 F696.000
G1 X103.875 Y37.569 F696.000
G1 X103.556 Y37.350 F696.000
G1 X103.269 Y37.094 F696.000
G1 X103.019 Y36.800 F696.000
G1 X102.806 Y36.475 F696.000
G1 X102.638 Y36.125 F696.000
G1 X102.506 Y35.763 F696.000
G1 X102.412 Y35.337 F696.000
G1 X102.394 Y34.944 F696.000
G1 X102.412 Y34.600 F696.000
G1 X102.487 Y34.219 F696.000
G1 X102.606 Y33.862 F696.000
G1 X102.775 Y33.500 F696.000
G1 X102.987 Y33.175 F696.000
G1 X103.237 Y32.875 F696.000
G1 X103.525 Y32.612 F696.000
G1 X103.838 Y32.381 F696.000
G1 X104.200 Y32.156 F696.000
G1 X104.656 Y31.931 F696.000
G1 X105.169 Y31.750 F696.000
G1 X105.650 Y31.681 F696.000
G1 X105.969 Y31.669 F696.000
G1 X106.319 Y31.700 F696.000
G1 X106.681 Y31.775 F696.000
G1 X107.081 Y31.906 F696.000
G1 X107.450 Y32.100 F696.000
G1 X107.750 Y32.300 F696.000
G1 X108.050 Y32.562 F696.000
G1 X108.312 Y32.850 F696.000
G1 X108.556 Y33.194 F696.000
G1 X108.744 Y33.550 F696.000
G1 X108.888 Y33.925 F696.000
G1 X108.994 Y34.319 F696.000
G1 X109.056 Y34.763 F696.000
G1 X109.069 Y35.181 F696.000
G1 X109.031 Y35.600 F696.000
G1 X108.944 Y36.019 F696.000
G1 X108.794 Y36.413 F696.000
G1 X108.631 Y36.737 F696.000
G1 X108.419 Y37.081 F696.000
G1 X108.131 Y37.444 F696.000
G1 X107.787 Y37.788 F696.000
G1 X107.431 Y38.062 F696.000
G1 X107.088 Y38.256 F696.000
G1 X106.744 Y38.406 F696.000
G1 X106.356 Y38.538 F696.000
G1 X105.869 Y38.638 F696.000
G1 X105.400 Y38.663 F696.000
G1 X105.006 Y38.650 F696.000
G1 X104.556 Y38.581 F696.000
G1 X104.138 Y38.462 F696.000
G1 X103.744 Y38.288 F696.000
G1 X103.419 Y38.100 F696.000
G1 X103.081 Y37.862 F696.000
G1 X102.737 Y37.538 F696.000
G1 X102.463 Y37.225 F696.000
G1 X102.219 Y36.869 F696.000
G1 X102.013 Y36.475 F696.000
G1 X101.856 Y36.075 F696.000
G1 X101.744 Y35.656 F696.000
G1 X101.681 Y35.225 F696.000
G1 X101.669 Y34.800 F696.000
G1 X101.706 Y34.369 F696.000
G1 X101.794 Y33.944 F696.000
G1 X101.931 Y33.531 F696.000
G1 X102.112 Y33.138 F696.000
G1 X102.338 Y32.769 F696.000
G1 X102.606 Y32.431 F696.000
G1 X102.900 Y32.119 F696.000
G1 X103.256 Y31.806 F696.000
G1 X103.681 Y31.519 F696.000
G1 X104.088 Y31.294 F696.000
G1 X104.537 Y31.106 F696.000
G1 X105.006 Y30.988 F696.000
G1 X105.394 Y30.925 F696.000
G1 X105.838 Y30.906 F696.000
G1 X106.275 Y30.931 F696.000
G1 X106.756 Y31.012 F696.000
G1 X107.194 Y31.156 F696.000
G1 X107.544 Y31.306 F696.000
G1 X107.925 Y31.525 F696.000
G1 X108.275 Y31.775 F696.000
G1 X108.631 Y32.100 F696.000
G1 X108.925 Y32.438 F696.000
G1 X109.188 Y32.806 F696.000
G1 X109.406 Y33.206 F696.000
G1 X109.581 Y33.625 F696.000
G1 X109.713 Y34.056 F696.000
G1 X109.794 Y34.500 F696.000
G1 X109.825 Y34.950 F696.000
G1 X109.806 Y35.400 F696.000
G1 X109.737 Y35.850 F696.000
G1 X109.619 Y36.288 F696.000
G1 X109.456 Y36.712 F696.000
G1 X109.256 Y37.119 F696.000
G1 X108.981 Y37.550 F696.000
G1 X108.688 Y37.919 F696.000
G1 X108.350 Y38.263 F696.000
G1 X107.975 Y38.575 F696.000
G1 X107.569 Y38.831 F696.000
G1 X107.200 Y39.019 F696.000
G1 X106.769 Y39.175 F696.000
G1 X106.331 Y39.294 F696.000
G1 X105.825 Y39.375 F696.000
G1 X105.350 Y39.400 F696.000
G1 X104.875 Y39.381 F696.000
G1 X104.388 Y39.306 F696.000
G1 X103.925 Y39.169 F696.000
G1 X103.544 Y39.019 F696.000
G1 X103.138 Y38.800 F696.000
G1 X102.763 Y38.556 F696.000
G1 X102.331 Y38.200 F696.000
G1 X101.987 Y37.856 F696.000
G1 X101.688 Y37.462 F696.000
G1 X101.469 Y37.112 F696.000
G1 X101.269 Y36.694 F696.000
G1 X101.106 Y36.269 F696.000
G1 X100.975 Y35.750 F696.000
G1 X100.906 Y35.275 F696.000
G1 X100.881 Y34.794 F696.000
G1 X100.925 Y34.300 F696.000
G1 X101.000 Y33.888 F696.000
G1 X101.131 Y33.444 F696.000
G1 X101.294 Y33.019 F696.000
G1 X101.544 Y32.544 F696.000
G1 X101.806 Y32.138 F696.000
G1 X102.112 Y31.756 F696.000
G1 X102.469 Y31.394 F696.000
G1 X102.850 Y31.081 F696.000
G1 X103.256 Y30.806 F696.000
G1 X103.688 Y30.575 F696.000
G1 X104.144 Y30.387 F696.000
G1 X104.612 Y30.244 F696.000
G1 X105.094 Y30.150 F696.000
G1 X105.581 Y30.106 F696.000
G1 X106.069 Y30.100 F696.000
G1 X106.900 Y30.206 F696.000
G1 X107.812 Y30.512 F696.000
G1 X108.562 Y30.950 F696.000
G1 X109.281 Y31.575 F696.000
G1 X109.812 Y32.256 F696.000
G1 X110.244 Y33.112 F696.000
G1 X110.519 Y34.138 F696.000
G1 X110.575 Y35.075 F696.000
G1 X110.456 Y36.013 F696.000
G1 X110.056 Y37.119 F696.000
G1 X109.544 Y37.962 F696.000
G1 X109.019 Y38.569 F696.000
G1 X108.237 Y39.200 F696.000
G1 X107.431 Y39.631 F696.000
G1 X106.769 Y39.875 F696.000
G1 X105.769 Y40.062 F696.000
G1 X104.669 Y40.062 F696.000
G1 X103.869 Y39.919 F696.000
G1 X102.906 Y39.538 F696.000
G1 X101.950 Y38.900 F696.000
G1 X101.500 Y38.469 F696.000
G1 X101.037 Y37.900 F696.000
G1 X100.612 Y37.188 F696.000
G1 X100.244 Y36.212 F696.000
G1 X100.050 Y35.212 F696.000
G1 X100.050 Y34.212 F696.000
G1 X100.219 Y33.312 F696.000
G1 X100.487 Y32.550 F696.000
G1 X100.806 Y31.919 F696.000
G1 X101.400 Y31.100 F696.000
G1 X101.894 Y30.594 F696.000
G1 X102.688 Y29.994 F696.000
G1 X103.475 Y29.587 F696.000
G1 X104.225 Y29.363 F696.000
G1 X105.162 Y29.250 F696.000
G1 X105.912 Y29.262 F696.000
G1 X106.756 Y29.413 F696.000
G1 X107.688 Y29.725 F696.000
G1 X108.537 Y30.169 F696.000
G1 X108.850 Y30.387 F696.000
G1 X109.806 Y31.294 F696.000
G1 X110.306 Y31.988 F696.000
G1 X110.656 Y32.663 F696.000
G1 X110.994 Y33.644 F696.000
G1 X111.088 Y34.112 F696.000
G1 X111.150 Y35.237 F696.000
G1 X111.088 Y35.894 F696.000
G1 X110.819 Y36.925 F696.000
G1 X110.400 Y37.806 F696.000
G1 X109.906 Y38.538 F696.000
G1 X109.513 Y38.987 F696.000
G1 X108.900 Y39.519 F696.000
G1 X108.244 Y39.969 F696.000
G1 X107.513 Y40.306 F696.000
G1 X106.644 Y40.581 F696.000
G1 X105.844 Y40.712 F696.000
G1 X105.244 Y40.744 F696.000
G1 X104.444 Y40.669 F696.000
G1 X103.644 Y40.462 F696.000
G1 X102.688 Y40.056 F696.000
G1 X101.812 Y39.494 F696.000
G1 X101.494 Y39.219 F696.000
G1 X100.669 Y38.250 F696.000
G1 X100.119 Y37.244 F696.000
G1 X99.850 Y36.456 F696.000
G1 X99.713 Y35.756 F696.000
G1 X99.656 Y34.856 F696.000
G1 X99.737 Y34.056 F696.000
G1 X99.963 Y33.156 F696.000
G1 X100.325 Y32.312 F696.000
G1 X100.325 Y32.312 F696.000
G1 X100.344 Y32.288 F696.000
G1 X100.350 Y32.281 F696.000
G1 X100.362 Y32.250 F696.000
G1 X100.362 Y32.250 F696.000
G1 X100.700 Y31.738 F696.000
G1 X100.987 Y31.312 F696.000
G1 X101.319 Y30.944 F696.000
G1 X101.319 Y30.944 F696.000
G1 X101.531 Y30.800 F696.000
G1 X101.713 Y30.738 F696.000
G0 X101.769 Y30.706
G0 X101.994 Y30.556
G1 X102.050 Y30.512 F696.000
G1 X102.263 Y30.312 F696.000
G1 X102.450 Y30.044 F696.000
G1 X102.600 Y29.913 F696.000
G1 X102.600 Y29.913 F696.000
G1 X102.681 Y29.863 F696.000
G1 X103.519 Y29.494 F696.000
G1 X104.231 Y29.294 F696.000
G1 X105.075 Y29.188 F696.000
G1 X105.862 Y29.200 F696.000
G1 X106.650 Y29.325 F696.000
G1 X107.688 Y29.656 F696.000
G1 X108.550 Y30.100 F696.000
G1 X108.856 Y30.312 F696.000
G1 X109.812 Y31.212 F696.000
G1 X110.294 Y31.850 F696.000
G1 X110.675 Y32.538 F696.000
G1 X111.006 Y33.450 F696.000
G1 X111.144 Y34.069 F696.000
G1 X111.213 Y35.206 F696.000
G1 X111.156 Y35.856 F696.000
G1 X110.950 Y36.719 F696.000
G1 X110.850 Y37.013 F696.000
G1 X110.531 Y37.744 F696.000
G1 X110.094 Y38.438 F696.000
G1 X109.656 Y38.969 F696.000
G1 X109.506 Y39.125 F696.000
G1 X109.188 Y39.413 F696.000
G1 X108.287 Y40.056 F696.000
G1 X107.838 Y40.281 F696.000
G1 X107.100 Y40.556 F696.000
G1 X106.231 Y40.750 F696.000
G1 X105.206 Y40.806 F696.000
G1 X104.312 Y40.706 F696.000
G1 X103.856 Y40.594 F696.000
G1 X103.581 Y40.506 F696.000
G1 X102.631 Y40.100 F696.000
G1 X101.731 Y39.506 F696.000
G1 X101.375 Y39.181 F696.000
G1 X100.650 Y38.325 F696.000
G1 X100.550 Y38.175 F696.000
G1 X100.181 Y37.519 F696.000
G1 X100.050 Y37.237 F696.000
G1 X99.825 Y36.594 F696.000
G1 X99.656 Y35.837 F696.000
G1 X99.638 Y35.669 F696.000
G1 X99.600 Y34.781 F696.000
G1 X99.675 Y34.069 F696.000
G1 X99.856 Y33.300 F696.000
G1 X99.969 Y32.969 F696.000
G1 X100.263 Y32.312 F696.000
G1 X100.331 Y32.188 F696.000
G1 X100.881 Y31.350 F696.000
G1 X101.275 Y30.894 F696.000
G1 X101.700 Y30.519 F696.000
G1 X102.600 Y29.906 F696.000
G1 X102.600 Y29.913 F696.000
G0 Z25.500
(helix to depth: 18.500000)
G0 X107.668 Y34.309 Z25.500
G0 X107.668 Y34.309 Z23.500
G1 X107.668 Y34.309 Z19.500 F60.000
G1 X107.668 Y34.309 Z19.500 F60.000
G1 X107.759 Y34.763 Z19.459 F60.000
G1 X107.760 Y35.227 Z19.418 F60.000
G1 X107.671 Y35.682 Z19.378 F60.000
G1 X107.494 Y36.110 Z19.337 F60.000
G1 X107.238 Y36.497 Z19.296 F60.000
G1 X106.910 Y36.825 Z19.255 F60.000
G1 X106.525 Y37.083 Z19.214 F60.000
G1 X106.098 Y37.262 Z19.174 F60.000
G1 X105.643 Y37.353 Z19.133 F60.000
G1 X105.179 Y37.354 Z19.092 F60.000
G1 X104.724 Y37.265 Z19.051 F60.000
G1 X104.296 Y37.088 Z19.010 F60.000
G1 X103.910 Y36.831 Z18.970 F60.000
G1 X103.581 Y36.504 Z18.929 F60.000
G1 X103.323 Y36.119 Z18.888 F60.000
G1 X103.145 Y35.691 Z18.847 F60.000
G1 X103.053 Y35.237 Z18.806 F60.000
G1 X103.052 Y34.773 Z18.766 F60.000
G1 X103.142 Y34.318 Z18.725 F60.000
G1 X103.318 Y33.890 Z18.684 F60.000
G1 X103.575 Y33.503 Z18.643 F60.000
G1 X103.902 Y33.175 Z18.602 F60.000
G1 X104.287 Y32.917 Z18.562 F60.000
G1 X104.715 Y32.738 Z18.521 F60.000
G1 X105.170 Y32.647 Z18.500 F696.000
G1 X105.633 Y32.646 Z18.500 F696.000
G1 X106.088 Y32.735 Z18.500 F696.000
G1 X106.517 Y32.912 Z18.500 F696.000
G1 X106.903 Y33.169 Z18.500 F696.000
G1 X107.231 Y33.496 Z18.500 F696.000
G1 X107.490 Y33.881 Z18.500 F696.000
G1 X107.668 Y34.309 Z18.500 F696.000
G1 X107.759 Y34.763 Z18.500 F696.000
G1 X107.760 Y35.227 Z18.500 F696.000
G1 X107.671 Y35.682 Z18.500 F696.000
G1 X107.494 Y36.110 Z18.500 F696.000
G1 X107.238 Y36.497 Z18.500 F696.000
G1 X106.910 Y36.825 Z18.500 F696.000
G1 X106.525 Y37.083 Z18.500 F696.000
G1 X106.098 Y37.262 Z18.500 F696.000
G1 X105.643 Y37.353 Z18.500 F696.000
G1 X105.179 Y37.354 Z18.500 F696.000
G1 X104.724 Y37.265 Z18.500 F696.000
G1 X104.296 Y37.088 Z18.500 F696.000
G1 X103.910 Y36.831 Z18.500 F696.000
G1 X103.581 Y36.504 Z18.500 F696.000
G1 X103.323 Y36.119 Z18.500 F696.000
G1 X103.145 Y35.691 Z18.500 F696.000
G1 X103.053 Y35.237 Z18.500 F696.000
G1 X103.052 Y34.773 Z18.500 F696.000
G1 X103.142 Y34.318 Z18.500 F696.000
G1 X103.318 Y33.890 Z18.500 F696.000
G1 X103.575 Y33.503 Z18.500 F696.000
G1 X103.902 Y33.175 Z18.500 F696.000
G1 X104.287 Y32.917 Z18.500 F696.000
G1 X104.715 Y32.738 Z18.500 F696.000
(Adaptive - depth: 18.500000)
G1 X105.406 Y32.625 F696.000
G1 X105.475 Y32.550 F696.000
G1 X105.650 Y32.462 F696.000
G1 X105.931 Y32.388 F696.000
G1 X106.213 Y32.375 F696.000
G1 X106.912 Y32.562 F696.000
G1 X107.225 Y32.737 F696.000
G1 X107.406 Y32.875 F696.000
G1 X107.594 Y33.044 F696.000
G1 X107.856 Y33.350 F696.000
G1 X108.081 Y33.706 F696.000
G1 X108.231 Y34.062 F696.000
G1 X108.319 Y34.369 F696.000
G1 X108.375 Y34.737 F696.000
G1 X108.388 Y35.125 F696.000
G1 X108.350 Y35.531 F696.000
G1 X108.263 Y35.913 F696.000
G1 X108.106 Y36.281 F696.000
G1 X107.950 Y36.562 F696.000
G1 X107.737 Y36.862 F696.000
G1 X107.456 Y37.163 F696.000
G1 X107.138 Y37.431 F696.000
G1 X106.794 Y37.638 F696.000
G1 X106.469 Y37.788 F696.000
G1 X106.094 Y37.906 F696.000
G1 X105.713 Y37.969 F696.000
G1 X105.338 Y37.987 F696.000
G1 X104.956 Y37.956 F696.000
G1 X104.581 Y37.875 F696.000
G1 X104.219 Y37.744 F696.000
G1 X103.875 Y37.569 F696.000
G1 X103.556 Y37.350 F696.000
G1 X103.269 Y37.094 F696.000
G1 X103.019 Y36.800 F696.000
G1 X102.806 Y36.475 F696.000
G1 X102.638 Y36.125 F696.000
G1 X102.506 Y35.763 F696.000
G1 X102.412 Y35.337 F696.000
G1 X102.394 Y34.944 F696.000
G1 X102.412 Y34.600 F696.000
G1 X102.487 Y34.219 F696.000
G1 X102.606 Y33.862 F696.000
G1 X102.775 Y33.500 F696.000
G1 X102.987 Y33.175 F696.000
G1 X103.237 Y32.875 F696.000
G1 X103.525 Y32.612 F696.000
G1 X103.838 Y32.381 F696.000
G1 X104.200 Y32.156 F696.000
G1 X104.656 Y31.931 F696.000
G1 X105.169 Y31.750 F696.000
G1 X105.650 Y31.681 F696.000
G1 X105.969 Y31.669 F696.000
G1 X106.319 Y31.700 F696.000
G1 X106.681 Y31.775 F696.000
G1 X107.081 Y31.906 F696.000
G1 X107.450 Y32.100 F696.000
G1 X107.750 Y32.300 F696.000
G1 X108.050 Y32.562 F696.000
G1 X108.312 Y32.850 F696.000
G1 X108.556 Y33.194 F696.000
G1 X108.744 Y33.550 F696.000
G1 X108.888 Y33.925 F696.000
G1 X108.994 Y34.319 F696.000
G1 X109.056 Y34.763 F696.000
G1 X109.069 Y35.181 F696.000
G1 X109.031 Y35.600 F696.000
G1 X108.944 Y36.019 F696.000
G1 X108.794 Y36.413 F696.000
G1 X108.631 Y36.737 F696.000
G1 X108.419 Y37.081 F696.000
G1 X108.131 Y37.444 F696.000
G1 X107.787 Y37.788 F696.000
G1 X107.431 Y38.062 F696.000
G1 X107.088 Y38.256 F696.000
G1 X106.744 Y38.406 F696.000
G1 X106.356 Y38.538 F696.000
G1 X105.869 Y38.638 F696.000
G1 X105.400 Y38.663 F696.000
G1 X105.006 Y38.650 F696.000
G1 X104.556 Y38.581 F696.000
G1 X104.138 Y38.462 F696.000
G1 X103.744 Y38.288 F696.000
G1 X103.419 Y38.100 F696.000
G1 X103.081 Y37.862 F696.000
G1 X102.737 Y37.538 F696.000
G1 X102.463 Y37.225 F696.000
G1 X102.219 Y36.869 F696.000
G1 X102.013 Y36.475 F696.000
G1 X101.856 Y36.075 F696.000
G1 X101.744 Y35.656 F696.000
G1 X101.681 Y35.225 F696.000
G1 X101.669 Y34.800 F696.000
G1 X101.706 Y34.369 F696.000
G1 X101.794 Y33.944 F696.000
G1 X101.931 Y33.531 F696.000
G1 X102.112 Y33.138 F696.000
G1 X102.338 Y32.769 F696.000
G1 X102.606 Y32.431 F696.000
G1 X102.900 Y32.119 F696.000
G1 X103.256 Y31.806 F696.000
G1 X103.681 Y31.519 F696.000
G1 X104.088 Y31.294 F696.000
G1 X104.537 Y31.106 F696.000
G1 X105.006 Y30.988 F696.000
G1 X105.394 Y30.925 F696.000
G1 X105.838 Y30.906 F696.000
G1 X106.275 Y30.931 F696.000
G1 X106.756 Y31.012 F696.000
G1 X107.194 Y31.156 F696.000
G1 X107.544 Y31.306 F696.000
G1 X107.925 Y31.525 F696.000
G1 X108.275 Y31.775 F696.000
G1 X108.631 Y32.100 F696.000
G1 X108.925 Y32.438 F696.000
G1 X109.188 Y32.806 F696.000
G1 X109.406 Y33.206 F696.000
G1 X109.581 Y33.625 F696.000
G1 X109.713 Y34.056 F696.000
G1 X109.794 Y34.500 F696.000
G1 X109.825 Y34.950 F696.000
G1 X109.806 Y35.400 F696.000
G1 X109.737 Y35.850 F696.000
G1 X109.619 Y36.288 F696.000
G1 X109.456 Y36.712 F696.000
G1 X109.256 Y37.119 F696.000
G1 X108.981 Y37.550 F696.000
G1 X108.688 Y37.919 F696.000
G1 X108.350 Y38.263 F696.000
G1 X107.975 Y38.575 F696.000
G1 X107.569 Y38.831 F696.000
G1 X107.200 Y39.019 F696.000
G1 X106.769 Y39.175 F696.000
G1 X106.331 Y39.294 F696.000
G1 X105.825 Y39.375 F696.000
G1 X105.350 Y39.400 F696.000
G1 X104.875 Y39.381 F696.000
G1 X104.388 Y39.306 F696.000
G1 X103.925 Y39.169 F696.000
G1 X103.544 Y39.019 F696.000
G1 X103.138 Y38.800 F696.000
G1 X102.763 Y38.556 F696.000
G1 X102.331 Y38.200 F696.000
G1 X101.987 Y37.856 F696.000
G1 X101.688 Y37.462 F696.000
G1 X101.469 Y37.112 F696.000
G1 X101.269 Y36.694 F696.000
G1 X101.106 Y36.269 F696.000
G1 X100.975 Y35.750 F696.000
G1 X100.906 Y35.275 F696.000
G1 X100.881 Y34.794 F696.000
G1 X100.925 Y34.300 F696.000
G1 X101.000 Y33.888 F696.000
G1 X101.131 Y33.444 F696.000
G1 X101.294 Y33.019 F696.000
G1 X101.544 Y32.544 F696.000
G1 X101.806 Y32.138 F696.000
G1 X102.112 Y31.756 F696.000
G1 X102.469 Y31.394 F696.000
G1 X102.850 Y31.081 F696.000
G1 X103.256 Y30.806 F696.000
G1 X103.688 Y30.575 F696.000
G1 X104.144 Y30.387 F696.000
G1 X104.612 Y30.244 F696.000
G1 X105.094 Y30.150 F696.000
G1 X105.581 Y30.106 F696.000
G1 X106.069 Y30.100 F696.000
G1 X106.900 Y30.206 F696.000
G1 X107.812 Y30.512 F696.000
G1 X108.562 Y30.950 F696.000
G1 X109.281 Y31.575 F696.000
G1 X109.812 Y32.256 F696.000
G1 X110.244 Y33.112 F696.000
G1 X110.519 Y34.138 F696.000
G1 X110.575 Y35.075 F696.000
G1 X110.456 Y36.013 F696.000
G1 X110.056 Y37.119 F696.000
G1 X109.544 Y37.962 F696.000
G1 X109.019 Y38.569 F696.000
G1 X108.237 Y39.200 F696.000
G1 X107.431 Y39.631 F696.000
G1 X106.769 Y39.875 F696.000
G1 X105.769 Y40.062 F696.000
G1 X104.669 Y40.062 F696.000
G1 X103.869 Y39.919 F696.000
G1 X102.906 Y39.538 F696.000
G1 X101.950 Y38.900 F696.000
G1 X101.500 Y38.469 F696.000
G1 X101.037 Y37.900 F696.000
G1 X100.612 Y37.188 F696.000
G1 X100.244 Y36.212 F696.000
G1 X100.050 Y35.212 F696.000
G1 X100.050 Y34.212 F696.000
G1 X100.219 Y33.312 F696.000
G1 X100.487 Y32.550 F696.000
G1 X100.806 Y31.919 F696.000
G1 X101.400 Y31.100 F696.000
G1 X101.894 Y30.594 F696.000
G1 X102.688 Y29.994 F696.000
G1 X103.475 Y29.587 F696.000
G1 X104.225 Y29.363 F696.000
G1 X105.162 Y29.250 F696.000
G1 X105.912 Y29.262 F696.000
G1 X106.756 Y29.413 F696.000
G1 X107.688 Y29.725 F696.000
G1 X108.537 Y30.169 F696.000
G1 X108.850 Y30.387 F696.000
G1 X109.806 Y31.294 F696.000
G1 X110.306 Y31.988 F696.000
G1 X110.656 Y32.663 F696.000
G1 X110.994 Y33.644 F696.000
G1 X111.088 Y34.112 F696.000
G1 X111.150 Y35.237 F696.000
G1 X111.088 Y35.894 F696.000
G1 X110.819 Y36.925 F696.000
G1 X110.400 Y37.806 F696.000
G1 X109.906 Y38.538 F696.000
G1 X109.513 Y38.987 F696.000
G1 X108.900 Y39.519 F696.000
G1 X108.244 Y39.969 F696.000
G1 X107.513 Y40.306 F696.000
G1 X106.644 Y40.581 F696.000
G1 X105.844 Y40.712 F696.000
G1 X105.244 Y40.744 F696.000
G1 X104.444 Y40.669 F696.000
G1 X103.644 Y40.462 F696.000
G1 X102.688 Y40.056 F696.000
G1 X101.812 Y39.494 F696.000
G1 X101.494 Y39.219 F696.000
G1 X100.669 Y38.250 F696.000
G1 X100.119 Y37.244 F696.000
G1 X99.850 Y36.456 F696.000
G1 X99.713 Y35.756 F696.000
G1 X99.656 Y34.856 F696.000
G1 X99.737 Y34.056 F696.000
G1 X99.963 Y33.156 F696.000
G1 X100.325 Y32.312 F696.000
G1 X100.325 Y32.312 F696.000
G1 X100.344 Y32.288 F696.000
G1 X100.350 Y32.281 F696.000
G1 X100.362 Y32.250 F696.000
G1 X100.362 Y32.250 F696.000
G1 X100.700 Y31.738 F696.000
G1 X100.987 Y31.312 F696.000
G1 X101.319 Y30.944 F696.000
G1 X101.319 Y30.944 F696.000
G1 X101.531 Y30.800 F696.000
G1 X101.713 Y30.738 F696.000
G0 X101.769 Y30.706
G0 X101.994 Y30.556
G1 X102.050 Y30.512 F696.000
G1 X102.263 Y30.312 F696.000
G1 X102.450 Y30.044 F696.000
G1 X102.600 Y29.913 F696.000
G1 X102.600 Y29.913 F696.000
G1 X102.681 Y29.863 F696.000
G1 X103.519 Y29.494 F696.000
G1 X104.231 Y29.294 F696.000
G1 X105.075 Y29.188 F696.000
G1 X105.862 Y29.200 F696.000
G1 X106.650 Y29.325 F696.000
G1 X107.688 Y29.656 F696.000
G1 X108.550 Y30.100 F696.000
G1 X108.856 Y30.312 F696.000
G1 X109.812 Y31.212 F696.000
G1 X110.294 Y31.850 F696.000
G1 X110.675 Y32.538 F696.000
G1 X111.006 Y33.450 F696.000
G1 X111.144 Y34.069 F696.000
G1 X111.213 Y35.206 F696.000
G1 X111.156 Y35.856 F696.000
G1 X110.950 Y36.719 F696.000
G1 X110.850 Y37.013 F696.000
G1 X110.531 Y37.744 F696.000
G1 X110.094 Y38.438 F696.000
G1 X109.656 Y38.969 F696.000
G1 X109.506 Y39.125 F696.000
G1 X109.188 Y39.413 F696.000
G1 X108.287 Y40.056 F696.000
G1 X107.838 Y40.281 F696.000
G1 X107.100 Y40.556 F696.000
G1 X106.231 Y40.750 F696.000
G1 X105.206 Y40.806 F696.000
G1 X104.312 Y40.706 F696.000
G1 X103.856 Y40.594 F696.000
G1 X103.581 Y40.506 F696.000
G1 X102.631 Y40.100 F696.000
G1 X101.731 Y39.506 F696.000
G1 X101.375 Y39.181 F696.000
G1 X100.650 Y38.325 F696.000
G1 X100.550 Y38.175 F696.000
G1 X100.181 Y37.519 F696.000
G1 X100.050 Y37.237 F696.000
G1 X99.825 Y36.594 F696.000
G1 X99.656 Y35.837 F696.000
G1 X99.638 Y35.669 F696.000
G1 X99.600 Y34.781 F696.000
G1 X99.675 Y34.069 F696.000
G1 X99.856 Y33.300 F696.000
G1 X99.969 Y32.969 F696.000
G1 X100.263 Y32.312 F696.000
G1 X100.331 Y32.188 F696.000
G1 X100.881 Y31.350 F696.000
G1 X101.275 Y30.894 F696.000
G1 X101.700 Y30.519 F696.000
G1 X102.600 Y29.906 F696.000
G1 X102.600 Y29.913 F696.000
G0 Z25.500
(helix to depth: 17.500000)
G0 X107.668 Y34.309 Z25.500
G0 X107.668 Y34.309 Z23.500
G1 X107.668 Y34.309 Z18.500 F60.000
G1 X107.668 Y34.309 Z18.500 F60.000
G1 X107.759 Y34.763 Z18.459 F60.000
G1 X107.760 Y35.227 Z18.418 F60.000
G1 X107.671 Y35.682 Z18.378 F60.000
G1 X107.494 Y36.110 Z18.337 F60.000
G1 X107.238 Y36.497 Z18.296 F60.000
G1 X106.910 Y36.825 Z18.255 F60.000
G1 X106.525 Y37.083 Z18.214 F60.000
G1 X106.098 Y37.262 Z18.174 F60.000
G1 X105.643 Y37.353 Z18.133 F60.000
G1 X105.179 Y37.354 Z18.092 F60.000
G1 X104.724 Y37.265 Z18.051 F60.000
G1 X104.296 Y37.088 Z18.010 F60.000
G1 X103.910 Y36.831 Z17.970 F60.000
G1 X103.581 Y36.504 Z17.929 F60.000
G1 X103.323 Y36.119 Z17.888 F60.000
G1 X103.145 Y35.691 Z17.847 F60.000
G1 X103.053 Y35.237 Z17.806 F60.000
G1 X103.052 Y34.773 Z17.766 F60.000
G1 X103.142 Y34.318 Z17.725 F60.000
G1 X103.318 Y33.890 Z17.684 F60.000
G1 X103.575 Y33.503 Z17.643 F60.000
G1 X103.902 Y33.175 Z17.602 F60.000
G1 X104.287 Y32.917 Z17.562 F60.000
G1 X104.715 Y32.738 Z17.521 F60.000
G1 X105.170 Y32.647 Z17.500 F696.000
G1 X105.633 Y32.646 Z17.500 F696.000
G1 X106.088 Y32.735 Z17.500 F696.000
G1 X106.517 Y32.912 Z17.500 F696.000
G1 X106.903 Y33.169 Z17.500 F696.000
G1 X107.231 Y33.496 Z17.500 F696.000
G1 X107.490 Y33.881 Z17.500 F696.000
G1 X107.668 Y34.309 Z17.500 F696.000
G1 X107.759 Y34.763 Z17.500 F696.000
G1 X107.760 Y35.227 Z17.500 F696.000
G1 X107.671 Y35.682 Z17.500 F696.000
G1 X107.494 Y36.110 Z17.500 F696.000
G1 X107.238 Y36.497 Z17.500 F696.000
G1 X106.910 Y36.825 Z17.500 F696.000
G1 X106.525 Y37.083 Z17.500 F696.000
G1 X106.098 Y37.262 Z17.500 F696.000
G1 X105.643 Y37.353 Z17.500 F696.000
G1 X105.179 Y37.354 Z17.500 F696.000
G1 X104.724 Y37.265 Z17.500 F696.000
G1 X104.296 Y37.088 Z17.500 F696.000
G1 X103.910 Y36.831 Z17.500 F696.000
G1 X103.581 Y36.504 Z17.500 F696.000
G1 X103.323 Y36.119 Z17.500 F696.000
G1 X103.145 Y35.691 Z17.500 F696.000
G1 X103.053 Y35.237 Z17.500 F696.000
G1 X103.052 Y34.773 Z17.500 F696.000
G1 X103.142 Y34.318 Z17.500 F696.000
G1 X103.318 Y33.890 Z17.500 F696.000
G1 X103.575 Y33.503 Z17.500 F696.000
G1 X103.902 Y33.175 Z17.500 F696.000
G1 X104.287 Y32.917 Z17.500 F696.000
G1 X104.715 Y32.738 Z17.500 F696.000
(Adaptive - depth: 17.500000)
G1 X105.406 Y32.625 F696.000
G1 X105.475 Y32.550 F696.000
G1 X105.650 Y32.462 F696.000
G1 X105.931 Y32.388 F696.000
G1 X106.213 Y32.375 F696.000
G1 X106.912 Y32.562 F696.000
G1 X107.225 Y32.737 F696.000
G1 X107.406 Y32.875 F696.000
G1 X107.594 Y33.044 F696.000
G1 X107.856 Y33.350 F696.000
G1 X108.081 Y33.706 F696.000
G1 X108.231 Y34.062 F696.000
G1 X108.319 Y34.369 F696.000
G1 X108.375 Y34.737 F696.000
G1 X108.388 Y35.125 F696.000
G1 X108.350 Y35.531 F696.000
G1 X108.263 Y35.913 F696.000
G1 X108.106 Y36.281 F696.000
G1 X107.950 Y36.562 F696.000
G1 X107.737 Y36.862 F696.000
G1 X107.456 Y37.163 F696.000
G1 X107.138 Y37.431 F696.000
G1 X106.794 Y37.638 F696.000
G1 X106.469 Y37.788 F696.000
G1 X106.094 Y37.906 F696.000
G1 X105.713 Y37.969 F696.000
G1 X105.338 Y37.987 F696.000
G1 X104.956 Y37.956 F696.000
G1 X104.581 Y37.875 F696.000
G1 X104.219 Y37.744 F696.000
G1 X103.875 Y37.569 F696.000
G1 X103.556 Y37.350 F696.000
G1 X103.269 Y37.094 F696.000
G1 X103.019 Y36.800 F696.000
G1 X102.806 Y36.475 F696.000
G1 X102.638 Y36.125 F696.000
G1 X102.506 Y35.763 F696.000
G1 X102.412 Y35.337 F696.000
G1 X102.394 Y34.944 F696.000
G1 X102.412 Y34.600 F696.000
G1 X102.487 Y34.219 F696.000
G1 X102.606 Y33.862 F696.000
G1 X102.775 Y33.500 F696.000
G1 X102.987 Y33.175 F696.000
G1 X103.237 Y32.875 F696.000
G1 X103.525 Y32.612 F696.000
G1 X103.838 Y32.381 F696.000
G1 X104.200 Y32.156 F696.000
G1 X104.656 Y31.931 F696.000
G1 X105.169 Y31.750 F696.000
G1 X105.650 Y31.681 F696.000
G1 X105.969 Y31.669 F696.000
G1 X106.319 Y31.700 F696.000
G1 X106.681 Y31.775 F696.000
G1 X107.081 Y31.906 F696.000
G1 X107.450 Y32.100 F696.000
G1 X107.750 Y32.300 F696.000
G1 X108.050 Y32.562 F696.000
G1 X108.312 Y32.850 F696.000
G1 X108.556 Y33.194 F696.000
G1 X108.744 Y33.550 F696.000
G1 X108.888 Y33.925 F696.000
G1 X108.994 Y34.319 F696.000
G1 X109.056 Y34.763 F696.000
G1 X109.069 Y35.181 F696.000
G1 X109.031 Y35.600 F696.000
G1 X108.944 Y36.019 F696.000
G1 X108.794 Y36.413 F696.000
G1 X108.631 Y36.737 F696.000
G1 X108.419 Y37.081 F696.000
G1 X108.131 Y37.444 F696.000
G1 X107.787 Y37.788 F696.000
G1 X107.431 Y38.062 F696.000
G1 X107.088 Y38.256 F696.000
G1 X106.744 Y38.406 F696.000
G1 X106.356 Y38.538 F696.000
G1 X105.869 Y38.638 F696.000
G1 X105.400 Y38.663 F696.000
G1 X105.006 Y38.650 F696.000
G1 X104.556 Y38.581 F696.000
G1 X104.138 Y38.462 F696.000
G1 X103.744 Y38.288 F696.000
G1 X103.419 Y38.100 F696.000
G1 X103.081 Y37.862 F696.000
G1 X102.737 Y37.538 F696.000
G1 X102.463 Y37.225 F696.000
G1 X102.219 Y36.869 F696.000
G1 X102.013 Y36.475 F696.000
G1 X101.856 Y36.075 F696.000
G1 X101.744 Y35.656 F696.000
G1 X101.681 Y35.225 F696.000
G1 X101.669 Y34.800 F696.000
G1 X101.706 Y34.369 F696.000
G1 X101.794 Y33.944 F696.000
G1 X101.931 Y33.531 F696.000
G1 X102.112 Y33.138 F696.000
G1 X102.338 Y32.769 F696.000
G1 X102.606 Y32.431 F696.000
G1 X102.900 Y32.119 F696.000
G1 X103.256 Y31.806 F696.000
G1 X103.681 Y31.519 F696.000
G1 X104.088 Y31.294 F696.000
G1 X104.537 Y31.106 F696.000
G1 X105.006 Y30.988 F696.000
G1 X105.394 Y30.925 F696.000
G1 X105.838 Y30.906 F696.000
G1 X106.275 Y30.931 F696.000
G1 X106.756 Y31.012 F696.000
G1 X107.194 Y31.156 F696.000
G1 X107.544 Y31.306 F696.000
G1 X107.925 Y31.525 F696.000
G1 X108.275 Y31.775 F696.000
G1 X108.631 Y32.100 F696.000
G1 X108.925 Y32.438 F696.000
G1 X109.188 Y32.806 F696.000
G1 X109.406 Y33.206 F696.000
G1 X109.581 Y33.625 F696.000
G1 X109.713 Y34.056 F696.000
G1 X109.794 Y34.500 F696.000
G1 X109.825 Y34.950 F696.000
G1 X109.806 Y35.400 F696.000
G1 X109.737 Y35.850 F696.000
G1 X109.619 Y36.288 F696.000
G1 X109.456 Y36.712 F696.000
G1 X109.256 Y37.119 F696.000
G1 X108.981 Y37.550 F696.000
G1 X108.688 Y37.919 F696.000
G1 X108.350 Y38.263 F696.000
G1 X107.975 Y38.575 F696.000
G1 X107.569 Y38.831 F696.000
G1 X107.200 Y39.019 F696.000
G1 X106.769 Y39.175 F696.000
G1 X106.331 Y39.294 F696.000
G1 X105.825 Y39.375 F696.000
G1 X105.350 Y39.400 F696.000
G1 X104.875 Y39.381 F696.000
G1 X104.388 Y39.306 F696.000
G1 X103.925 Y39.169 F696.000
G1 X103.544 Y39.019 F696.000
G1 X103.138 Y38.800 F696.000
G1 X102.763 Y38.556 F696.000
G1 X102.331 Y38.200 F696.000
G1 X101.987 Y37.856 F696.000
G1 X101.688 Y37.462 F696.000
G1 X101.469 Y37.112 F696.000
G1 X101.269 Y36.694 F696.000
G1 X101.106 Y36.269 F696.000
G1 X100.975 Y35.750 F696.000
G1 X100.906 Y35.275 F696.000
G1 X100.881 Y34.794 F696.000
G1 X100.925 Y34.300 F696.000
G1 X101.000 Y33.888 F696.000
G1 X101.131 Y33.444 F696.000
G1 X101.294 Y33.019 F696.000
G1 X101.544 Y32.544 F696.000
G1 X101.806 Y32.138 F696.000
G1 X102.112 Y31.756 F696.000
G1 X102.469 Y31.394 F696.000
G1 X102.850 Y31.081 F696.000
G1 X103.256 Y30.806 F696.000
G1 X103.688 Y30.575 F696.000
G1 X104.144 Y30.387 F696.000
G1 X104.612 Y30.244 F696.000
G1 X105.094 Y30.150 F696.000
G1 X105.581 Y30.106 F696.000
G1 X106.069 Y30.100 F696.000
G1 X106.900 Y30.206 F696.000
G1 X107.812 Y30.512 F696.000
G1 X108.562 Y30.950 F696.000
G1 X109.281 Y31.575 F696.000
G1 X109.812 Y32.256 F696.000
G1 X110.244 Y33.112 F696.000
G1 X110.519 Y34.138 F696.000
G1 X110.575 Y35.075 F696.000
G1 X110.456 Y36.013 F696.000
G1 X110.056 Y37.119 F696.000
G1 X109.544 Y37.962 F696.000
G1 X109.019 Y38.569 F696.000
G1 X108.237 Y39.200 F696.000
G1 X107.431 Y39.631 F696.000
G1 X106.769 Y39.875 F696.000
G1 X105.769 Y40.062 F696.000
G1 X104.669 Y40.062 F696.000
G1 X103.869 Y39.919 F696.000
G1 X102.906 Y39.538 F696.000
G1 X101.950 Y38.900 F696.000
G1 X101.500 Y38.469 F696.000
G1 X101.037 Y37.900 F696.000
G1 X100.612 Y37.188 F696.000
G1 X100.244 Y36.212 F696.000
G1 X100.050 Y35.212 F696.000
G1 X100.050 Y34.212 F696.000
G1 X100.219 Y33.312 F696.000
G1 X100.487 Y32.550 F696.000
G1 X100.806 Y31.919 F696.000
G1 X101.400 Y31.100 F696.000
G1 X101.894 Y30.594 F696.000
G1 X102.688 Y29.994 F696.000
G1 X103.475 Y29.587 F696.000
G1 X104.225 Y29.363 F696.000
G1 X105.162 Y29.250 F696.000
G1 X105.912 Y29.262 F696.000
G1 X106.756 Y29.413 F696.000
G1 X107.688 Y29.725 F696.000
G1 X108.537 Y30.169 F696.000
G1 X108.850 Y30.387 F696.000
G1 X109.806 Y31.294 F696.000
G1 X110.306 Y31.988 F696.000
G1 X110.656 Y32.663 F696.000
G1 X110.994 Y33.644 F696.000
G1 X111.088 Y34.112 F696.000
G1 X111.150 Y35.237 F696.000
G1 X111.088 Y35.894 F696.000
G1 X110.819 Y36.925 F696.000
G1 X110.400 Y37.806 F696.000
G1 X109.906 Y38.538 F696.000
G1 X109.513 Y38.987 F696.000
G1 X108.900 Y39.519 F696.000
G1 X108.244 Y39.969 F696.000
G1 X107.513 Y40.306 F696.000
G1 X106.644 Y40.581 F696.000
G1 X105.844 Y40.712 F696.000
G1 X105.244 Y40.744 F696.000
G1 X104.444 Y40.669 F696.000
G1 X103.644 Y40.462 F696.000
G1 X102.688 Y40.056 F696.000
G1 X101.812 Y39.494 F696.000
G1 X101.494 Y39.219 F696.000
G1 X100.669 Y38.250 F696.000
G1 X100.119 Y37.244 F696.000
G1 X99.850 Y36.456 F696.000
G1 X99.713 Y35.756 F696.000
G1 X99.656 Y34.856 F696.000
G1 X99.737 Y34.056 F696.000
G1 X99.963 Y33.156 F696.000
G1 X100.325 Y32.312 F696.000
G1 X100.325 Y32.312 F696.000
G1 X100.344 Y32.288 F696.000
G1 X100.350 Y32.281 F696.000
G1 X100.362 Y32.250 F696.000
G1 X100.362 Y32.250 F696.000
G1 X100.700 Y31.738 F696.000
G1 X100.987 Y31.312 F696.000
G1 X101.319 Y30.944 F696.000
G1 X101.319 Y30.944 F696.000
G1 X101.531 Y30.800 F696.000
G1 X101.713 Y30.738 F696.000
G0 X101.769 Y30.706
G0 X101.994 Y30.556
G1 X102.050 Y30.512 F696.000
G1 X102.263 Y30.312 F696.000
G1 X102.450 Y30.044 F696.000
G1 X102.600 Y29.913 F696.000
G1 X102.600 Y29.913 F696.000
G1 X102.681 Y29.863 F696.000
G1 X103.519 Y29.494 F696.000
G1 X104.231 Y29.294 F696.000
G1 X105.075 Y29.188 F696.000
G1 X105.862 Y29.200 F696.000
G1 X106.650 Y29.325 F696.000
G1 X107.688 Y29.656 F696.000
G1 X108.550 Y30.100 F696.000
G1 X108.856 Y30.312 F696.000
G1 X109.812 Y31.212 F696.000
G1 X110.294 Y31.850 F696.000
G1 X110.675 Y32.538 F696.000
G1 X111.006 Y33.450 F696.000
G1 X111.144 Y34.069 F696.000
G1 X111.213 Y35.206 F696.000
G1 X111.156 Y35.856 F696.000
G1 X110.950 Y36.719 F696.000
G1 X110.850 Y37.013 F696.000
G1 X110.531 Y37.744 F696.000
G1 X110.094 Y38.438 F696.000
G1 X109.656 Y38.969 F696.000
G1 X109.506 Y39.125 F696.000
G1 X109.188 Y39.413 F696.000
G1 X108.287 Y40.056 F696.000
G1 X107.838 Y40.281 F696.000
G1 X107.100 Y40.556 F696.000
G1 X106.231 Y40.750 F696.000
G1 X105.206 Y40.806 F696.000
G1 X104.312 Y40.706 F696.000
G1 X103.856 Y40.594 F696.000
G1 X103.581 Y40.506 F696.000
G1 X102.631 Y40.100 F696.000
G1 X101.731 Y39.506 F696.000
G1 X101.375 Y39.181 F696.000
G1 X100.650 Y38.325 F696.000
G1 X100.550 Y38.175 F696.000
G1 X100.181 Y37.519 F696.000
G1 X100.050 Y37.237 F696.000
G1 X99.825 Y36.594 F696.000
G1 X99.656 Y35.837 F696.000
G1 X99.638 Y35.669 F696.000
G1 X99.600 Y34.781 F696.000
G1 X99.675 Y34.069 F696.000
G1 X99.856 Y33.300 F696.000
G1 X99.969 Y32.969 F696.000
G1 X100.263 Y32.312 F696.000
G1 X100.331 Y32.188 F696.000
G1 X100.881 Y31.350 F696.000
G1 X101.275 Y30.894 F696.000
G1 X101.700 Y30.519 F696.000
G1 X102.600 Y29.906 F696.000
G1 X102.600 Y29.913 F696.000
G0 Z25.500
(helix to depth: 16.500000)
G0 X107.668 Y34.309 Z25.500
G0 X107.668 Y34.309 Z23.500
G1 X107.668 Y34.309 Z17.500 F60.000
G1 X107.668 Y34.309 Z17.500 F60.000
G1 X107.759 Y34.763 Z17.459 F60.000
G1 X107.760 Y35.227 Z17.418 F60.000
G1 X107.671 Y35.682 Z17.378 F60.000
G1 X107.494 Y36.110 Z17.337 F60.000
G1 X107.238 Y36.497 Z17.296 F60.000
G1 X106.910 Y36.825 Z17.255 F60.000
G1 X106.525 Y37.083 Z17.214 F60.000
G1 X106.098 Y37.262 Z17.174 F60.000
G1 X105.643 Y37.353 Z17.133 F60.000
G1 X105.179 Y37.354 Z17.092 F60.000
G1 X104.724 Y37.265 Z17.051 F60.000
G1 X104.296 Y37.088 Z17.010 F60.000
G1 X103.910 Y36.831 Z16.970 F60.000
G1 X103.581 Y36.504 Z16.929 F60.000
G1 X103.323 Y36.119 Z16.888 F60.000
G1 X103.145 Y35.691 Z16.847 F60.000
G1 X103.053 Y35.237 Z16.806 F60.000
G1 X103.052 Y34.773 Z16.766 F60.000
G1 X103.142 Y34.318 Z16.725 F60.000
G1 X103.318 Y33.890 Z16.684 F60.000
G1 X103.575 Y33.503 Z16.643 F60.000
G1 X103.902 Y33.175 Z16.602 F60.000
G1 X104.287 Y32.917 Z16.562 F60.000
G1 X104.715 Y32.738 Z16.521 F60.000
G1 X105.170 Y32.647 Z16.500 F696.000
G1 X105.633 Y32.646 Z16.500 F696.000
G1 X106.088 Y32.735 Z16.500 F696.000
G1 X106.517 Y32.912 Z16.500 F696.000
G1 X106.903 Y33.169 Z16.500 F696.000
G1 X107.231 Y33.496 Z16.500 F696.000
G1 X107.490 Y33.881 Z16.500 F696.000
G1 X107.668 Y34.309 Z16.500 F696.000
G1 X107.759 Y34.763 Z16.500 F696.000
G1 X107.760 Y35.227 Z16.500 F696.000
G1 X107.671 Y35.682 Z16.500 F696.000
G1 X107.494 Y36.110 Z16.500 F696.000
G1 X107.238 Y36.497 Z16.500 F696.000
G1 X106.910 Y36.825 Z16.500 F696.000
G1 X106.525 Y37.083 Z16.500 F696.000
G1 X106.098 Y37.262 Z16.500 F696.000
G1 X105.643 Y37.353 Z16.500 F696.000
G1 X105.179 Y37.354 Z16.500 F696.000
G1 X104.724 Y37.265 Z16.500 F696.000
G1 X104.296 Y37.088 Z16.500 F696.000
G1 X103.910 Y36.831 Z16.500 F696.000
G1 X103.581 Y36.504 Z16.500 F696.000
G1 X103.323 Y36.119 Z16.500 F696.000
G1 X103.145 Y35.691 Z16.500 F696.000
G1 X103.053 Y35.237 Z16.500 F696.000
G1 X103.052 Y34.773 Z16.500 F696.000
G1 X103.142 Y34.318 Z16.500 F696.000
G1 X103.318 Y33.890 Z16.500 F696.000
G1 X103.575 Y33.503 Z16.500 F696.000
G1 X103.902 Y33.175 Z16.500 F696.000
G1 X104.287 Y32.917 Z16.500 F696.000
G1 X104.715 Y32.738 Z16.500 F696.000
(Adaptive - depth: 16.500000)
G1 X105.406 Y32.625 F696.000
G1 X105.475 Y32.550 F696.000
G1 X105.650 Y32.462 F696.000
G1 X105.931 Y32.388 F696.000
G1 X106.213 Y32.375 F696.000
G1 X106.912 Y32.562 F696.000
G1 X107.225 Y32.737 F696.000
G1 X107.406 Y32.875 F696.000
G1 X107.594 Y33.044 F696.000
G1 X107.856 Y33.350 F696.000
G1 X108.081 Y33.706 F696.000
G1 X108.231 Y34.062 F696.000
G1 X108.319 Y34.369 F696.000
G1 X108.375 Y34.737 F696.000
G1 X108.388 Y35.125 F696.000
G1 X108.350 Y35.531 F696.000
G1 X108.263 Y35.913 F696.000
G1 X108.106 Y36.281 F696.000
G1 X107.950 Y36.562 F696.000
G1 X107.737 Y36.862 F696.000
G1 X107.456 Y37.163 F696.000
G1 X107.138 Y37.431 F696.000
G1 X106.794 Y37.638 F696.000
G1 X106.469 Y37.788 F696.000
G1 X106.094 Y37.906 F696.000
G1 X105.713 Y37.969 F696.000
G1 X105.338 Y37.987 F696.000
G1 X104.956 Y37.956 F696.000
G1 X104.581 Y37.875 F696.000
G1 X104.219 Y37.744 F696.000
G1 X103.875 Y37.569 F696.000
G1 X103.556 Y37.350 F696.000
G1 X103.269 Y37.094 F696.000
G1 X103.019 Y36.800 F696.000
G1 X102.806 Y36.475 F696.000
G1 X102.638 Y36.125 F696.000
G1 X102.506 Y35.763 F696.000
G1 X102.412 Y35.337 F696.000
G1 X102.394 Y34.944 F696.000
G1 X102.412 Y34.600 F696.000
G1 X102.487 Y34.219 F696.000
G1 X102.606 Y33.862 F696.000
G1 X102.775 Y33.500 F696.000
G1 X102.987 Y33.175 F696.000
G1 X103.237 Y32.875 F696.000
G1 X103.525 Y32.612 F696.000
G1 X103.838 Y32.381 F696.000
G1 X104.200 Y32.156 F696.000
G1 X104.656 Y31.931 F696.000
G1 X105.169 Y31.750 F696.000
G1 X105.650 Y31.681 F696.000
G1 X105.969 Y31.669 F696.000
G1 X106.319 Y31.700 F696.000
G1 X106.681 Y31.775 F696.000
G1 X107.081 Y31.906 F696.000
G1 X107.450 Y32.100 F696.000
G1 X107.750 Y32.300 F696.000
G1 X108.050 Y32.562 F696.000
G1 X108.312 Y32.850 F696.000
G1 X108.556 Y33.194 F696.000
G1 X108.744 Y33.550 F696.000
G1 X108.888 Y33.925 F696.000
G1 X108.994 Y34.319 F696.000
G1 X109.056 Y34.763 F696.000
G1 X109.069 Y35.181 F696.000
G1 X109.031 Y35.600 F696.000
G1 X108.944 Y36.019 F696.000
G1 X108.794 Y36.413 F696.000
G1 X108.631 Y36.737 F696.000
G1 X108.419 Y37.081 F696.000
G1 X108.131 Y37.444 F696.000
G1 X107.787 Y37.788 F696.000
G1 X107.431 Y38.062 F696.000
G1 X107.088 Y38.256 F696.000
G1 X106.744 Y38.406 F696.000
G1 X106.356 Y38.538 F696.000
G1 X105.869 Y38.638 F696.000
G1 X105.400 Y38.663 F696.000
G1 X105.006 Y38.650 F696.000
G1 X104.556 Y38.581 F696.000
G1 X104.138 Y38.462 F696.000
G1 X103.744 Y38.288 F696.000
G1 X103.419 Y38.100 F696.000
G1 X103.081 Y37.862 F696.000
G1 X102.737 Y37.538 F696.000
G1 X102.463 Y37.225 F696.000
G1 X102.219 Y36.869 F696.000
G1 X102.013 Y36.475 F696.000
G1 X101.856 Y36.075 F696.000
G1 X101.744 Y35.656 F696.000
G1 X101.681 Y35.225 F696.000
G1 X101.669 Y34.800 F696.000
G1 X101.706 Y34.369 F696.000
G1 X101.794 Y33.944 F696.000
G1 X101.931 Y33.531 F696.000
G1 X102.112 Y33.138 F696.000
G1 X102.338 Y32.769 F696.000
G1 X102.606 Y32.431 F696.000
G1 X102.900 Y32.119 F696.000
G1 X103.256 Y31.806 F696.000
G1 X103.681 Y31.519 F696.000
G1 X104.088 Y31.294 F696.000
G1 X104.537 Y31.106 F696.000
G1 X105.006 Y30.988 F696.000
G1 X105.394 Y30.925 F696.000
G1 X105.838 Y30.906 F696.000
G1 X106.275 Y30.931 F696.000
G1 X106.756 Y31.012 F696.000
G1 X107.194 Y31.156 F696.000
G1 X107.544 Y31.306 F696.000
G1 X107.925 Y31.525 F696.000
G1 X108.275 Y31.775 F696.000
G1 X108.631 Y32.100 F696.000
G1 X108.925 Y32.438 F696.000
G1 X109.188 Y32.806 F696.000
G1 X109.406 Y33.206 F696.000
G1 X109.581 Y33.625 F696.000
G1 X109.713 Y34.056 F696.000
G1 X109.794 Y34.500 F696.000
G1 X109.825 Y34.950 F696.000
G1 X109.806 Y35.400 F696.000
G1 X109.737 Y35.850 F696.000
G1 X109.619 Y36.288 F696.000
G1 X109.456 Y36.712 F696.000
G1 X109.256 Y37.119 F696.000
G1 X108.981 Y37.550 F696.000
G1 X108.688 Y37.919 F696.000
G1 X108.350 Y38.263 F696.000
G1 X107.975 Y38.575 F696.000
G1 X107.569 Y38.831 F696.000
G1 X107.200 Y39.019 F696.000
G1 X106.769 Y39.175 F696.000
G1 X106.331 Y39.294 F696.000
G1 X105.825 Y39.375 F696.000
G1 X105.350 Y39.400 F696.000
G1 X104.875 Y39.381 F696.000
G1 X104.388 Y39.306 F696.000
G1 X103.925 Y39.169 F696.000
G1 X103.544 Y39.019 F696.000
G1 X103.138 Y38.800 F696.000
G1 X102.763 Y38.556 F696.000
G1 X102.331 Y38.200 F696.000
G1 X101.987 Y37.856 F696.000
G1 X101.688 Y37.462 F696.000
G1 X101.469 Y37.112 F696.000
G1 X101.269 Y36.694 F696.000
G1 X101.106 Y36.269 F696.000
G1 X100.975 Y35.750 F696.000
G1 X100.906 Y35.275 F696.000
G1 X100.881 Y34.794 F696.000
G1 X100.925 Y34.300 F696.000
G1 X101.000 Y33.888 F696.000
G1 X101.131 Y33.444 F696.000
G1 X101.294 Y33.019 F696.000
G1 X101.544 Y32.544 F696.000
G1 X101.806 Y32.138 F696.000
G1 X102.112 Y31.756 F696.000
G1 X102.469 Y31.394 F696.000
G1 X102.850 Y31.081 F696.000
G1 X103.256 Y30.806 F696.000
G1 X103.688 Y30.575 F696.000
G1 X104.144 Y30.387 F696.000
G1 X104.612 Y30.244 F696.000
G1 X105.094 Y30.150 F696.000
G1 X105.581 Y30.106 F696.000
G1 X106.069 Y30.100 F696.000
G1 X106.900 Y30.206 F696.000
G1 X107.812 Y30.512 F696.000
G1 X108.562 Y30.950 F696.000
G1 X109.281 Y31.575 F696.000
G1 X109.812 Y32.256 F696.000
G1 X110.244 Y33.112 F696.000
G1 X110.519 Y34.138 F696.000
G1 X110.575 Y35.075 F696.000
G1 X110.456 Y36.013 F696.000
G1 X110.056 Y37.119 F696.000
G1 X109.544 Y37.962 F696.000
G1 X109.019 Y38.569 F696.000
G1 X108.237 Y39.200 F696.000
G1 X107.431 Y39.631 F696.000
G1 X106.769 Y39.875 F696.000
G1 X105.769 Y40.062 F696.000
G1 X104.669 Y40.062 F696.000
G1 X103.869 Y39.919 F696.000
G1 X102.906 Y39.538 F696.000
G1 X101.950 Y38.900 F696.000
G1 X101.500 Y38.469 F696.000
G1 X101.037 Y37.900 F696.000
G1 X100.612 Y37.188 F696.000
G1 X100.244 Y36.212 F696.000
G1 X100.050 Y35.212 F696.000
G1 X100.050 Y34.212 F696.000
G1 X100.219 Y33.312 F696.000
G1 X100.487 Y32.550 F696.000
G1 X100.806 Y31.919 F696.000
G1 X101.400 Y31.100 F696.000
G1 X101.894 Y30.594 F696.000
G1 X102.688 Y29.994 F696.000
G1 X103.475 Y29.587 F696.000
G1 X104.225 Y29.363 F696.000
G1 X105.162 Y29.250 F696.000
G1 X105.912 Y29.262 F696.000
G1 X106.756 Y29.413 F696.000
G1 X107.688 Y29.725 F696.000
G1 X108.537 Y30.169 F696.000
G1 X108.850 Y30.387 F696.000
G1 X109.806 Y31.294 F696.000
G1 X110.306 Y31.988 F696.000
G1 X110.656 Y32.663 F696.000
G1 X110.994 Y33.644 F696.000
G1 X111.088 Y34.112 F696.000
G1 X111.150 Y35.237 F696.000
G1 X111.088 Y35.894 F696.000
G1 X110.819 Y36.925 F696.000
G1 X110.400 Y37.806 F696.000
G1 X109.906 Y38.538 F696.000
G1 X109.513 Y38.987 F696.000
G1 X108.900 Y39.519 F696.000
G1 X108.244 Y39.969 F696.000
G1 X107.513 Y40.306 F696.000
G1 X106.644 Y40.581 F696.000
G1 X105.844 Y40.712 F696.000
G1 X105.244 Y40.744 F696.000
G1 X104.444 Y40.669 F696.000
G1 X103.644 Y40.462 F696.000
G1 X102.688 Y40.056 F696.000
G1 X101.812 Y39.494 F696.000
G1 X101.494 Y39.219 F696.000
G1 X100.669 Y38.250 F696.000
G1 X100.119 Y37.244 F696.000
G1 X99.850 Y36.456 F696.000
G1 X99.713 Y35.756 F696.000
G1 X99.656 Y34.856 F696.000
G1 X99.737 Y34.056 F696.000
G1 X99.963 Y33.156 F696.000
G1 X100.325 Y32.312 F696.000
G1 X100.325 Y32.312 F696.000
G1 X100.344 Y32.288 F696.000
G1 X100.350 Y32.281 F696.000
G1 X100.362 Y32.250 F696.000
G1 X100.362 Y32.250 F696.000
G1 X100.700 Y31.738 F696.000
G1 X100.987 Y31.312 F696.000
G1 X101.319 Y30.944 F696.000
G1 X101.319 Y30.944 F696.000
G1 X101.531 Y30.800 F696.000
G1 X101.713 Y30.738 F696.000
G0 X101.769 Y30.706
G0 X101.994 Y30.556
G1 X102.050 Y30.512 F696.000
G1 X102.263 Y30.312 F696.000
G1 X102.450 Y30.044 F696.000
G1 X102.600 Y29.913 F696.000
G1 X102.600 Y29.913 F696.000
G1 X102.681 Y29.863 F696.000
G1 X103.519 Y29.494 F696.000
G1 X104.231 Y29.294 F696.000
G1 X105.075 Y29.188 F696.000
G1 X105.862 Y29.200 F696.000
G1 X106.650 Y29.325 F696.000
G1 X107.688 Y29.656 F696.000
G1 X108.550 Y30.100 F696.000
G1 X108.856 Y30.312 F696.000
G1 X109.812 Y31.212 F696.000
G1 X110.294 Y31.850 F696.000
G1 X110.675 Y32.538 F696.000
G1 X111.006 Y33.450 F696.000
G1 X111.144 Y34.069 F696.000
G1 X111.213 Y35.206 F696.000
G1 X111.156 Y35.856 F696.000
G1 X110.950 Y36.719 F696.000
G1 X110.850 Y37.013 F696.000
G1 X110.531 Y37.744 F696.000
G1 X110.094 Y38.438 F696.000
G1 X109.656 Y38.969 F696.000
G1 X109.506 Y39.125 F696.000
G1 X109.188 Y39.413 F696.000
G1 X108.287 Y40.056 F696.000
G1 X107.838 Y40.281 F696.000
G1 X107.100 Y40.556 F696.000
G1 X106.231 Y40.750 F696.000
G1 X105.206 Y40.806 F696.000
G1 X104.312 Y40.706 F696.000
G1 X103.856 Y40.594 F696.000
G1 X103.581 Y40.506 F696.000
G1 X102.631 Y40.100 F696.000
G1 X101.731 Y39.506 F696.000
G1 X101.375 Y39.181 F696.000
G1 X100.650 Y38.325 F696.000
G1 X100.550 Y38.175 F696.000
G1 X100.181 Y37.519 F696.000
G1 X100.050 Y37.237 F696.000
G1 X99.825 Y36.594 F696.000
G1 X99.656 Y35.837 F696.000
G1 X99.638 Y35.669 F696.000
G1 X99.600 Y34.781 F696.000
G1 X99.675 Y34.069 F696.000
G1 X99.856 Y33.300 F696.000
G1 X99.969 Y32.969 F696.000
G1 X100.263 Y32.312 F696.000
G1 X100.331 Y32.188 F696.000
G1 X100.881 Y31.350 F696.000
G1 X101.275 Y30.894 F696.000
G1 X101.700 Y30.519 F696.000
G1 X102.600 Y29.906 F696.000
G1 X102.600 Y29.913 F696.000
G0 Z25.500
(helix to depth: 15.500000)
G0 X107.668 Y34.309 Z25.500
G0 X107.668 Y34.309 Z23.500
G1 X107.668 Y34.309 Z16.500 F60.000
G1 X107.668 Y34.309 Z16.500 F60.000
G1 X107.759 Y34.763 Z16.459 F60.000
G1 X107.760 Y35.227 Z16.418 F60.000
G1 X107.671 Y35.682 Z16.378 F60.000
G1 X107.494 Y36.110 Z16.337 F60.000
G1 X107.238 Y36.497 Z16.296 F60.000
G1 X106.910 Y36.825 Z16.255 F60.000
G1 X106.525 Y37.083 Z16.214 F60.000
G1 X106.098 Y37.262 Z16.174 F60.000
G1 X105.643 Y37.353 Z16.133 F60.000
G1 X105.179 Y37.354 Z16.092 F60.000
G1 X104.724 Y37.265 Z16.051 F60.000
G1 X104.296 Y37.088 Z16.010 F60.000
G1 X103.910 Y36.831 Z15.970 F60.000
G1 X103.581 Y36.504 Z15.929 F60.000
G1 X103.323 Y36.119 Z15.888 F60.000
G1 X103.145 Y35.691 Z15.847 F60.000
G1 X103.053 Y35.237 Z15.806 F60.000
G1 X103.052 Y34.773 Z15.766 F60.000
G1 X103.142 Y34.318 Z15.725 F60.000
G1 X103.318 Y33.890 Z15.684 F60.000
G1 X103.575 Y33.503 Z15.643 F60.000
G1 X103.902 Y33.175 Z15.602 F60.000
G1 X104.287 Y32.917 Z15.562 F60.000
G1 X104.715 Y32.738 Z15.521 F60.000
G1 X105.170 Y32.647 Z15.500 F696.000
G1 X105.633 Y32.646 Z15.500 F696.000
G1 X106.088 Y32.735 Z15.500 F696.000
G1 X106.517 Y32.912 Z15.500 F696.000
G1 X106.903 Y33.169 Z15.500 F696.000
G1 X107.231 Y33.496 Z15.500 F696.000
G1 X107.490 Y33.881 Z15.500 F696.000
G1 X107.668 Y34.309 Z15.500 F696.000
G1 X107.759 Y34.763 Z15.500 F696.000
G1 X107.760 Y35.227 Z15.500 F696.000
G1 X107.671 Y35.682 Z15.500 F696.000
G1 X107.494 Y36.110 Z15.500 F696.000
G1 X107.238 Y36.497 Z15.500 F696.000
G1 X106.910 Y36.825 Z15.500 F696.000
G1 X106.525 Y37.083 Z15.500 F696.000
G1 X106.098 Y37.262 Z15.500 F696.000
G1 X105.643 Y37.353 Z15.500 F696.000
G1 X105.179 Y37.354 Z15.500 F696.000
G1 X104.724 Y37.265 Z15.500 F696.000
G1 X104.296 Y37.088 Z15.500 F696.000
G1 X103.910 Y36.831 Z15.500 F696.000
G1 X103.581 Y36.504 Z15.500 F696.000
G1 X103.323 Y36.119 Z15.500 F696.000
G1 X103.145 Y35.691 Z15.500 F696.000
G1 X103.053 Y35.237 Z15.500 F696.000
G1 X103.052 Y34.773 Z15.500 F696.000
G1 X103.142 Y34.318 Z15.500 F696.000
G1 X103.318 Y33.890 Z15.500 F696.000
G1 X103.575 Y33.503 Z15.500 F696.000
G1 X103.902 Y33.175 Z15.500 F696.000
G1 X104.287 Y32.917 Z15.500 F696.000
G1 X104.715 Y32.738 Z15.500 F696.000
(Adaptive - depth: 15.500000)
G1 X105.406 Y32.625 F696.000
G1 X105.475 Y32.550 F696.000
G1 X105.650 Y32.462 F696.000
G1 X105.931 Y32.388 F696.000
G1 X106.213 Y32.375 F696.000
G1 X106.912 Y32.562 F696.000
G1 X107.225 Y32.737 F696.000
G1 X107.406 Y32.875 F696.000
G1 X107.594 Y33.044 F696.000
G1 X107.856 Y33.350 F696.000
G1 X108.081 Y33.706 F696.000
G1 X108.231 Y34.062 F696.000
G1 X108.319 Y34.369 F696.000
G1 X108.375 Y34.737 F696.000
G1 X108.388 Y35.125 F696.000
G1 X108.350 Y35.531 F696.000
G1 X108.263 Y35.913 F696.000
G1 X108.106 Y36.281 F696.000
G1 X107.950 Y36.562 F696.000
G1 X107.737 Y36.862 F696.000
G1 X107.456 Y37.163 F696.000
G1 X107.138 Y37.431 F696.000
G1 X106.794 Y37.638 F696.000
G1 X106.469 Y37.788 F696.000
G1 X106.094 Y37.906 F696.000
G1 X105.713 Y37.969 F696.000
G1 X105.338 Y37.987 F696.000
G1 X104.956 Y37.956 F696.000
G1 X104.581 Y37.875 F696.000
G1 X104.219 Y37.744 F696.000
G1 X103.875 Y37.569 F696.000
G1 X103.556 Y37.350 F696.000
G1 X103.269 Y37.094 F696.000
G1 X103.019 Y36.800 F696.000
G1 X102.806 Y36.475 F696.000
G1 X102.638 Y36.125 F696.000
G1 X102.506 Y35.763 F696.000
G1 X102.412 Y35.337 F696.000
G1 X102.394 Y34.944 F696.000
G1 X102.412 Y34.600 F696.000
G1 X102.487 Y34.219 F696.000
G1 X102.606 Y33.862 F696.000
G1 X102.775 Y33.500 F696.000
G1 X102.987 Y33.175 F696.000
G1 X103.237 Y32.875 F696.000
G1 X103.525 Y32.612 F696.000
G1 X103.838 Y32.381 F696.000
G1 X104.200 Y32.156 F696.000
G1 X104.656 Y31.931 F696.000
G1 X105.169 Y31.750 F696.000
G1 X105.650 Y31.681 F696.000
G1 X105.969 Y31.669 F696.000
G1 X106.319 Y31.700 F696.000
G1 X106.681 Y31.775 F696.000
G1 X107.081 Y31.906 F696.000
G1 X107.450 Y32.100 F696.000
G1 X107.750 Y32.300 F696.000
G1 X108.050 Y32.562 F696.000
G1 X108.312 Y32.850 F696.000
G1 X108.556 Y33.194 F696.000
G1 X108.744 Y33.550 F696.000
G1 X108.888 Y33.925 F696.000
G1 X108.994 Y34.319 F696.000
G1 X109.056 Y34.763 F696.000
G1 X109.069 Y35.181 F696.000
G1 X109.031 Y35.600 F696.000
G1 X108.944 Y36.019 F696.000
G1 X108.794 Y36.413 F696.000
G1 X108.631 Y36.737 F696.000
G1 X108.419 Y37.081 F696.000
G1 X108.131 Y37.444 F696.000
G1 X107.787 Y37.788 F696.000
G1 X107.431 Y38.062 F696.000
G1 X107.088 Y38.256 F696.000
G1 X106.744 Y38.406 F696.000
G1 X106.356 Y38.538 F696.000
G1 X105.869 Y38.638 F696.000
G1 X105.400 Y38.663 F696.000
G1 X105.006 Y38.650 F696.000
G1 X104.556 Y38.581 F696.000
G1 X104.138 Y38.462 F696.000
G1 X103.744 Y38.288 F696.000
G1 X103.419 Y38.100 F696.000
G1 X103.081 Y37.862 F696.000
G1 X102.737 Y37.538 F696.000
G1 X102.463 Y37.225 F696.000
G1 X102.219 Y36.869 F696.000
G1 X102.013 Y36.475 F696.000
G1 X101.856 Y36.075 F696.000
G1 X101.744 Y35.656 F696.000
G1 X101.681 Y35.225 F696.000
G1 X101.669 Y34.800 F696.000
G1 X101.706 Y34.369 F696.000
G1 X101.794 Y33.944 F696.000
G1 X101.931 Y33.531 F696.000
G1 X102.112 Y33.138 F696.000
G1 X102.338 Y32.769 F696.000
G1 X102.606 Y32.431 F696.000
G1 X102.900 Y32.119 F696.000
G1 X103.256 Y31.806 F696.000
G1 X103.681 Y31.519 F696.000
G1 X104.088 Y31.294 F696.000
G1 X104.537 Y31.106 F696.000
G1 X105.006 Y30.988 F696.000
G1 X105.394 Y30.925 F696.000
G1 X105.838 Y30.906 F696.000
G1 X106.275 Y30.931 F696.000
G1 X106.756 Y31.012 F696.000
G1 X107.194 Y31.156 F696.000
G1 X107.544 Y31.306 F696.000
G1 X107.925 Y31.525 F696.000
G1 X108.275 Y31.775 F696.000
G1 X108.631 Y32.100 F696.000
G1 X108.925 Y32.438 F696.000
G1 X109.188 Y32.806 F696.000
G1 X109.406 Y33.206 F696.000
G1 X109.581 Y33.625 F696.000
G1 X109.713 Y34.056 F696.000
G1 X109.794 Y34.500 F696.000
G1 X109.825 Y34.950 F696.000
G1 X109.806 Y35.400 F696.000
G1 X109.737 Y35.850 F696.000
G1 X109.619 Y36.288 F696.000
G1 X109.456 Y36.712 F696.000
G1 X109.256 Y37.119 F696.000
G1 X108.981 Y37.550 F696.000
G1 X108.688 Y37.919 F696.000
G1 X108.350 Y38.263 F696.000
G1 X107.975 Y38.575 F696.000
G1 X107.569 Y38.831 F696.000
G1 X107.200 Y39.019 F696.000
G1 X106.769 Y39.175 F696.000
G1 X106.331 Y39.294 F696.000
G1 X105.825 Y39.375 F696.000
G1 X105.350 Y39.400 F696.000
G1 X104.875 Y39.381 F696.000
G1 X104.388 Y39.306 F696.000
G1 X103.925 Y39.169 F696.000
G1 X103.544 Y39.019 F696.000
G1 X103.138 Y38.800 F696.000
G1 X102.763 Y38.556 F696.000
G1 X102.331 Y38.200 F696.000
G1 X101.987 Y37.856 F696.000
G1 X101.688 Y37.462 F696.000
G1 X101.469 Y37.112 F696.000
G1 X101.269 Y36.694 F696.000
G1 X101.106 Y36.269 F696.000
G1 X100.975 Y35.750 F696.000
G1 X100.906 Y35.275 F696.000
G1 X100.881 Y34.794 F696.000
G1 X100.925 Y34.300 F696.000
G1 X101.000 Y33.888 F696.000
G1 X101.131 Y33.444 F696.000
G1 X101.294 Y33.019 F696.000
G1 X101.544 Y32.544 F696.000
G1 X101.806 Y32.138 F696.000
G1 X102.112 Y31.756 F696.000
G1 X102.469 Y31.394 F696.000
G1 X102.850 Y31.081 F696.000
G1 X103.256 Y30.806 F696.000
G1 X103.688 Y30.575 F696.000
G1 X104.144 Y30.387 F696.000
G1 X104.612 Y30.244 F696.000
G1 X105.094 Y30.150 F696.000
G1 X105.581 Y30.106 F696.000
G1 X106.069 Y30.100 F696.000
G1 X106.900 Y30.206 F696.000
G1 X107.812 Y30.512 F696.000
G1 X108.562 Y30.950 F696.000
G1 X109.281 Y31.575 F696.000
G1 X109.812 Y32.256 F696.000
G1 X110.244 Y33.112 F696.000
G1 X110.519 Y34.138 F696.000
G1 X110.575 Y35.075 F696.000
G1 X110.456 Y36.013 F696.000
G1 X110.056 Y37.119 F696.000
G1 X109.544 Y37.962 F696.000
G1 X109.019 Y38.569 F696.000
G1 X108.237 Y39.200 F696.000
G1 X107.431 Y39.631 F696.000
G1 X106.769 Y39.875 F696.000
G1 X105.769 Y40.062 F696.000
G1 X104.669 Y40.062 F696.000
G1 X103.869 Y39.919 F696.000
G1 X102.906 Y39.538 F696.000
G1 X101.950 Y38.900 F696.000
G1 X101.500 Y38.469 F696.000
G1 X101.037 Y37.900 F696.000
G1 X100.612 Y37.188 F696.000
G1 X100.244 Y36.212 F696.000
G1 X100.050 Y35.212 F696.000
G1 X100.050 Y34.212 F696.000
G1 X100.219 Y33.312 F696.000
G1 X100.487 Y32.550 F696.000
G1 X100.806 Y31.919 F696.000
G1 X101.400 Y31.100 F696.000
G1 X101.894 Y30.594 F696.000
G1 X102.688 Y29.994 F696.000
G1 X103.475 Y29.587 F696.000
G1 X104.225 Y29.363 F696.000
G1 X105.162 Y29.250 F696.000
G1 X105.912 Y29.262 F696.000
G1 X106.756 Y29.413 F696.000
G1 X107.688 Y29.725 F696.000
G1 X108.537 Y30.169 F696.000
G1 X108.850 Y30.387 F696.000
G1 X109.806 Y31.294 F696.000
G1 X110.306 Y31.988 F696.000
G1 X110.656 Y32.663 F696.000
G1 X110.994 Y33.644 F696.000
G1 X111.088 Y34.112 F696.000
G1 X111.150 Y35.237 F696.000
G1 X111.088 Y35.894 F696.000
G1 X110.819 Y36.925 F696.000
G1 X110.400 Y37.806 F696.000
G1 X109.906 Y38.538 F696.000
G1 X109.513 Y38.987 F696.000
G1 X108.900 Y39.519 F696.000
G1 X108.244 Y39.969 F696.000
G1 X107.513 Y40.306 F696.000
G1 X106.644 Y40.581 F696.000
G1 X105.844 Y40.712 F696.000
G1 X105.244 Y40.744 F696.000
G1 X104.444 Y40.669 F696.000
G1 X103.644 Y40.462 F696.000
G1 X102.688 Y40.056 F696.000
G1 X101.812 Y39.494 F696.000
G1 X101.494 Y39.219 F696.000
G1 X100.669 Y38.250 F696.000
G1 X100.119 Y37.244 F696.000
G1 X99.850 Y36.456 F696.000
G1 X99.713 Y35.756 F696.000
G1 X99.656 Y34.856 F696.000
G1 X99.737 Y34.056 F696.000
G1 X99.963 Y33.156 F696.000
G1 X100.325 Y32.312 F696.000
G1 X100.325 Y32.312 F696.000
G1 X100.344 Y32.288 F696.000
G1 X100.350 Y32.281 F696.000
G1 X100.362 Y32.250 F696.000
G1 X100.362 Y32.250 F696.000
G1 X100.700 Y31.738 F696.000
G1 X100.987 Y31.312 F696.000
G1 X101.319 Y30.944 F696.000
G1 X101.319 Y30.944 F696.000
G1 X101.531 Y30.800 F696.000
G1 X101.713 Y30.738 F696.000
G0 X101.769 Y30.706
G0 X101.994 Y30.556
G1 X102.050 Y30.512 F696.000
G1 X102.263 Y30.312 F696.000
G1 X102.450 Y30.044 F696.000
G1 X102.600 Y29.913 F696.000
G1 X102.600 Y29.913 F696.000
G1 X102.681 Y29.863 F696.000
G1 X103.519 Y29.494 F696.000
G1 X104.231 Y29.294 F696.000
G1 X105.075 Y29.188 F696.000
G1 X105.862 Y29.200 F696.000
G1 X106.650 Y29.325 F696.000
G1 X107.688 Y29.656 F696.000
G1 X108.550 Y30.100 F696.000
G1 X108.856 Y30.312 F696.000
G1 X109.812 Y31.212 F696.000
G1 X110.294 Y31.850 F696.000
G1 X110.675 Y32.538 F696.000
G1 X111.006 Y33.450 F696.000
G1 X111.144 Y34.069 F696.000
G1 X111.213 Y35.206 F696.000
G1 X111.156 Y35.856 F696.000
G1 X110.950 Y36.719 F696.000
G1 X110.850 Y37.013 F696.000
G1 X110.531 Y37.744 F696.000
G1 X110.094 Y38.438 F696.000
G1 X109.656 Y38.969 F696.000
G1 X109.506 Y39.125 F696.000
G1 X109.188 Y39.413 F696.000
G1 X108.287 Y40.056 F696.000
G1 X107.838 Y40.281 F696.000
G1 X107.100 Y40.556 F696.000
G1 X106.231 Y40.750 F696.000
G1 X105.206 Y40.806 F696.000
G1 X104.312 Y40.706 F696.000
G1 X103.856 Y40.594 F696.000
G1 X103.581 Y40.506 F696.000
G1 X102.631 Y40.100 F696.000
G1 X101.731 Y39.506 F696.000
G1 X101.375 Y39.181 F696.000
G1 X100.650 Y38.325 F696.000
G1 X100.550 Y38.175 F696.000
G1 X100.181 Y37.519 F696.000
G1 X100.050 Y37.237 F696.000
G1 X99.825 Y36.594 F696.000
G1 X99.656 Y35.837 F696.000
G1 X99.638 Y35.669 F696.000
G1 X99.600 Y34.781 F696.000
G1 X99.675 Y34.069 F696.000
G1 X99.856 Y33.300 F696.000
G1 X99.969 Y32.969 F696.000
G1 X100.263 Y32.312 F696.000
G1 X100.331 Y32.188 F696.000
G1 X100.881 Y31.350 F696.000
G1 X101.275 Y30.894 F696.000
G1 X101.700 Y30.519 F696.000
G1 X102.600 Y29.906 F696.000
G1 X102.600 Y29.913 F696.000
G0 Z25.500
(helix to depth: 14.500000)
G0 X107.668 Y34.309 Z25.500
G0 X107.668 Y34.309 Z23.500
G1 X107.668 Y34.309 Z15.500 F60.000
G1 X107.668 Y34.309 Z15.500 F60.000
G1 X107.759 Y34.763 Z15.459 F60.000
G1 X107.760 Y35.227 Z15.418 F60.000
G1 X107.671 Y35.682 Z15.378 F60.000
G1 X107.494 Y36.110 Z15.337 F60.000
G1 X107.238 Y36.497 Z15.296 F60.000
G1 X106.910 Y36.825 Z15.255 F60.000
G1 X106.525 Y37.083 Z15.214 F60.000
G1 X106.098 Y37.262 Z15.174 F60.000
G1 X105.643 Y37.353 Z15.133 F60.000
G1 X105.179 Y37.354 Z15.092 F60.000
G1 X104.724 Y37.265 Z15.051 F60.000
G1 X104.296 Y37.088 Z15.010 F60.000
G1 X103.910 Y36.831 Z14.970 F60.000
G1 X103.581 Y36.504 Z14.929 F60.000
G1 X103.323 Y36.119 Z14.888 F60.000
G1 X103.145 Y35.691 Z14.847 F60.000
G1 X103.053 Y35.237 Z14.806 F60.000
G1 X103.052 Y34.773 Z14.766 F60.000
G1 X103.142 Y34.318 Z14.725 F60.000
G1 X103.318 Y33.890 Z14.684 F60.000
G1 X103.575 Y33.503 Z14.643 F60.000
G1 X103.902 Y33.175 Z14.602 F60.000
G1 X104.287 Y32.917 Z14.562 F60.000
G1 X104.715 Y32.738 Z14.521 F60.000
G1 X105.170 Y32.647 Z14.500 F696.000
G1 X105.633 Y32.646 Z14.500 F696.000
G1 X106.088 Y32.735 Z14.500 F696.000
G1 X106.517 Y32.912 Z14.500 F696.000
G1 X106.903 Y33.169 Z14.500 F696.000
G1 X107.231 Y33.496 Z14.500 F696.000
G1 X107.490 Y33.881 Z14.500 F696.000
G1 X107.668 Y34.309 Z14.500 F696.000
G1 X107.759 Y34.763 Z14.500 F696.000
G1 X107.760 Y35.227 Z14.500 F696.000
G1 X107.671 Y35.682 Z14.500 F696.000
G1 X107.494 Y36.110 Z14.500 F696.000
G1 X107.238 Y36.497 Z14.500 F696.000
G1 X106.910 Y36.825 Z14.500 F696.000
G1 X106.525 Y37.083 Z14.500 F696.000
G1 X106.098 Y37.262 Z14.500 F696.000
G1 X105.643 Y37.353 Z14.500 F696.000
G1 X105.179 Y37.354 Z14.500 F696.000
G1 X104.724 Y37.265 Z14.500 F696.000
G1 X104.296 Y37.088 Z14.500 F696.000
G1 X103.910 Y36.831 Z14.500 F696.000
G1 X103.581 Y36.504 Z14.500 F696.000
G1 X103.323 Y36.119 Z14.500 F696.000
G1 X103.145 Y35.691 Z14.500 F696.000
G1 X103.053 Y35.237 Z14.500 F696.000
G1 X103.052 Y34.773 Z14.500 F696.000
G1 X103.142 Y34.318 Z14.500 F696.000
G1 X103.318 Y33.890 Z14.500 F696.000
G1 X103.575 Y33.503 Z14.500 F696.000
G1 X103.902 Y33.175 Z14.500 F696.000
G1 X104.287 Y32.917 Z14.500 F696.000
G1 X104.715 Y32.738 Z14.500 F696.000
(Adaptive - depth: 14.500000)
G1 X105.406 Y32.625 F696.000
G1 X105.475 Y32.550 F696.000
G1 X105.650 Y32.462 F696.000
G1 X105.931 Y32.388 F696.000
G1 X106.213 Y32.375 F696.000
G1 X106.912 Y32.562 F696.000
G1 X107.225 Y32.737 F696.000
G1 X107.406 Y32.875 F696.000
G1 X107.594 Y33.044 F696.000
G1 X107.856 Y33.350 F696.000
G1 X108.081 Y33.706 F696.000
G1 X108.231 Y34.062 F696.000
G1 X108.319 Y34.369 F696.000
G1 X108.375 Y34.737 F696.000
G1 X108.388 Y35.125 F696.000
G1 X108.350 Y35.531 F696.000
G1 X108.263 Y35.913 F696.000
G1 X108.106 Y36.281 F696.000
G1 X107.950 Y36.562 F696.000
G1 X107.737 Y36.862 F696.000
G1 X107.456 Y37.163 F696.000
G1 X107.138 Y37.431 F696.000
G1 X106.794 Y37.638 F696.000
G1 X106.469 Y37.788 F696.000
G1 X106.094 Y37.906 F696.000
G1 X105.713 Y37.969 F696.000
G1 X105.338 Y37.987 F696.000
G1 X104.956 Y37.956 F696.000
G1 X104.581 Y37.875 F696.000
G1 X104.219 Y37.744 F696.000
G1 X103.875 Y37.569 F696.000
G1 X103.556 Y37.350 F696.000
G1 X103.269 Y37.094 F696.000
G1 X103.019 Y36.800 F696.000
G1 X102.806 Y36.475 F696.000
G1 X102.638 Y36.125 F696.000
G1 X102.506 Y35.763 F696.000
G1 X102.412 Y35.337 F696.000
G1 X102.394 Y34.944 F696.000
G1 X102.412 Y34.600 F696.000
G1 X102.487 Y34.219 F696.000
G1 X102.606 Y33.862 F696.000
G1 X102.775 Y33.500 F696.000
G1 X102.987 Y33.175 F696.000
G1 X103.237 Y32.875 F696.000
G1 X103.525 Y32.612 F696.000
G1 X103.838 Y32.381 F696.000
G1 X104.200 Y32.156 F696.000
G1 X104.656 Y31.931 F696.000
G1 X105.169 Y31.750 F696.000
G1 X105.650 Y31.681 F696.000
G1 X105.969 Y31.669 F696.000
G1 X106.319 Y31.700 F696.000
G1 X106.681 Y31.775 F696.000
G1 X107.081 Y31.906 F696.000
G1 X107.450 Y32.100 F696.000
G1 X107.750 Y32.300 F696.000
G1 X108.050 Y32.562 F696.000
G1 X108.312 Y32.850 F696.000
G1 X108.556 Y33.194 F696.000
G1 X108.744 Y33.550 F696.000
G1 X108.888 Y33.925 F696.000
G1 X108.994 Y34.319 F696.000
G1 X109.056 Y34.763 F696.000
G1 X109.069 Y35.181 F696.000
G1 X109.031 Y35.600 F696.000
G1 X108.944 Y36.019 F696.000
G1 X108.794 Y36.413 F696.000
G1 X108.631 Y36.737 F696.000
G1 X108.419 Y37.081 F696.000
G1 X108.131 Y37.444 F696.000
G1 X107.787 Y37.788 F696.000
G1 X107.431 Y38.062 F696.000
G1 X107.088 Y38.256 F696.000
G1 X106.744 Y38.406 F696.000
G1 X106.356 Y38.538 F696.000
G1 X105.869 Y38.638 F696.000
G1 X105.400 Y38.663 F696.000
G1 X105.006 Y38.650 F696.000
G1 X104.556 Y38.581 F696.000
G1 X104.138 Y38.462 F696.000
G1 X103.744 Y38.288 F696.000
G1 X103.419 Y38.100 F696.000
G1 X103.081 Y37.862 F696.000
G1 X102.737 Y37.538 F696.000
G1 X102.463 Y37.225 F696.000
G1 X102.219 Y36.869 F696.000
G1 X102.013 Y36.475 F696.000
G1 X101.856 Y36.075 F696.000
G1 X101.744 Y35.656 F696.000
G1 X101.681 Y35.225 F696.000
G1 X101.669 Y34.800 F696.000
G1 X101.706 Y34.369 F696.000
G1 X101.794 Y33.944 F696.000
G1 X101.931 Y33.531 F696.000
G1 X102.112 Y33.138 F696.000
G1 X102.338 Y32.769 F696.000
G1 X102.606 Y32.431 F696.000
G1 X102.900 Y32.119 F696.000
G1 X103.256 Y31.806 F696.000
G1 X103.681 Y31.519 F696.000
G1 X104.088 Y31.294 F696.000
G1 X104.537 Y31.106 F696.000
G1 X105.006 Y30.988 F696.000
G1 X105.394 Y30.925 F696.000
G1 X105.838 Y30.906 F696.000
G1 X106.275 Y30.931 F696.000
G1 X106.756 Y31.012 F696.000
G1 X107.194 Y31.156 F696.000
G1 X107.544 Y31.306 F696.000
G1 X107.925 Y31.525 F696.000
G1 X108.275 Y31.775 F696.000
G1 X108.631 Y32.100 F696.000
G1 X108.925 Y32.438 F696.000
G1 X109.188 Y32.806 F696.000
G1 X109.406 Y33.206 F696.000
G1 X109.581 Y33.625 F696.000
G1 X109.713 Y34.056 F696.000
G1 X109.794 Y34.500 F696.000
G1 X109.825 Y34.950 F696.000
G1 X109.806 Y35.400 F696.000
G1 X109.737 Y35.850 F696.000
G1 X109.619 Y36.288 F696.000
G1 X109.456 Y36.712 F696.000
G1 X109.256 Y37.119 F696.000
G1 X108.981 Y37.550 F696.000
G1 X108.688 Y37.919 F696.000
G1 X108.350 Y38.263 F696.000
G1 X107.975 Y38.575 F696.000
G1 X107.569 Y38.831 F696.000
G1 X107.200 Y39.019 F696.000
G1 X106.769 Y39.175 F696.000
G1 X106.331 Y39.294 F696.000
G1 X105.825 Y39.375 F696.000
G1 X105.350 Y39.400 F696.000
G1 X104.875 Y39.381 F696.000
G1 X104.388 Y39.306 F696.000
G1 X103.925 Y39.169 F696.000
G1 X103.544 Y39.019 F696.000
G1 X103.138 Y38.800 F696.000
G1 X102.763 Y38.556 F696.000
G1 X102.331 Y38.200 F696.000
G1 X101.987 Y37.856 F696.000
G1 X101.688 Y37.462 F696.000
G1 X101.469 Y37.112 F696.000
G1 X101.269 Y36.694 F696.000
G1 X101.106 Y36.269 F696.000
G1 X100.975 Y35.750 F696.000
G1 X100.906 Y35.275 F696.000
G1 X100.881 Y34.794 F696.000
G1 X100.925 Y34.300 F696.000
G1 X101.000 Y33.888 F696.000
G1 X101.131 Y33.444 F696.000
G1 X101.294 Y33.019 F696.000
G1 X101.544 Y32.544 F696.000
G1 X101.806 Y32.138 F696.000
G1 X102.112 Y31.756 F696.000
G1 X102.469 Y31.394 F696.000
G1 X102.850 Y31.081 F696.000
G1 X103.256 Y30.806 F696.000
G1 X103.688 Y30.575 F696.000
G1 X104.144 Y30.387 F696.000
G1 X104.612 Y30.244 F696.000
G1 X105.094 Y30.150 F696.000
G1 X105.581 Y30.106 F696.000
G1 X106.069 Y30.100 F696.000
G1 X106.900 Y30.206 F696.000
G1 X107.812 Y30.512 F696.000
G1 X108.562 Y30.950 F696.000
G1 X109.281 Y31.575 F696.000
G1 X109.812 Y32.256 F696.000
G1 X110.244 Y33.112 F696.000
G1 X110.519 Y34.138 F696.000
G1 X110.575 Y35.075 F696.000
G1 X110.456 Y36.013 F696.000
G1 X110.056 Y37.119 F696.000
G1 X109.544 Y37.962 F696.000
G1 X109.019 Y38.569 F696.000
G1 X108.237 Y39.200 F696.000
G1 X107.431 Y39.631 F696.000
G1 X106.769 Y39.875 F696.000
G1 X105.769 Y40.062 F696.000
G1 X104.669 Y40.062 F696.000
G1 X103.869 Y39.919 F696.000
G1 X102.906 Y39.538 F696.000
G1 X101.950 Y38.900 F696.000
G1 X101.500 Y38.469 F696.000
G1 X101.037 Y37.900 F696.000
G1 X100.612 Y37.188 F696.000
G1 X100.244 Y36.212 F696.000
G1 X100.050 Y35.212 F696.000
G1 X100.050 Y34.212 F696.000
G1 X100.219 Y33.312 F696.000
G1 X100.487 Y32.550 F696.000
G1 X100.806 Y31.919 F696.000
G1 X101.400 Y31.100 F696.000
G1 X101.894 Y30.594 F696.000
G1 X102.688 Y29.994 F696.000
G1 X103.475 Y29.587 F696.000
G1 X104.225 Y29.363 F696.000
G1 X105.162 Y29.250 F696.000
G1 X105.912 Y29.262 F696.000
G1 X106.756 Y29.413 F696.000
G1 X107.688 Y29.725 F696.000
G1 X108.537 Y30.169 F696.000
G1 X108.850 Y30.387 F696.000
G1 X109.806 Y31.294 F696.000
G1 X110.306 Y31.988 F696.000
G1 X110.656 Y32.663 F696.000
G1 X110.994 Y33.644 F696.000
G1 X111.088 Y34.112 F696.000
G1 X111.150 Y35.237 F696.000
G1 X111.088 Y35.894 F696.000
G1 X110.819 Y36.925 F696.000
G1 X110.400 Y37.806 F696.000
G1 X109.906 Y38.538 F696.000
G1 X109.513 Y38.987 F696.000
G1 X108.900 Y39.519 F696.000
G1 X108.244 Y39.969 F696.000
G1 X107.513 Y40.306 F696.000
G1 X106.644 Y40.581 F696.000
G1 X105.844 Y40.712 F696.000
G1 X105.244 Y40.744 F696.000
G1 X104.444 Y40.669 F696.000
G1 X103.644 Y40.462 F696.000
G1 X102.688 Y40.056 F696.000
G1 X101.812 Y39.494 F696.000
G1 X101.494 Y39.219 F696.000
G1 X100.669 Y38.250 F696.000
G1 X100.119 Y37.244 F696.000
G1 X99.850 Y36.456 F696.000
G1 X99.713 Y35.756 F696.000
G1 X99.656 Y34.856 F696.000
G1 X99.737 Y34.056 F696.000
G1 X99.963 Y33.156 F696.000
G1 X100.325 Y32.312 F696.000
G1 X100.325 Y32.312 F696.000
G1 X100.344 Y32.288 F696.000
G1 X100.350 Y32.281 F696.000
G1 X100.362 Y32.250 F696.000
G1 X100.362 Y32.250 F696.000
G1 X100.700 Y31.738 F696.000
G1 X100.987 Y31.312 F696.000
G1 X101.319 Y30.944 F696.000
G1 X101.319 Y30.944 F696.000
G1 X101.531 Y30.800 F696.000
G1 X101.713 Y30.738 F696.000
G0 X101.769 Y30.706
G0 X101.994 Y30.556
G1 X102.050 Y30.512 F696.000
G1 X102.263 Y30.312 F696.000
G1 X102.450 Y30.044 F696.000
G1 X102.600 Y29.913 F696.000
G1 X102.600 Y29.913 F696.000
G1 X102.681 Y29.863 F696.000
G1 X103.519 Y29.494 F696.000
G1 X104.231 Y29.294 F696.000
G1 X105.075 Y29.188 F696.000
G1 X105.862 Y29.200 F696.000
G1 X106.650 Y29.325 F696.000
G1 X107.688 Y29.656 F696.000
G1 X108.550 Y30.100 F696.000
G1 X108.856 Y30.312 F696.000
G1 X109.812 Y31.212 F696.000
G1 X110.294 Y31.850 F696.000
G1 X110.675 Y32.538 F696.000
G1 X111.006 Y33.450 F696.000
G1 X111.144 Y34.069 F696.000
G1 X111.213 Y35.206 F696.000
G1 X111.156 Y35.856 F696.000
G1 X110.950 Y36.719 F696.000
G1 X110.850 Y37.013 F696.000
G1 X110.531 Y37.744 F696.000
G1 X110.094 Y38.438 F696.000
G1 X109.656 Y38.969 F696.000
G1 X109.506 Y39.125 F696.000
G1 X109.188 Y39.413 F696.000
G1 X108.287 Y40.056 F696.000
G1 X107.838 Y40.281 F696.000
G1 X107.100 Y40.556 F696.000
G1 X106.231 Y40.750 F696.000
G1 X105.206 Y40.806 F696.000
G1 X104.312 Y40.706 F696.000
G1 X103.856 Y40.594 F696.000
G1 X103.581 Y40.506 F696.000
G1 X102.631 Y40.100 F696.000
G1 X101.731 Y39.506 F696.000
G1 X101.375 Y39.181 F696.000
G1 X100.650 Y38.325 F696.000
G1 X100.550 Y38.175 F696.000
G1 X100.181 Y37.519 F696.000
G1 X100.050 Y37.237 F696.000
G1 X99.825 Y36.594 F696.000
G1 X99.656 Y35.837 F696.000
G1 X99.638 Y35.669 F696.000
G1 X99.600 Y34.781 F696.000
G1 X99.675 Y34.069 F696.000
G1 X99.856 Y33.300 F696.000
G1 X99.969 Y32.969 F696.000
G1 X100.263 Y32.312 F696.000
G1 X100.331 Y32.188 F696.000
G1 X100.881 Y31.350 F696.000
G1 X101.275 Y30.894 F696.000
G1 X101.700 Y30.519 F696.000
G1 X102.600 Y29.906 F696.000
G1 X102.600 Y29.913 F696.000
G0 Z25.500
(helix to depth: 13.500000)
G0 X107.668 Y34.309 Z25.500
G0 X107.668 Y34.309 Z23.500
G1 X107.668 Y34.309 Z14.500 F60.000
G1 X107.668 Y34.309 Z14.500 F60.000
G1 X107.759 Y34.763 Z14.459 F60.000
G1 X107.760 Y35.227 Z14.418 F60.000
G1 X107.671 Y35.682 Z14.378 F60.000
G1 X107.494 Y36.110 Z14.337 F60.000
G1 X107.238 Y36.497 Z14.296 F60.000
G1 X106.910 Y36.825 Z14.255 F60.000
G1 X106.525 Y37.083 Z14.214 F60.000
G1 X106.098 Y37.262 Z14.174 F60.000
G1 X105.643 Y37.353 Z14.133 F60.000
G1 X105.179 Y37.354 Z14.092 F60.000
G1 X104.724 Y37.265 Z14.051 F60.000
G1 X104.296 Y37.088 Z14.010 F60.000
G1 X103.910 Y36.831 Z13.970 F60.000
G1 X103.581 Y36.504 Z13.929 F60.000
G1 X103.323 Y36.119 Z13.888 F60.000
G1 X103.145 Y35.691 Z13.847 F60.000
G1 X103.053 Y35.237 Z13.806 F60.000
G1 X103.052 Y34.773 Z13.766 F60.000
G1 X103.142 Y34.318 Z13.725 F60.000
G1 X103.318 Y33.890 Z13.684 F60.000
G1 X103.575 Y33.503 Z13.643 F60.000
G1 X103.902 Y33.175 Z13.602 F60.000
G1 X104.287 Y32.917 Z13.562 F60.000
G1 X104.715 Y32.738 Z13.521 F60.000
G1 X105.170 Y32.647 Z13.500 F696.000
G1 X105.633 Y32.646 Z13.500 F696.000
G1 X106.088 Y32.735 Z13.500 F696.000
G1 X106.517 Y32.912 Z13.500 F696.000
G1 X106.903 Y33.169 Z13.500 F696.000
G1 X107.231 Y33.496 Z13.500 F696.000
G1 X107.490 Y33.881 Z13.500 F696.000
G1 X107.668 Y34.309 Z13.500 F696.000
G1 X107.759 Y34.763 Z13.500 F696.000
G1 X107.760 Y35.227 Z13.500 F696.000
G1 X107.671 Y35.682 Z13.500 F696.000
G1 X107.494 Y36.110 Z13.500 F696.000
G1 X107.238 Y36.497 Z13.500 F696.000
G1 X106.910 Y36.825 Z13.500 F696.000
G1 X106.525 Y37.083 Z13.500 F696.000
G1 X106.098 Y37.262 Z13.500 F696.000
G1 X105.643 Y37.353 Z13.500 F696.000
G1 X105.179 Y37.354 Z13.500 F696.000
G1 X104.724 Y37.265 Z13.500 F696.000
G1 X104.296 Y37.088 Z13.500 F696.000
G1 X103.910 Y36.831 Z13.500 F696.000
G1 X103.581 Y36.504 Z13.500 F696.000
G1 X103.323 Y36.119 Z13.500 F696.000
G1 X103.145 Y35.691 Z13.500 F696.000
G1 X103.053 Y35.237 Z13.500 F696.000
G1 X103.052 Y34.773 Z13.500 F696.000
G1 X103.142 Y34.318 Z13.500 F696.000
G1 X103.318 Y33.890 Z13.500 F696.000
G1 X103.575 Y33.503 Z13.500 F696.000
G1 X103.902 Y33.175 Z13.500 F696.000
G1 X104.287 Y32.917 Z13.500 F696.000
G1 X104.715 Y32.738 Z13.500 F696.000
(Adaptive - depth: 13.500000)
G1 X105.406 Y32.625 F696.000
G1 X105.475 Y32.550 F696.000
G1 X105.650 Y32.462 F696.000
G1 X105.931 Y32.388 F696.000
G1 X106.213 Y32.375 F696.000
G1 X106.912 Y32.562 F696.000
G1 X107.225 Y32.737 F696.000
G1 X107.406 Y32.875 F696.000
G1 X107.594 Y33.044 F696.000
G1 X107.856 Y33.350 F696.000
G1 X108.081 Y33.706 F696.000
G1 X108.231 Y34.062 F696.000
G1 X108.319 Y34.369 F696.000
G1 X108.375 Y34.737 F696.000
G1 X108.388 Y35.125 F696.000
G1 X108.350 Y35.531 F696.000
G1 X108.263 Y35.913 F696.000
G1 X108.106 Y36.281 F696.000
G1 X107.950 Y36.562 F696.000
G1 X107.737 Y36.862 F696.000
G1 X107.456 Y37.163 F696.000
G1 X107.138 Y37.431 F696.000
G1 X106.794 Y37.638 F696.000
G1 X106.469 Y37.788 F696.000
G1 X106.094 Y37.906 F696.000
G1 X105.713 Y37.969 F696.000
G1 X105.338 Y37.987 F696.000
G1 X104.956 Y37.956 F696.000
G1 X104.581 Y37.875 F696.000
G1 X104.219 Y37.744 F696.000
G1 X103.875 Y37.569 F696.000
G1 X103.556 Y37.350 F696.000
G1 X103.269 Y37.094 F696.000
G1 X103.019 Y36.800 F696.000
G1 X102.806 Y36.475 F696.000
G1 X102.638 Y36.125 F696.000
G1 X102.506 Y35.763 F696.000
G1 X102.412 Y35.337 F696.000
G1 X102.394 Y34.944 F696.000
G1 X102.412 Y34.600 F696.000
G1 X102.487 Y34.219 F696.000
G1 X102.606 Y33.862 F696.000
G1 X102.775 Y33.500 F696.000
G1 X102.987 Y33.175 F696.000
G1 X103.237 Y32.875 F696.000
G1 X103.525 Y32.612 F696.000
G1 X103.838 Y32.381 F696.000
G1 X104.200 Y32.156 F696.000
G1 X104.656 Y31.931 F696.000
G1 X105.169 Y31.750 F696.000
G1 X105.650 Y31.681 F696.000
G1 X105.969 Y31.669 F696.000
G1 X106.319 Y31.700 F696.000
G1 X106.681 Y31.775 F696.000
G1 X107.081 Y31.906 F696.000
G1 X107.450 Y32.100 F696.000
G1 X107.750 Y32.300 F696.000
G1 X108.050 Y32.562 F696.000
G1 X108.312 Y32.850 F696.000
G1 X108.556 Y33.194 F696.000
G1 X108.744 Y33.550 F696.000
G1 X108.888 Y33.925 F696.000
G1 X108.994 Y34.319 F696.000
G1 X109.056 Y34.763 F696.000
G1 X109.069 Y35.181 F696.000
G1 X109.031 Y35.600 F696.000
G1 X108.944 Y36.019 F696.000
G1 X108.794 Y36.413 F696.000
G1 X108.631 Y36.737 F696.000
G1 X108.419 Y37.081 F696.000
G1 X108.131 Y37.444 F696.000
G1 X107.787 Y37.788 F696.000
G1 X107.431 Y38.062 F696.000
G1 X107.088 Y38.256 F696.000
G1 X106.744 Y38.406 F696.000
G1 X106.356 Y38.538 F696.000
G1 X105.869 Y38.638 F696.000
G1 X105.400 Y38.663 F696.000
G1 X105.006 Y38.650 F696.000
G1 X104.556 Y38.581 F696.000
G1 X104.138 Y38.462 F696.000
G1 X103.744 Y38.288 F696.000
G1 X103.419 Y38.100 F696.000
G1 X103.081 Y37.862 F696.000
G1 X102.737 Y37.538 F696.000
G1 X102.463 Y37.225 F696.000
G1 X102.219 Y36.869 F696.000
G1 X102.013 Y36.475 F696.000
G1 X101.856 Y36.075 F696.000
G1 X101.744 Y35.656 F696.000
G1 X101.681 Y35.225 F696.000
G1 X101.669 Y34.800 F696.000
G1 X101.706 Y34.369 F696.000
G1 X101.794 Y33.944 F696.000
G1 X101.931 Y33.531 F696.000
G1 X102.112 Y33.138 F696.000
G1 X102.338 Y32.769 F696.000
G1 X102.606 Y32.431 F696.000
G1 X102.900 Y32.119 F696.000
G1 X103.256 Y31.806 F696.000
G1 X103.681 Y31.519 F696.000
G1 X104.088 Y31.294 F696.000
G1 X104.537 Y31.106 F696.000
G1 X105.006 Y30.988 F696.000
G1 X105.394 Y30.925 F696.000
G1 X105.838 Y30.906 F696.000
G1 X106.275 Y30.931 F696.000
G1 X106.756 Y31.012 F696.000
G1 X107.194 Y31.156 F696.000
G1 X107.544 Y31.306 F696.000
G1 X107.925 Y31.525 F696.000
G1 X108.275 Y31.775 F696.000
G1 X108.631 Y32.100 F696.000
G1 X108.925 Y32.438 F696.000
G1 X109.188 Y32.806 F696.000
G1 X109.406 Y33.206 F696.000
G1 X109.581 Y33.625 F696.000
G1 X109.713 Y34.056 F696.000
G1 X109.794 Y34.500 F696.000
G1 X109.825 Y34.950 F696.000
G1 X109.806 Y35.400 F696.000
G1 X109.737 Y35.850 F696.000
G1 X109.619 Y36.288 F696.000
G1 X109.456 Y36.712 F696.000
G1 X109.256 Y37.119 F696.000
G1 X108.981 Y37.550 F696.000
G1 X108.688 Y37.919 F696.000
G1 X108.350 Y38.263 F696.000
G1 X107.975 Y38.575 F696.000
G1 X107.569 Y38.831 F696.000
G1 X107.200 Y39.019 F696.000
G1 X106.769 Y39.175 F696.000
G1 X106.331 Y39.294 F696.000
G1 X105.825 Y39.375 F696.000
G1 X105.350 Y39.400 F696.000
G1 X104.875 Y39.381 F696.000
G1 X104.388 Y39.306 F696.000
G1 X103.925 Y39.169 F696.000
G1 X103.544 Y39.019 F696.000
G1 X103.138 Y38.800 F696.000
G1 X102.763 Y38.556 F696.000
G1 X102.331 Y38.200 F696.000
G1 X101.987 Y37.856 F696.000
G1 X101.688 Y37.462 F696.000
G1 X101.469 Y37.112 F696.000
G1 X101.269 Y36.694 F696.000
G1 X101.106 Y36.269 F696.000
G1 X100.975 Y35.750 F696.000
G1 X100.906 Y35.275 F696.000
G1 X100.881 Y34.794 F696.000
G1 X100.925 Y34.300 F696.000
G1 X101.000 Y33.888 F696.000
G1 X101.131 Y33.444 F696.000
G1 X101.294 Y33.019 F696.000
G1 X101.544 Y32.544 F696.000
G1 X101.806 Y32.138 F696.000
G1 X102.112 Y31.756 F696.000
G1 X102.469 Y31.394 F696.000
G1 X102.850 Y31.081 F696.000
G1 X103.256 Y30.806 F696.000
G1 X103.688 Y30.575 F696.000
G1 X104.144 Y30.387 F696.000
G1 X104.612 Y30.244 F696.000
G1 X105.094 Y30.150 F696.000
G1 X105.581 Y30.106 F696.000
G1 X106.069 Y30.100 F696.000
G1 X106.900 Y30.206 F696.000
G1 X107.812 Y30.512 F696.000
G1 X108.562 Y30.950 F696.000
G1 X109.281 Y31.575 F696.000
G1 X109.812 Y32.256 F696.000
G1 X110.244 Y33.112 F696.000
G1 X110.519 Y34.138 F696.000
G1 X110.575 Y35.075 F696.000
G1 X110.456 Y36.013 F696.000
G1 X110.056 Y37.119 F696.000
G1 X109.544 Y37.962 F696.000
G1 X109.019 Y38.569 F696.000
G1 X108.237 Y39.200 F696.000
G1 X107.431 Y39.631 F696.000
G1 X106.769 Y39.875 F696.000
G1 X105.769 Y40.062 F696.000
G1 X104.669 Y40.062 F696.000
G1 X103.869 Y39.919 F696.000
G1 X102.906 Y39.538 F696.000
G1 X101.950 Y38.900 F696.000
G1 X101.500 Y38.469 F696.000
G1 X101.037 Y37.900 F696.000
G1 X100.612 Y37.188 F696.000
G1 X100.244 Y36.212 F696.000
G1 X100.050 Y35.212 F696.000
G1 X100.050 Y34.212 F696.000
G1 X100.219 Y33.312 F696.000
G1 X100.487 Y32.550 F696.000
G1 X100.806 Y31.919 F696.000
G1 X101.400 Y31.100 F696.000
G1 X101.894 Y30.594 F696.000
G1 X102.688 Y29.994 F696.000
G1 X103.475 Y29.587 F696.000
G1 X104.225 Y29.363 F696.000
G1 X105.162 Y29.250 F696.000
G1 X105.912 Y29.262 F696.000
G1 X106.756 Y29.413 F696.000
G1 X107.688 Y29.725 F696.000
G1 X108.537 Y30.169 F696.000
G1 X108.850 Y30.387 F696.000
G1 X109.806 Y31.294 F696.000
G1 X110.306 Y31.988 F696.000
G1 X110.656 Y32.663 F696.000
G1 X110.994 Y33.644 F696.000
G1 X111.088 Y34.112 F696.000
G1 X111.150 Y35.237 F696.000
G1 X111.088 Y35.894 F696.000
G1 X110.819 Y36.925 F696.000
G1 X110.400 Y37.806 F696.000
G1 X109.906 Y38.538 F696.000
G1 X109.513 Y38.987 F696.000
G1 X108.900 Y39.519 F696.000
G1 X108.244 Y39.969 F696.000
G1 X107.513 Y40.306 F696.000
G1 X106.644 Y40.581 F696.000
G1 X105.844 Y40.712 F696.000
G1 X105.244 Y40.744 F696.000
G1 X104.444 Y40.669 F696.000
G1 X103.644 Y40.462 F696.000
G1 X102.688 Y40.056 F696.000
G1 X101.812 Y39.494 F696.000
G1 X101.494 Y39.219 F696.000
G1 X100.669 Y38.250 F696.000
G1 X100.119 Y37.244 F696.000
G1 X99.850 Y36.456 F696.000
G1 X99.713 Y35.756 F696.000
G1 X99.656 Y34.856 F696.000
G1 X99.737 Y34.056 F696.000
G1 X99.963 Y33.156 F696.000
G1 X100.325 Y32.312 F696.000
G1 X100.325 Y32.312 F696.000
G1 X100.344 Y32.288 F696.000
G1 X100.350 Y32.281 F696.000
G1 X100.362 Y32.250 F696.000
G1 X100.362 Y32.250 F696.000
G1 X100.700 Y31.738 F696.000
G1 X100.987 Y31.312 F696.000
G1 X101.319 Y30.944 F696.000
G1 X101.319 Y30.944 F696.000
G1 X101.531 Y30.800 F696.000
G1 X101.713 Y30.738 F696.000
G0 X101.769 Y30.706
G0 X101.994 Y30.556
G1 X102.050 Y30.512 F696.000
G1 X102.263 Y30.312 F696.000
G1 X102.450 Y30.044 F696.000
G1 X102.600 Y29.913 F696.000
G1 X102.600 Y29.913 F696.000
G1 X102.681 Y29.863 F696.000
G1 X103.519 Y29.494 F696.000
G1 X104.231 Y29.294 F696.000
G1 X105.075 Y29.188 F696.000
G1 X105.862 Y29.200 F696.000
G1 X106.650 Y29.325 F696.000
G1 X107.688 Y29.656 F696.000
G1 X108.550 Y30.100 F696.000
G1 X108.856 Y30.312 F696.000
G1 X109.812 Y31.212 F696.000
G1 X110.294 Y31.850 F696.000
G1 X110.675 Y32.538 F696.000
G1 X111.006 Y33.450 F696.000
G1 X111.144 Y34.069 F696.000
G1 X111.213 Y35.206 F696.000
G1 X111.156 Y35.856 F696.000
G1 X110.950 Y36.719 F696.000
G1 X110.850 Y37.013 F696.000
G1 X110.531 Y37.744 F696.000
G1 X110.094 Y38.438 F696.000
G1 X109.656 Y38.969 F696.000
G1 X109.506 Y39.125 F696.000
G1 X109.188 Y39.413 F696.000
G1 X108.287 Y40.056 F696.000
G1 X107.838 Y40.281 F696.000
G1 X107.100 Y40.556 F696.000
G1 X106.231 Y40.750 F696.000
G1 X105.206 Y40.806 F696.000
G1 X104.312 Y40.706 F696.000
G1 X103.856 Y40.594 F696.000
G1 X103.581 Y40.506 F696.000
G1 X102.631 Y40.100 F696.000
G1 X101.731 Y39.506 F696.000
G1 X101.375 Y39.181 F696.000
G1 X100.650 Y38.325 F696.000
G1 X100.550 Y38.175 F696.000
G1 X100.181 Y37.519 F696.000
G1 X100.050 Y37.237 F696.000
G1 X99.825 Y36.594 F696.000
G1 X99.656 Y35.837 F696.000
G1 X99.638 Y35.669 F696.000
G1 X99.600 Y34.781 F696.000
G1 X99.675 Y34.069 F696.000
G1 X99.856 Y33.300 F696.000
G1 X99.969 Y32.969 F696.000
G1 X100.263 Y32.312 F696.000
G1 X100.331 Y32.188 F696.000
G1 X100.881 Y31.350 F696.000
G1 X101.275 Y30.894 F696.000
G1 X101.700 Y30.519 F696.000
G1 X102.600 Y29.906 F696.000
G1 X102.600 Y29.913 F696.000
G0 Z25.500
(helix to depth: 12.500000)
G0 X107.668 Y34.309 Z25.500
G0 X107.668 Y34.309 Z23.500
G1 X107.668 Y34.309 Z13.500 F60.000
G1 X107.668 Y34.309 Z13.500 F60.000
G1 X107.759 Y34.763 Z13.459 F60.000
G1 X107.760 Y35.227 Z13.418 F60.000
G1 X107.671 Y35.682 Z13.378 F60.000
G1 X107.494 Y36.110 Z13.337 F60.000
G1 X107.238 Y36.497 Z13.296 F60.000
G1 X106.910 Y36.825 Z13.255 F60.000
G1 X106.525 Y37.083 Z13.214 F60.000
G1 X106.098 Y37.262 Z13.174 F60.000
G1 X105.643 Y37.353 Z13.133 F60.000
G1 X105.179 Y37.354 Z13.092 F60.000
G1 X104.724 Y37.265 Z13.051 F60.000
G1 X104.296 Y37.088 Z13.010 F60.000
G1 X103.910 Y36.831 Z12.970 F60.000
G1 X103.581 Y36.504 Z12.929 F60.000
G1 X103.323 Y36.119 Z12.888 F60.000
G1 X103.145 Y35.691 Z12.847 F60.000
G1 X103.053 Y35.237 Z12.806 F60.000
G1 X103.052 Y34.773 Z12.766 F60.000
G1 X103.142 Y34.318 Z12.725 F60.000
G1 X103.318 Y33.890 Z12.684 F60.000
G1 X103.575 Y33.503 Z12.643 F60.000
G1 X103.902 Y33.175 Z12.602 F60.000
G1 X104.287 Y32.917 Z12.562 F60.000
G1 X104.715 Y32.738 Z12.521 F60.000
G1 X105.170 Y32.647 Z12.500 F696.000
G1 X105.633 Y32.646 Z12.500 F696.000
G1 X106.088 Y32.735 Z12.500 F696.000
G1 X106.517 Y32.912 Z12.500 F696.000
G1 X106.903 Y33.169 Z12.500 F696.000
G1 X107.231 Y33.496 Z12.500 F696.000
G1 X107.490 Y33.881 Z12.500 F696.000
G1 X107.668 Y34.309 Z12.500 F696.000
G1 X107.759 Y34.763 Z12.500 F696.000
G1 X107.760 Y35.227 Z12.500 F696.000
G1 X107.671 Y35.682 Z12.500 F696.000
G1 X107.494 Y36.110 Z12.500 F696.000
G1 X107.238 Y36.497 Z12.500 F696.000
G1 X106.910 Y36.825 Z12.500 F696.000
G1 X106.525 Y37.083 Z12.500 F696.000
G1 X106.098 Y37.262 Z12.500 F696.000
G1 X105.643 Y37.353 Z12.500 F696.000
G1 X105.179 Y37.354 Z12.500 F696.000
G1 X104.724 Y37.265 Z12.500 F696.000
G1 X104.296 Y37.088 Z12.500 F696.000
G1 X103.910 Y36.831 Z12.500 F696.000
G1 X103.581 Y36.504 Z12.500 F696.000
G1 X103.323 Y36.119 Z12.500 F696.000
G1 X103.145 Y35.691 Z12.500 F696.000
G1 X103.053 Y35.237 Z12.500 F696.000
G1 X103.052 Y34.773 Z12.500 F696.000
G1 X103.142 Y34.318 Z12.500 F696.000
G1 X103.318 Y33.890 Z12.500 F696.000
G1 X103.575 Y33.503 Z12.500 F696.000
G1 X103.902 Y33.175 Z12.500 F696.000
G1 X104.287 Y32.917 Z12.500 F696.000
G1 X104.715 Y32.738 Z12.500 F696.000
(Adaptive - depth: 12.500000)
G1 X105.406 Y32.625 F696.000
G1 X105.475 Y32.550 F696.000
G1 X105.650 Y32.462 F696.000
G1 X105.931 Y32.388 F696.000
G1 X106.213 Y32.375 F696.000
G1 X106.912 Y32.562 F696.000
G1 X107.225 Y32.737 F696.000
G1 X107.406 Y32.875 F696.000
G1 X107.594 Y33.044 F696.000
G1 X107.856 Y33.350 F696.000
G1 X108.081 Y33.706 F696.000
G1 X108.231 Y34.062 F696.000
G1 X108.319 Y34.369 F696.000
G1 X108.375 Y34.737 F696.000
G1 X108.388 Y35.125 F696.000
G1 X108.350 Y35.531 F696.000
G1 X108.263 Y35.913 F696.000
G1 X108.106 Y36.281 F696.000
G1 X107.950 Y36.562 F696.000
G1 X107.737 Y36.862 F696.000
G1 X107.456 Y37.163 F696.000
G1 X107.138 Y37.431 F696.000
G1 X106.794 Y37.638 F696.000
G1 X106.469 Y37.788 F696.000
G1 X106.094 Y37.906 F696.000
G1 X105.713 Y37.969 F696.000
G1 X105.338 Y37.987 F696.000
G1 X104.956 Y37.956 F696.000
G1 X104.581 Y37.875 F696.000
G1 X104.219 Y37.744 F696.000
G1 X103.875 Y37.569 F696.000
G1 X103.556 Y37.350 F696.000
G1 X103.269 Y37.094 F696.000
G1 X103.019 Y36.800 F696.000
G1 X102.806 Y36.475 F696.000
G1 X102.638 Y36.125 F696.000
G1 X102.506 Y35.763 F696.000
G1 X102.412 Y35.337 F696.000
G1 X102.394 Y34.944 F696.000
G1 X102.412 Y34.600 F696.000
G1 X102.487 Y34.219 F696.000
G1 X102.606 Y33.862 F696.000
G1 X102.775 Y33.500 F696.000
G1 X102.987 Y33.175 F696.000
G1 X103.237 Y32.875 F696.000
G1 X103.525 Y32.612 F696.000
G1 X103.838 Y32.381 F696.000
G1 X104.200 Y32.156 F696.000
G1 X104.656 Y31.931 F696.000
G1 X105.169 Y31.750 F696.000
G1 X105.650 Y31.681 F696.000
G1 X105.969 Y31.669 F696.000
G1 X106.319 Y31.700 F696.000
G1 X106.681 Y31.775 F696.000
G1 X107.081 Y31.906 F696.000
G1 X107.450 Y32.100 F696.000
G1 X107.750 Y32.300 F696.000
G1 X108.050 Y32.562 F696.000
G1 X108.312 Y32.850 F696.000
G1 X108.556 Y33.194 F696.000
G1 X108.744 Y33.550 F696.000
G1 X108.888 Y33.925 F696.000
G1 X108.994 Y34.319 F696.000
G1 X109.056 Y34.763 F696.000
G1 X109.069 Y35.181 F696.000
G1 X109.031 Y35.600 F696.000
G1 X108.944 Y36.019 F696.000
G1 X108.794 Y36.413 F696.000
G1 X108.631 Y36.737 F696.000
G1 X108.419 Y37.081 F696.000
G1 X108.131 Y37.444 F696.000
G1 X107.787 Y37.788 F696.000
G1 X107.431 Y38.062 F696.000
G1 X107.088 Y38.256 F696.000
G1 X106.744 Y38.406 F696.000
G1 X106.356 Y38.538 F696.000
G1 X105.869 Y38.638 F696.000
G1 X105.400 Y38.663 F696.000
G1 X105.006 Y38.650 F696.000
G1 X104.556 Y38.581 F696.000
G1 X104.138 Y38.462 F696.000
G1 X103.744 Y38.288 F696.000
G1 X103.419 Y38.100 F696.000
G1 X103.081 Y37.862 F696.000
G1 X102.737 Y37.538 F696.000
G1 X102.463 Y37.225 F696.000
G1 X102.219 Y36.869 F696.000
G1 X102.013 Y36.475 F696.000
G1 X101.856 Y36.075 F696.000
G1 X101.744 Y35.656 F696.000
G1 X101.681 Y35.225 F696.000
G1 X101.669 Y34.800 F696.000
G1 X101.706 Y34.369 F696.000
G1 X101.794 Y33.944 F696.000
G1 X101.931 Y33.531 F696.000
G1 X102.112 Y33.138 F696.000
G1 X102.338 Y32.769 F696.000
G1 X102.606 Y32.431 F696.000
G1 X102.900 Y32.119 F696.000
G1 X103.256 Y31.806 F696.000
G1 X103.681 Y31.519 F696.000
G1 X104.088 Y31.294 F696.000
G1 X104.537 Y31.106 F696.000
G1 X105.006 Y30.988 F696.000
G1 X105.394 Y30.925 F696.000
G1 X105.838 Y30.906 F696.000
G1 X106.275 Y30.931 F696.000
G1 X106.756 Y31.012 F696.000
G1 X107.194 Y31.156 F696.000
G1 X107.544 Y31.306 F696.000
G1 X107.925 Y31.525 F696.000
G1 X108.275 Y31.775 F696.000
G1 X108.631 Y32.100 F696.000
G1 X108.925 Y32.438 F696.000
G1 X109.188 Y32.806 F696.000
G1 X109.406 Y33.206 F696.000
G1 X109.581 Y33.625 F696.000
G1 X109.713 Y34.056 F696.000
G1 X109.794 Y34.500 F696.000
G1 X109.825 Y34.950 F696.000
G1 X109.806 Y35.400 F696.000
G1 X109.737 Y35.850 F696.000
G1 X109.619 Y36.288 F696.000
G1 X109.456 Y36.712 F696.000
G1 X109.256 Y37.119 F696.000
G1 X108.981 Y37.550 F696.000
G1 X108.688 Y37.919 F696.000
G1 X108.350 Y38.263 F696.000
G1 X107.975 Y38.575 F696.000
G1 X107.569 Y38.831 F696.000
G1 X107.200 Y39.019 F696.000
G1 X106.769 Y39.175 F696.000
G1 X106.331 Y39.294 F696.000
G1 X105.825 Y39.375 F696.000
G1 X105.350 Y39.400 F696.000
G1 X104.875 Y39.381 F696.000
G1 X104.388 Y39.306 F696.000
G1 X103.925 Y39.169 F696.000
G1 X103.544 Y39.019 F696.000
G1 X103.138 Y38.800 F696.000
G1 X102.763 Y38.556 F696.000
G1 X102.331 Y38.200 F696.000
G1 X101.987 Y37.856 F696.000
G1 X101.688 Y37.462 F696.000
G1 X101.469 Y37.112 F696.000
G1 X101.269 Y36.694 F696.000
G1 X101.106 Y36.269 F696.000
G1 X100.975 Y35.750 F696.000
G1 X100.906 Y35.275 F696.000
G1 X100.881 Y34.794 F696.000
G1 X100.925 Y34.300 F696.000
G1 X101.000 Y33.888 F696.000
G1 X101.131 Y33.444 F696.000
G1 X101.294 Y33.019 F696.000
G1 X101.544 Y32.544 F696.000
G1 X101.806 Y32.138 F696.000
G1 X102.112 Y31.756 F696.000
G1 X102.469 Y31.394 F696.000
G1 X102.850 Y31.081 F696.000
G1 X103.256 Y30.806 F696.000
G1 X103.688 Y30.575 F696.000
G1 X104.144 Y30.387 F696.000
G1 X104.612 Y30.244 F696.000
G1 X105.094 Y30.150 F696.000
G1 X105.581 Y30.106 F696.000
G1 X106.069 Y30.100 F696.000
G1 X106.900 Y30.206 F696.000
G1 X107.812 Y30.512 F696.000
G1 X108.562 Y30.950 F696.000
G1 X109.281 Y31.575 F696.000
G1 X109.812 Y32.256 F696.000
G1 X110.244 Y33.112 F696.000
G1 X110.519 Y34.138 F696.000
G1 X110.575 Y35.075 F696.000
G1 X110.456 Y36.013 F696.000
G1 X110.056 Y37.119 F696.000
G1 X109.544 Y37.962 F696.000
G1 X109.019 Y38.569 F696.000
G1 X108.237 Y39.200 F696.000
G1 X107.431 Y39.631 F696.000
G1 X106.769 Y39.875 F696.000
G1 X105.769 Y40.062 F696.000
G1 X104.669 Y40.062 F696.000
G1 X103.869 Y39.919 F696.000
G1 X102.906 Y39.538 F696.000
G1 X101.950 Y38.900 F696.000
G1 X101.500 Y38.469 F696.000
G1 X101.037 Y37.900 F696.000
G1 X100.612 Y37.188 F696.000
G1 X100.244 Y36.212 F696.000
G1 X100.050 Y35.212 F696.000
G1 X100.050 Y34.212 F696.000
G1 X100.219 Y33.312 F696.000
G1 X100.487 Y32.550 F696.000
G1 X100.806 Y31.919 F696.000
G1 X101.400 Y31.100 F696.000
G1 X101.894 Y30.594 F696.000
G1 X102.688 Y29.994 F696.000
G1 X103.475 Y29.587 F696.000
G1 X104.225 Y29.363 F696.000
G1 X105.162 Y29.250 F696.000
G1 X105.912 Y29.262 F696.000
G1 X106.756 Y29.413 F696.000
G1 X107.688 Y29.725 F696.000
G1 X108.537 Y30.169 F696.000
G1 X108.850 Y30.387 F696.000
G1 X109.806 Y31.294 F696.000
G1 X110.306 Y31.988 F696.000
G1 X110.656 Y32.663 F696.000
G1 X110.994 Y33.644 F696.000
G1 X111.088 Y34.112 F696.000
G1 X111.150 Y35.237 F696.000
G1 X111.088 Y35.894 F696.000
G1 X110.819 Y36.925 F696.000
G1 X110.400 Y37.806 F696.000
G1 X109.906 Y38.538 F696.000
G1 X109.513 Y38.987 F696.000
G1 X108.900 Y39.519 F696.000
G1 X108.244 Y39.969 F696.000
G1 X107.513 Y40.306 F696.000
G1 X106.644 Y40.581 F696.000
G1 X105.844 Y40.712 F696.000
G1 X105.244 Y40.744 F696.000
G1 X104.444 Y40.669 F696.000
G1 X103.644 Y40.462 F696.000
G1 X102.688 Y40.056 F696.000
G1 X101.812 Y39.494 F696.000
G1 X101.494 Y39.219 F696.000
G1 X100.669 Y38.250 F696.000
G1 X100.119 Y37.244 F696.000
G1 X99.850 Y36.456 F696.000
G1 X99.713 Y35.756 F696.000
G1 X99.656 Y34.856 F696.000
G1 X99.737 Y34.056 F696.000
G1 X99.963 Y33.156 F696.000
G1 X100.325 Y32.312 F696.000
G1 X100.325 Y32.312 F696.000
G1 X100.344 Y32.288 F696.000
G1 X100.350 Y32.281 F696.000
G1 X100.362 Y32.250 F696.000
G1 X100.362 Y32.250 F696.000
G1 X100.700 Y31.738 F696.000
G1 X100.987 Y31.312 F696.000
G1 X101.319 Y30.944 F696.000
G1 X101.319 Y30.944 F696.000
G1 X101.531 Y30.800 F696.000
G1 X101.713 Y30.738 F696.000
G0 X101.769 Y30.706
G0 X101.994 Y30.556
G1 X102.050 Y30.512 F696.000
G1 X102.263 Y30.312 F696.000
G1 X102.450 Y30.044 F696.000
G1 X102.600 Y29.913 F696.000
G1 X102.600 Y29.913 F696.000
G1 X102.681 Y29.863 F696.000
G1 X103.519 Y29.494 F696.000
G1 X104.231 Y29.294 F696.000
G1 X105.075 Y29.188 F696.000
G1 X105.862 Y29.200 F696.000
G1 X106.650 Y29.325 F696.000
G1 X107.688 Y29.656 F696.000
G1 X108.550 Y30.100 F696.000
G1 X108.856 Y30.312 F696.000
G1 X109.812 Y31.212 F696.000
G1 X110.294 Y31.850 F696.000
G1 X110.675 Y32.538 F696.000
G1 X111.006 Y33.450 F696.000
G1 X111.144 Y34.069 F696.000
G1 X111.213 Y35.206 F696.000
G1 X111.156 Y35.856 F696.000
G1 X110.950 Y36.719 F696.000
G1 X110.850 Y37.013 F696.000
G1 X110.531 Y37.744 F696.000
G1 X110.094 Y38.438 F696.000
G1 X109.656 Y38.969 F696.000
G1 X109.506 Y39.125 F696.000
G1 X109.188 Y39.413 F696.000
G1 X108.287 Y40.056 F696.000
G1 X107.838 Y40.281 F696.000
G1 X107.100 Y40.556 F696.000
G1 X106.231 Y40.750 F696.000
G1 X105.206 Y40.806 F696.000
G1 X104.312 Y40.706 F696.000
G1 X103.856 Y40.594 F696.000
G1 X103.581 Y40.506 F696.000
G1 X102.631 Y40.100 F696.000
G1 X101.731 Y39.506 F696.000
G1 X101.375 Y39.181 F696.000
G1 X100.650 Y38.325 F696.000
G1 X100.550 Y38.175 F696.000
G1 X100.181 Y37.519 F696.000
G1 X100.050 Y37.237 F696.000
G1 X99.825 Y36.594 F696.000
G1 X99.656 Y35.837 F696.000
G1 X99.638 Y35.669 F696.000
G1 X99.600 Y34.781 F696.000
G1 X99.675 Y34.069 F696.000
G1 X99.856 Y33.300 F696.000
G1 X99.969 Y32.969 F696.000
G1 X100.263 Y32.312 F696.000
G1 X100.331 Y32.188 F696.000
G1 X100.881 Y31.350 F696.000
G1 X101.275 Y30.894 F696.000
G1 X101.700 Y30.519 F696.000
G1 X102.600 Y29.906 F696.000
G1 X102.600 Y29.913 F696.000
G0 Z25.500
(helix to depth: 11.500000)
G0 X107.668 Y34.309 Z25.500
G0 X107.668 Y34.309 Z23.500
G1 X107.668 Y34.309 Z12.500 F60.000
G1 X107.668 Y34.309 Z12.500 F60.000
G1 X107.759 Y34.763 Z12.459 F60.000
G1 X107.760 Y35.227 Z12.418 F60.000
G1 X107.671 Y35.682 Z12.378 F60.000
G1 X107.494 Y36.110 Z12.337 F60.000
G1 X107.238 Y36.497 Z12.296 F60.000
G1 X106.910 Y36.825 Z12.255 F60.000
G1 X106.525 Y37.083 Z12.214 F60.000
G1 X106.098 Y37.262 Z12.174 F60.000
G1 X105.643 Y37.353 Z12.133 F60.000
G1 X105.179 Y37.354 Z12.092 F60.000
G1 X104.724 Y37.265 Z12.051 F60.000
G1 X104.296 Y37.088 Z12.010 F60.000
G1 X103.910 Y36.831 Z11.970 F60.000
G1 X103.581 Y36.504 Z11.929 F60.000
G1 X103.323 Y36.119 Z11.888 F60.000
G1 X103.145 Y35.691 Z11.847 F60.000
G1 X103.053 Y35.237 Z11.806 F60.000
G1 X103.052 Y34.773 Z11.766 F60.000
G1 X103.142 Y34.318 Z11.725 F60.000
G1 X103.318 Y33.890 Z11.684 F60.000
G1 X103.575 Y33.503 Z11.643 F60.000
G1 X103.902 Y33.175 Z11.602 F60.000
G1 X104.287 Y32.917 Z11.562 F60.000
G1 X104.715 Y32.738 Z11.521 F60.000
G1 X105.170 Y32.647 Z11.500 F696.000
G1 X105.633 Y32.646 Z11.500 F696.000
G1 X106.088 Y32.735 Z11.500 F696.000
G1 X106.517 Y32.912 Z11.500 F696.000
G1 X106.903 Y33.169 Z11.500 F696.000
G1 X107.231 Y33.496 Z11.500 F696.000
G1 X107.490 Y33.881 Z11.500 F696.000
G1 X107.668 Y34.309 Z11.500 F696.000
G1 X107.759 Y34.763 Z11.500 F696.000
G1 X107.760 Y35.227 Z11.500 F696.000
G1 X107.671 Y35.682 Z11.500 F696.000
G1 X107.494 Y36.110 Z11.500 F696.000
G1 X107.238 Y36.497 Z11.500 F696.000
G1 X106.910 Y36.825 Z11.500 F696.000
G1 X106.525 Y37.083 Z11.500 F696.000
G1 X106.098 Y37.262 Z11.500 F696.000
G1 X105.643 Y37.353 Z11.500 F696.000
G1 X105.179 Y37.354 Z11.500 F696.000
G1 X104.724 Y37.265 Z11.500 F696.000
G1 X104.296 Y37.088 Z11.500 F696.000
G1 X103.910 Y36.831 Z11.500 F696.000
G1 X103.581 Y36.504 Z11.500 F696.000
G1 X103.323 Y36.119 Z11.500 F696.000
G1 X103.145 Y35.691 Z11.500 F696.000
G1 X103.053 Y35.237 Z11.500 F696.000
G1 X103.052 Y34.773 Z11.500 F696.000
G1 X103.142 Y34.318 Z11.500 F696.000
G1 X103.318 Y33.890 Z11.500 F696.000
G1 X103.575 Y33.503 Z11.500 F696.000
G1 X103.902 Y33.175 Z11.500 F696.000
G1 X104.287 Y32.917 Z11.500 F696.000
G1 X104.715 Y32.738 Z11.500 F696.000
(Adaptive - depth: 11.500000)
G1 X105.406 Y32.625 F696.000
G1 X105.475 Y32.550 F696.000
G1 X105.650 Y32.462 F696.000
G1 X105.931 Y32.388 F696.000
G1 X106.213 Y32.375 F696.000
G1 X106.912 Y32.562 F696.000
G1 X107.225 Y32.737 F696.000
G1 X107.406 Y32.875 F696.000
G1 X107.594 Y33.044 F696.000
G1 X107.856 Y33.350 F696.000
G1 X108.081 Y33.706 F696.000
G1 X108.231 Y34.062 F696.000
G1 X108.319 Y34.369 F696.000
G1 X108.375 Y34.737 F696.000
G1 X108.388 Y35.125 F696.000
G1 X108.350 Y35.531 F696.000
G1 X108.263 Y35.913 F696.000
G1 X108.106 Y36.281 F696.000
G1 X107.950 Y36.562 F696.000
G1 X107.737 Y36.862 F696.000
G1 X107.456 Y37.163 F696.000
G1 X107.138 Y37.431 F696.000
G1 X106.794 Y37.638 F696.000
G1 X106.469 Y37.788 F696.000
G1 X106.094 Y37.906 F696.000
G1 X105.713 Y37.969 F696.000
G1 X105.338 Y37.987 F696.000
G1 X104.956 Y37.956 F696.000
G1 X104.581 Y37.875 F696.000
G1 X104.219 Y37.744 F696.000
G1 X103.875 Y37.569 F696.000
G1 X103.556 Y37.350 F696.000
G1 X103.269 Y37.094 F696.000
G1 X103.019 Y36.800 F696.000
G1 X102.806 Y36.475 F696.000
G1 X102.638 Y36.125 F696.000
G1 X102.506 Y35.763 F696.000
G1 X102.412 Y35.337 F696.000
G1 X102.394 Y34.944 F696.000
G1 X102.412 Y34.600 F696.000
G1 X102.487 Y34.219 F696.000
G1 X102.606 Y33.862 F696.000
G1 X102.775 Y33.500 F696.000
G1 X102.987 Y33.175 F696.000
G1 X103.237 Y32.875 F696.000
G1 X103.525 Y32.612 F696.000
G1 X103.838 Y32.381 F696.000
G1 X104.200 Y32.156 F696.000
G1 X104.656 Y31.931 F696.000
G1 X105.169 Y31.750 F696.000
G1 X105.650 Y31.681 F696.000
G1 X105.969 Y31.669 F696.000
G1 X106.319 Y31.700 F696.000
G1 X106.681 Y31.775 F696.000
G1 X107.081 Y31.906 F696.000
G1 X107.450 Y32.100 F696.000
G1 X107.750 Y32.300 F696.000
G1 X108.050 Y32.562 F696.000
G1 X108.312 Y32.850 F696.000
G1 X108.556 Y33.194 F696.000
G1 X108.744 Y33.550 F696.000
G1 X108.888 Y33.925 F696.000
G1 X108.994 Y34.319 F696.000
G1 X109.056 Y34.763 F696.000
G1 X109.069 Y35.181 F696.000
G1 X109.031 Y35.600 F696.000
G1 X108.944 Y36.019 F696.000
G1 X108.794 Y36.413 F696.000
G1 X108.631 Y36.737 F696.000
G1 X108.419 Y37.081 F696.000
G1 X108.131 Y37.444 F696.000
G1 X107.787 Y37.788 F696.000
G1 X107.431 Y38.062 F696.000
G1 X107.088 Y38.256 F696.000
G1 X106.744 Y38.406 F696.000
G1 X106.356 Y38.538 F696.000
G1 X105.869 Y38.638 F696.000
G1 X105.400 Y38.663 F696.000
G1 X105.006 Y38.650 F696.000
G1 X104.556 Y38.581 F696.000
G1 X104.138 Y38.462 F696.000
G1 X103.744 Y38.288 F696.000
G1 X103.419 Y38.100 F696.000
G1 X103.081 Y37.862 F696.000
G1 X102.737 Y37.538 F696.000
G1 X102.463 Y37.225 F696.000
G1 X102.219 Y36.869 F696.000
G1 X102.013 Y36.475 F696.000
G1 X101.856 Y36.075 F696.000
G1 X101.744 Y35.656 F696.000
G1 X101.681 Y35.225 F696.000
G1 X101.669 Y34.800 F696.000
G1 X101.706 Y34.369 F696.000
G1 X101.794 Y33.944 F696.000
G1 X101.931 Y33.531 F696.000
G1 X102.112 Y33.138 F696.000
G1 X102.338 Y32.769 F696.000
G1 X102.606 Y32.431 F696.000
G1 X102.900 Y32.119 F696.000
G1 X103.256 Y31.806 F696.000
G1 X103.681 Y31.519 F696.000
G1 X104.088 Y31.294 F696.000
G1 X104.537 Y31.106 F696.000
G1 X105.006 Y30.988 F696.000
G1 X105.394 Y30.925 F696.000
G1 X105.838 Y30.906 F696.000
G1 X106.275 Y30.931 F696.000
G1 X106.756 Y31.012 F696.000
G1 X107.194 Y31.156 F696.000
G1 X107.544 Y31.306 F696.000
G1 X107.925 Y31.525 F696.000
G1 X108.275 Y31.775 F696.000
G1 X108.631 Y32.100 F696.000
G1 X108.925 Y32.438 F696.000
G1 X109.188 Y32.806 F696.000
G1 X109.406 Y33.206 F696.000
G1 X109.581 Y33.625 F696.000
G1 X109.713 Y34.056 F696.000
G1 X109.794 Y34.500 F696.000
G1 X109.825 Y34.950 F696.000
G1 X109.806 Y35.400 F696.000
G1 X109.737 Y35.850 F696.000
G1 X109.619 Y36.288 F696.000
G1 X109.456 Y36.712 F696.000
G1 X109.256 Y37.119 F696.000
G1 X108.981 Y37.550 F696.000
G1 X108.688 Y37.919 F696.000
G1 X108.350 Y38.263 F696.000
G1 X107.975 Y38.575 F696.000
G1 X107.569 Y38.831 F696.000
G1 X107.200 Y39.019 F696.000
G1 X106.769 Y39.175 F696.000
G1 X106.331 Y39.294 F696.000
G1 X105.825 Y39.375 F696.000
G1 X105.350 Y39.400 F696.000
G1 X104.875 Y39.381 F696.000
G1 X104.388 Y39.306 F696.000
G1 X103.925 Y39.169 F696.000
G1 X103.544 Y39.019 F696.000
G1 X103.138 Y38.800 F696.000
G1 X102.763 Y38.556 F696.000
G1 X102.331 Y38.200 F696.000
G1 X101.987 Y37.856 F696.000
G1 X101.688 Y37.462 F696.000
G1 X101.469 Y37.112 F696.000
G1 X101.269 Y36.694 F696.000
G1 X101.106 Y36.269 F696.000
G1 X100.975 Y35.750 F696.000
G1 X100.906 Y35.275 F696.000
G1 X100.881 Y34.794 F696.000
G1 X100.925 Y34.300 F696.000
G1 X101.000 Y33.888 F696.000
G1 X101.131 Y33.444 F696.000
G1 X101.294 Y33.019 F696.000
G1 X101.544 Y32.544 F696.000
G1 X101.806 Y32.138 F696.000
G1 X102.112 Y31.756 F696.000
G1 X102.469 Y31.394 F696.000
G1 X102.850 Y31.081 F696.000
G1 X103.256 Y30.806 F696.000
G1 X103.688 Y30.575 F696.000
G1 X104.144 Y30.387 F696.000
G1 X104.612 Y30.244 F696.000
G1 X105.094 Y30.150 F696.000
G1 X105.581 Y30.106 F696.000
G1 X106.069 Y30.100 F696.000
G1 X106.900 Y30.206 F696.000
G1 X107.812 Y30.512 F696.000
G1 X108.562 Y30.950 F696.000
G1 X109.281 Y31.575 F696.000
G1 X109.812 Y32.256 F696.000
G1 X110.244 Y33.112 F696.000
G1 X110.519 Y34.138 F696.000
G1 X110.575 Y35.075 F696.000
G1 X110.456 Y36.013 F696.000
G1 X110.056 Y37.119 F696.000
G1 X109.544 Y37.962 F696.000
G1 X109.019 Y38.569 F696.000
G1 X108.237 Y39.200 F696.000
G1 X107.431 Y39.631 F696.000
G1 X106.769 Y39.875 F696.000
G1 X105.769 Y40.062 F696.000
G1 X104.669 Y40.062 F696.000
G1 X103.869 Y39.919 F696.000
G1 X102.906 Y39.538 F696.000
G1 X101.950 Y38.900 F696.000
G1 X101.500 Y38.469 F696.000
G1 X101.037 Y37.900 F696.000
G1 X100.612 Y37.188 F696.000
G1 X100.244 Y36.212 F696.000
G1 X100.050 Y35.212 F696.000
G1 X100.050 Y34.212 F696.000
G1 X100.219 Y33.312 F696.000
G1 X100.487 Y32.550 F696.000
G1 X100.806 Y31.919 F696.000
G1 X101.400 Y31.100 F696.000
G1 X101.894 Y30.594 F696.000
G1 X102.688 Y29.994 F696.000
G1 X103.475 Y29.587 F696.000
G1 X104.225 Y29.363 F696.000
G1 X105.162 Y29.250 F696.000
G1 X105.912 Y29.262 F696.000
G1 X106.756 Y29.413 F696.000
G1 X107.688 Y29.725 F696.000
G1 X108.537 Y30.169 F696.000
G1 X108.850 Y30.387 F696.000
G1 X109.806 Y31.294 F696.000
G1 X110.306 Y31.988 F696.000
G1 X110.656 Y32.663 F696.000
G1 X110.994 Y33.644 F696.000
G1 X111.088 Y34.112 F696.000
G1 X111.150 Y35.237 F696.000
G1 X111.088 Y35.894 F696.000
G1 X110.819 Y36.925 F696.000
G1 X110.400 Y37.806 F696.000
G1 X109.906 Y38.538 F696.000
G1 X109.513 Y38.987 F696.000
G1 X108.900 Y39.519 F696.000
G1 X108.244 Y39.969 F696.000
G1 X107.513 Y40.306 F696.000
G1 X106.644 Y40.581 F696.000
G1 X105.844 Y40.712 F696.000
G1 X105.244 Y40.744 F696.000
G1 X104.444 Y40.669 F696.000
G1 X103.644 Y40.462 F696.000
G1 X102.688 Y40.056 F696.000
G1 X101.812 Y39.494 F696.000
G1 X101.494 Y39.219 F696.000
G1 X100.669 Y38.250 F696.000
G1 X100.119 Y37.244 F696.000
G1 X99.850 Y36.456 F696.000
G1 X99.713 Y35.756 F696.000
G1 X99.656 Y34.856 F696.000
G1 X99.737 Y34.056 F696.000
G1 X99.963 Y33.156 F696.000
G1 X100.325 Y32.312 F696.000
G1 X100.325 Y32.312 F696.000
G1 X100.344 Y32.288 F696.000
G1 X100.350 Y32.281 F696.000
G1 X100.362 Y32.250 F696.000
G1 X100.362 Y32.250 F696.000
G1 X100.700 Y31.738 F696.000
G1 X100.987 Y31.312 F696.000
G1 X101.319 Y30.944 F696.000
G1 X101.319 Y30.944 F696.000
G1 X101.531 Y30.800 F696.000
G1 X101.713 Y30.738 F696.000
G0 X101.769 Y30.706
G0 X101.994 Y30.556
G1 X102.050 Y30.512 F696.000
G1 X102.263 Y30.312 F696.000
G1 X102.450 Y30.044 F696.000
G1 X102.600 Y29.913 F696.000
G1 X102.600 Y29.913 F696.000
G1 X102.681 Y29.863 F696.000
G1 X103.519 Y29.494 F696.000
G1 X104.231 Y29.294 F696.000
G1 X105.075 Y29.188 F696.000
G1 X105.862 Y29.200 F696.000
G1 X106.650 Y29.325 F696.000
G1 X107.688 Y29.656 F696.000
G1 X108.550 Y30.100 F696.000
G1 X108.856 Y30.312 F696.000
G1 X109.812 Y31.212 F696.000
G1 X110.294 Y31.850 F696.000
G1 X110.675 Y32.538 F696.000
G1 X111.006 Y33.450 F696.000
G1 X111.144 Y34.069 F696.000
G1 X111.213 Y35.206 F696.000
G1 X111.156 Y35.856 F696.000
G1 X110.950 Y36.719 F696.000
G1 X110.850 Y37.013 F696.000
G1 X110.531 Y37.744 F696.000
G1 X110.094 Y38.438 F696.000
G1 X109.656 Y38.969 F696.000
G1 X109.506 Y39.125 F696.000
G1 X109.188 Y39.413 F696.000
G1 X108.287 Y40.056 F696.000
G1 X107.838 Y40.281 F696.000
G1 X107.100 Y40.556 F696.000
G1 X106.231 Y40.750 F696.000
G1 X105.206 Y40.806 F696.000
G1 X104.312 Y40.706 F696.000
G1 X103.856 Y40.594 F696.000
G1 X103.581 Y40.506 F696.000
G1 X102.631 Y40.100 F696.000
G1 X101.731 Y39.506 F696.000
G1 X101.375 Y39.181 F696.000
G1 X100.650 Y38.325 F696.000
G1 X100.550 Y38.175 F696.000
G1 X100.181 Y37.519 F696.000
G1 X100.050 Y37.237 F696.000
G1 X99.825 Y36.594 F696.000
G1 X99.656 Y35.837 F696.000
G1 X99.638 Y35.669 F696.000
G1 X99.600 Y34.781 F696.000
G1 X99.675 Y34.069 F696.000
G1 X99.856 Y33.300 F696.000
G1 X99.969 Y32.969 F696.000
G1 X100.263 Y32.312 F696.000
G1 X100.331 Y32.188 F696.000
