; generated by Slic3r 1.2.9 on 2019-02-15 at 23:17:00

; external perimeters extrusion width = 0.30mm
; perimeters extrusion width = 0.40mm
; infill extrusion width = 0.40mm
; solid infill extrusion width = 0.40mm
; top infill extrusion width = 0.40mm

M107
M190 S65 ; set bed temperature
M104 S205 ; set temperature
G28 ; home all axes
G1 Z5 F5000 ; lift nozzle

M109 S205 ; wait for temperature to be reached
G21 ; set units to millimeters
G90 ; use absolute coordinates
M82 ; use absolute distances for extrusion
G92 E0
G1 Z0.300 F7800.000
G1 E-2.00000 F2400.00000
G92 E0
G1 X79.793 Y88.748 F7800.000
G1 E2.00000 F2400.00000
G1 X81.514 Y87.886 E2.12852 F1800.000
G1 X94.737 Y83.277 E3.06403
G1 X95.510 Y83.052 E3.11783
G1 X96.099 Y82.907 E3.15837
G1 X96.889 Y82.746 E3.21218
G1 X97.487 Y82.649 E3.25270
G1 X98.287 Y82.552 E3.30651
G1 X98.892 Y82.503 E3.34706
G1 X99.697 Y82.470 E3.40086
G1 X100.327 Y82.471 E3.44298
G1 X101.108 Y82.503 E3.49520 F1800.000
G1 X101.713 Y82.552 E3.53574
G1 X102.512 Y82.649 E3.58954
G1 X103.111 Y82.746 E3.63007
G1 X103.900 Y82.907 E3.68387
G1 X104.489 Y83.052 E3.72440
G1 X105.263 Y83.277 E3.77823
G1 X118.486 Y87.886 E4.71374
G1 X120.635 Y89.058 E4.87722
G1 X122.294 Y90.857 E5.04070
G1 X123.290 Y93.092 E5.20418
G1 X123.536 Y95.000 E5.33271
G1 X123.536 Y105.000 E6.00076
G1 X123.138 Y107.415 E6.16424
G1 X121.988 Y109.575 E6.32772
G1 X120.207 Y111.252 E6.49121
G1 X118.486 Y112.114 E6.61973
G1 X105.263 Y116.723 E7.55525
G1 X104.490 Y116.948 E7.60905
G1 X103.900 Y117.093 E7.64958
G1 X103.111 Y117.254 E7.70338
G1 X102.512 Y117.351 E7.74392
G1 X101.713 Y117.448 E7.79772
G1 X101.108 Y117.497 E7.83827
G1 X100.303 Y117.530 E7.89208
G1 X99.697 Y117.530 E7.93260
G1 X98.892 Y117.497 E7.98640
G1 X98.287 Y117.448 E8.02695
G1 X97.487 Y117.351 E8.08075
G1 X96.889 Y117.254 E8.12128
G1 X96.100 Y117.093 E8.17509
G1 X95.510 Y116.948 E8.21563
G1 X94.347 Y116.599 E8.29675
G1 X81.514 Y112.114 E9.20495
G1 X79.365 Y110.942 E9.36843
G1 X77.706 Y109.143 E9.53191
G1 X76.710 Y106.908 E9.69539
G1 X76.464 Y105.000 E9.82392
G1 X76.464 Y95.000 E10.49197
G1 X76.862 Y92.585 E10.65545
G1 X78.012 Y90.425 E10.81893
G1 X79.761 Y88.779 E10.97941
G1 X80.667 Y89.622 F7800.000
G1 X81.449 Y88.840 E11.05322 F1800.000
G1 X88.191 Y88.840 E11.50362
G1 X88.383 Y88.763 E11.51748
G1 X89.191 Y87.987 E11.59235
G1 X90.193 Y87.156 E11.67929
G1 X91.258 Y86.408 E11.76623
G1 X92.600 Y85.634 E11.86972
G1 X93.780 Y85.085 E11.95667
G1 X94.765 Y84.711 E12.02705
G1 X96.012 Y84.340 E12.11398
G1 X97.285 Y84.070 E12.20093
G1 X98.823 Y83.883 E12.30443
G1 X99.876 Y83.840 E12.37480
G1 X100.272 Y83.846 E12.40125
G1 X101.424 Y83.903 E12.47832 F1800.000
G1 X102.470 Y84.030 E12.54869
G1 X103.747 Y84.280 E12.63562
G1 X105.235 Y84.711 E12.73912
G1 X106.448 Y85.182 E12.82606
G1 X107.620 Y85.749 E12.91302
G1 X108.742 Y86.408 E12.99997
G1 X109.807 Y87.156 E13.08690
G1 X110.809 Y87.987 E13.17384
G1 X111.617 Y88.763 E13.24870
G1 X111.809 Y88.840 E13.26256
G1 X118.551 Y88.840 E13.71297
G1 X122.160 Y92.449 E14.05386
G1 X122.160 Y107.551 E15.06281
G1 X118.551 Y111.160 E15.40371
G1 X111.809 Y111.160 E15.85411
G1 X111.617 Y111.237 E15.86797
G1 X110.809 Y112.013 E15.94284
G1 X109.807 Y112.844 E16.02977
G1 X108.742 Y113.592 E16.11672
G1 X107.620 Y114.251 E16.20365
G1 X106.448 Y114.818 E16.29060
G1 X105.000 Y115.367 E16.39410
G1 X103.747 Y115.720 E16.48104
G1 X102.715 Y115.930 E16.55141
G1 X101.424 Y116.097 E16.63835
G1 X100.124 Y116.160 E16.72531
G1 X98.823 Y116.117 E16.81224
G1 X97.285 Y115.930 E16.91573
G1 X96.253 Y115.720 E16.98612
G1 X95.143 Y115.409 E17.06315
G1 X94.765 Y115.289 E17.08965
G1 X93.780 Y114.915 E17.16000
G1 X92.600 Y114.366 E17.24695
G1 X91.258 Y113.592 E17.35044
G1 X90.193 Y112.844 E17.43739
G1 X89.191 Y112.013 E17.52433
G1 X88.383 Y111.237 E17.59919
G1 X88.191 Y111.160 E17.61305
G1 X81.449 Y111.160 E18.06346
G1 X77.840 Y107.551 E18.40435
G1 X77.840 Y92.449 E19.41330
G1 X80.636 Y89.653 E19.67738
G1 X81.046 Y90.000 F7800.000
G1 X81.670 Y89.376 E19.73637 F1800.000
G1 X88.422 Y89.376 E20.18739
G1 X88.623 Y89.290 E20.20200
G1 X89.555 Y88.380 E20.28900
G1 X90.705 Y87.441 E20.38818
G1 X91.745 Y86.734 E20.47223
G1 X92.639 Y86.218 E20.54117
G1 X93.772 Y85.671 E20.62523
G1 X95.160 Y85.144 E20.72441
G1 X96.151 Y84.857 E20.79334
G1 X96.505 Y84.775 E20.81765
G1 X97.605 Y84.560 E20.89252
G1 X98.630 Y84.436 E20.96146
G1 X100.113 Y84.376 E21.06062
G1 X101.370 Y84.436 E21.14470 F1800.000
G1 X102.618 Y84.596 E21.22875
G1 X103.629 Y84.803 E21.29769
G1 X105.055 Y85.216 E21.39686
G1 X106.228 Y85.671 E21.48092
G1 X107.361 Y86.218 E21.56499
G1 X108.255 Y86.734 E21.63393
G1 X109.295 Y87.441 E21.71799
G1 X110.445 Y88.380 E21.81716
G1 X111.377 Y89.290 E21.90416
G1 X111.578 Y89.376 E21.91877
G1 X118.330 Y89.376 E22.36979
G1 X121.624 Y92.670 E22.68105
G1 X121.624 Y107.330 E23.66035
G1 X118.330 Y110.624 E23.97160
G1 X111.578 Y110.624 E24.42263
G1 X111.377 Y110.710 E24.43724
G1 X110.445 Y111.620 E24.52423
G1 X109.295 Y112.559 E24.62341
G1 X108.255 Y113.266 E24.70747
G1 X107.161 Y113.887 E24.79153
G1 X106.228 Y114.329 E24.86047
G1 X104.840 Y114.856 E24.95965
G1 X103.629 Y115.197 E25.04370
G1 X102.394 Y115.440 E25.12776
G1 X101.370 Y115.564 E25.19669
G1 X100.113 Y115.624 E25.28076
G1 X98.630 Y115.564 E25.37994
G1 X97.382 Y115.404 E25.46399
G1 X96.371 Y115.197 E25.53293
G1 X95.160 Y114.856 E25.61699
G1 X93.772 Y114.329 E25.71617
G1 X92.839 Y113.887 E25.78510
G1 X91.745 Y113.266 E25.86915
G1 X90.705 Y112.559 E25.95322
G1 X89.555 Y111.620 E26.05239
G1 X88.623 Y110.710 E26.13939
G1 X88.422 Y110.624 E26.15400
G1 X81.670 Y110.624 E26.60503
G1 X78.376 Y107.330 E26.91628
G1 X78.376 Y92.670 E27.89558
G1 X81.014 Y90.032 E28.14484
G1 X81.425 Y90.379 F7800.000
G1 X81.892 Y89.912 E28.18901 F1800.000
G1 X88.664 Y89.912 E28.64142
G1 X88.874 Y89.817 E28.65678
G1 X89.189 Y89.474 E28.68791
G1 X89.918 Y88.774 E28.75540
G1 X91.018 Y87.876 E28.85026
G1 X91.849 Y87.302 E28.91775
G1 X92.897 Y86.688 E28.99893
G1 X93.992 Y86.159 E29.08010
G1 X95.319 Y85.656 E29.17497
G1 X96.489 Y85.326 E29.25613
G1 X97.479 Y85.123 E29.32363
G1 X98.888 Y84.952 E29.41849
G1 X99.897 Y84.912 E29.48598
G1 X100.229 Y84.917 E29.50811
G1 X101.316 Y84.969 E29.58085 F1800.000
G1 X102.319 Y85.091 E29.64834
G1 X103.511 Y85.326 E29.72951
G1 X104.875 Y85.721 E29.82437
G1 X106.008 Y86.159 E29.90554
G1 X107.103 Y86.688 E29.98673
G1 X107.978 Y87.193 E30.05423
G1 X108.982 Y87.876 E30.13540
G1 X110.082 Y88.774 E30.23026
G1 X110.811 Y89.474 E30.29775
G1 X111.126 Y89.817 E30.32888
G1 X111.336 Y89.912 E30.34424
G1 X118.108 Y89.912 E30.79665
G1 X121.088 Y92.892 E31.07826
G1 X121.088 Y107.108 E32.02792
G1 X118.108 Y110.088 E32.30953
G1 X111.336 Y110.088 E32.76194
G1 X111.126 Y110.183 E32.77730
G1 X110.811 Y110.526 E32.80843
G1 X110.082 Y111.226 E32.87592
G1 X108.982 Y112.124 E32.97078
G1 X107.978 Y112.807 E33.05196
G1 X106.921 Y113.408 E33.13313
G1 X106.008 Y113.841 E33.20063
G1 X104.681 Y114.344 E33.29549
G1 X103.511 Y114.674 E33.37666
G1 X102.319 Y114.909 E33.45784
G1 X101.316 Y115.031 E33.52532
G1 X100.102 Y115.088 E33.60652
G1 X98.684 Y115.031 E33.70137
G1 X97.479 Y114.877 E33.78254
G1 X96.489 Y114.674 E33.85004
G1 X95.319 Y114.344 E33.93122
G1 X93.992 Y113.841 E34.02607
G1 X93.079 Y113.408 E34.09356
G1 X92.022 Y112.807 E34.17473
G1 X91.018 Y112.124 E34.25592
G1 X89.918 Y111.226 E34.35077
G1 X89.189 Y110.526 E34.41827
G1 X88.874 Y110.183 E34.44939
G1 X88.664 Y110.088 E34.46476
G1 X81.892 Y110.088 E34.91717
G1 X78.912 Y107.108 E35.19878
G1 X78.912 Y92.892 E36.14844
G1 X81.393 Y90.411 E36.38288
G1 X81.804 Y90.758 F7800.000
G1 X82.114 Y90.447 E36.41222 F1800.000
G1 X88.905 Y90.447 E36.86591
G1 X89.115 Y90.353 E36.88128
G1 X89.568 Y89.853 E36.92635
G1 X90.281 Y89.168 E36.99240
G1 X91.331 Y88.311 E37.08294
G1 X92.300 Y87.651 E37.16123
G1 X93.156 Y87.157 E37.22728
G1 X94.211 Y86.648 E37.30557
G1 X95.479 Y86.167 E37.39611
G1 X96.428 Y85.892 E37.46216
G1 X96.720 Y85.825 E37.48214
G1 X97.756 Y85.621 E37.55270
G1 X98.738 Y85.502 E37.61875
G1 X100.091 Y85.447 E37.70927
G1 X101.262 Y85.502 E37.78758 F1800.000
G1 X102.425 Y85.650 E37.86587
G1 X103.394 Y85.848 E37.93192
G1 X104.695 Y86.225 E38.02246
G1 X105.788 Y86.648 E38.10075
G1 X106.844 Y87.157 E38.17906
G1 X107.701 Y87.651 E38.24511
G1 X108.669 Y88.311 E38.32340
G1 X109.719 Y89.168 E38.41394
G1 X110.432 Y89.853 E38.47999
G1 X110.885 Y90.353 E38.52506
G1 X111.095 Y90.447 E38.54042
G1 X117.886 Y90.447 E38.99412
G1 X120.553 Y93.114 E39.24608
G1 X120.553 Y106.886 E40.16610
G1 X117.886 Y109.553 E40.41807
G1 X111.095 Y109.553 E40.87176
G1 X110.885 Y109.647 E40.88712
G1 X110.432 Y110.147 E40.93219
G1 X109.719 Y110.832 E40.99824
G1 X108.669 Y111.689 E41.08878
G1 X107.700 Y112.349 E41.16708
G1 X106.682 Y112.928 E41.24537
G1 X105.789 Y113.352 E41.31142
G1 X104.521 Y113.833 E41.40196
G1 X103.394 Y114.152 E41.48025
G1 X102.425 Y114.350 E41.54630
G1 X101.263 Y114.498 E41.62459
G1 X100.092 Y114.553 E41.70290
G1 X98.738 Y114.498 E41.79343
G1 X97.575 Y114.350 E41.87172
G1 X96.606 Y114.152 E41.93777
G1 X95.479 Y113.833 E42.01607
G1 X94.211 Y113.352 E42.10661
G1 X93.156 Y112.843 E42.18490
G1 X92.300 Y112.349 E42.25095
G1 X91.331 Y111.689 E42.32925
G1 X90.281 Y110.832 E42.41978
G1 X89.568 Y110.147 E42.48583
G1 X89.115 Y109.647 E42.53090
G1 X88.905 Y109.553 E42.54626
G1 X82.114 Y109.553 E42.99996
G1 X79.447 Y106.886 E43.25192
G1 X79.447 Y93.114 E44.17194
G1 X81.772 Y90.790 E44.39156
G1 X82.182 Y91.137 F7800.000
G1 X82.336 Y90.983 E44.40608 F1800.000
G1 X89.147 Y90.983 E44.86106
G1 X89.356 Y90.888 E44.87642
G1 X89.947 Y90.232 E44.93543
G1 X90.644 Y89.562 E45.00004
G1 X91.644 Y88.745 E45.08626
G1 X92.440 Y88.196 E45.15086
G1 X93.414 Y87.626 E45.22628
G1 X94.431 Y87.136 E45.30169
G1 X95.638 Y86.679 E45.38791
G1 X96.724 Y86.371 E45.46331
G1 X97.672 Y86.177 E45.52793
G1 X98.953 Y86.022 E45.61414
G1 X100.186 Y85.987 E45.69654
G1 X101.209 Y86.035 E45.76495 F1800.000
G1 X102.169 Y86.151 E45.82956
G1 X103.276 Y86.371 E45.90497
G1 X104.515 Y86.730 E45.99118
G1 X105.569 Y87.136 E46.06659
G1 X106.586 Y87.626 E46.14201
G1 X107.423 Y88.110 E46.20663
G1 X108.356 Y88.745 E46.28204
G1 X109.356 Y89.562 E46.36825
G1 X110.053 Y90.232 E46.43286
G1 X110.644 Y90.888 E46.49187
G1 X110.853 Y90.983 E46.50723
G1 X117.664 Y90.983 E46.96221
G1 X120.017 Y93.336 E47.18453
G1 X120.017 Y106.664 E48.07491
G1 X117.664 Y109.017 E48.29723
G1 X110.853 Y109.017 E48.75221
G1 X110.644 Y109.112 E48.76757
G1 X110.053 Y109.768 E48.82658
G1 X109.356 Y110.438 E48.89119
G1 X108.356 Y111.254 E48.97740
G1 X107.423 Y111.890 E49.05282
G1 X106.442 Y112.449 E49.12823
G1 X105.569 Y112.864 E49.19284
G1 X104.362 Y113.321 E49.27906
G1 X103.276 Y113.629 E49.35447
G1 X102.328 Y113.823 E49.41908
G1 X101.209 Y113.965 E49.49448
G1 X100.081 Y114.017 E49.56991
G1 X98.791 Y113.965 E49.65612
G1 X97.672 Y113.823 E49.73153
G1 X96.724 Y113.629 E49.79614
G1 X95.638 Y113.321 E49.87156
G1 X94.431 Y112.864 E49.95777
G1 X93.558 Y112.449 E50.02238
G1 X92.577 Y111.890 E50.09779
G1 X91.644 Y111.255 E50.17320
G1 X90.644 Y110.438 E50.25942
G1 X89.947 Y109.768 E50.32403
G1 X89.356 Y109.112 E50.38304
G1 X89.147 Y109.017 E50.39840
G1 X82.336 Y109.017 E50.85338
G1 X79.983 Y106.664 E51.07570
G1 X79.983 Y93.336 E51.96608
G1 X82.151 Y91.168 E52.17087
G1 X82.558 Y91.518 F7800.000
G1 X89.388 Y91.518 E52.62713 F1800.000
G1 X89.597 Y91.424 E52.64249
G1 X90.229 Y90.712 E52.70609
G1 X91.008 Y89.955 E52.77862
G1 X91.957 Y89.180 E52.86051
G1 X92.735 Y88.643 E52.92368
G1 X93.673 Y88.095 E52.99621
G1 X94.651 Y87.625 E53.06874
G1 X95.797 Y87.190 E53.15063
G1 X96.934 Y86.875 E53.22944
G1 X97.907 Y86.682 E53.29567
G1 X98.845 Y86.568 E53.35884
G1 X100.070 Y86.518 E53.44072
G1 X101.155 Y86.568 E53.51327 F1800.000
G1 X102.232 Y86.704 E53.58579
G1 X103.158 Y86.893 E53.64896
G1 X104.336 Y87.234 E53.73085
G1 X105.349 Y87.625 E53.80338
G1 X106.327 Y88.095 E53.87592
G1 X107.146 Y88.568 E53.93909
G1 X108.043 Y89.180 E54.01162
G1 X108.992 Y89.955 E54.09351
G1 X109.771 Y90.712 E54.16604
G1 X110.403 Y91.424 E54.22964
G1 X110.612 Y91.518 E54.24500
G1 X117.442 Y91.518 E54.70126
G1 X119.482 Y93.558 E54.89394
G1 X119.482 Y106.442 E55.75467
G1 X117.442 Y108.482 E55.94735
G1 X110.612 Y108.482 E56.40361
G1 X110.403 Y108.576 E56.41897
G1 X109.771 Y109.288 E56.48256
G1 X108.992 Y110.045 E56.55510
G1 X108.043 Y110.820 E56.63699
G1 X107.146 Y111.432 E56.70952
G1 X106.203 Y111.970 E56.78205
G1 X105.349 Y112.375 E56.84522
G1 X104.203 Y112.810 E56.92711
G1 X103.158 Y113.107 E56.99964
G1 X102.093 Y113.318 E57.07217
G1 X101.155 Y113.432 E57.13534
G1 X100.070 Y113.482 E57.20788
G1 X98.845 Y113.432 E57.28977
G1 X97.768 Y113.296 E57.36229
G1 X96.842 Y113.107 E57.42546
G1 X95.797 Y112.810 E57.49800
G1 X94.651 Y112.375 E57.57989
G1 X93.797 Y111.970 E57.64306
G1 X92.854 Y111.432 E57.71558
G1 X91.957 Y110.820 E57.78812
G1 X91.008 Y110.045 E57.87001
G1 X90.229 Y109.288 E57.94254
G1 X89.597 Y108.576 E58.00613
G1 X89.388 Y108.482 E58.02149
G1 X82.558 Y108.482 E58.47775
G1 X80.518 Y106.442 E58.67043
G1 X80.518 Y93.558 E59.53117
G1 X82.526 Y91.550 E59.72084
G1 X82.780 Y92.054 F7800.000
G1 X89.641 Y92.054 E60.17922 F1800.000
G1 X89.859 Y91.951 E60.19534
G1 X90.704 Y90.989 E60.28086
G1 X91.460 Y90.271 E60.35051
G1 X92.175 Y89.686 E60.41224
G1 X93.031 Y89.090 E60.48189
G1 X94.036 Y88.509 E60.55945
G1 X94.980 Y88.067 E60.62910
G1 X95.844 Y87.739 E60.69083
G1 X96.959 Y87.416 E60.76840
G1 X97.982 Y87.212 E60.83805
G1 X98.899 Y87.101 E60.89978
G1 X100.143 Y87.057 E60.98290
G1 X101.101 Y87.101 E61.04698 F1800.000
G1 X102.018 Y87.212 E61.10871
G1 X103.156 Y87.444 E61.18627
G1 X104.234 Y87.769 E61.26149
G1 X105.129 Y88.113 E61.32556
G1 X105.964 Y88.509 E61.38729
G1 X106.869 Y89.027 E61.45694
G1 X107.825 Y89.686 E61.53451
G1 X108.540 Y90.271 E61.59624
G1 X109.296 Y90.989 E61.66589
G1 X110.141 Y91.951 E61.75141
G1 X110.359 Y92.054 E61.76753
G1 X117.220 Y92.054 E62.22591
G1 X118.946 Y93.780 E62.38894
G1 X118.946 Y106.220 E63.22003
G1 X117.220 Y107.946 E63.38307
G1 X110.359 Y107.946 E63.84145
G1 X110.141 Y108.049 E63.85757
G1 X109.296 Y109.011 E63.94309
G1 X108.629 Y109.651 E64.00482
G1 X107.825 Y110.314 E64.07446
G1 X106.969 Y110.910 E64.14412
G1 X105.964 Y111.491 E64.22168
G1 X105.020 Y111.933 E64.29134
G1 X104.043 Y112.298 E64.36099
G1 X103.156 Y112.556 E64.42271
G1 X102.018 Y112.788 E64.50028
G1 X100.983 Y112.909 E64.56993
G1 X100.059 Y112.946 E64.63166
G1 X98.899 Y112.899 E64.70923
G1 X97.865 Y112.769 E64.77888
G1 X96.959 Y112.584 E64.84061
G1 X95.844 Y112.261 E64.91818
G1 X94.871 Y111.887 E64.98783
G1 X94.036 Y111.491 E65.04955
G1 X93.031 Y110.910 E65.12712
G1 X92.175 Y110.314 E65.19677
G1 X91.460 Y109.729 E65.25850
G1 X90.704 Y109.011 E65.32815
G1 X89.859 Y108.049 E65.41367
G1 X89.641 Y107.946 E65.42979
G1 X82.780 Y107.946 E65.88817
G1 X81.054 Y106.220 E66.05120
G1 X81.054 Y93.780 E66.88230
G1 X82.748 Y92.086 E67.04233
G1 X83.002 Y92.590 F7800.000
G1 X89.914 Y92.590 E67.50409 F1800.000
G1 X90.140 Y92.477 E67.52097
G1 X90.418 Y92.114 E67.55152
G1 X91.016 Y91.438 E67.61181
G1 X91.807 Y90.679 E67.68506
G1 X92.506 Y90.108 E67.74534
G1 X93.326 Y89.537 E67.81211
G1 X94.276 Y88.989 E67.88536
G1 X95.180 Y88.564 E67.95212
G1 X96.024 Y88.244 E68.01241
G1 X97.077 Y87.939 E68.08566
G1 X98.057 Y87.743 E68.15242
G1 X98.953 Y87.634 E68.21271
G1 X100.048 Y87.590 E68.28595
G1 X100.950 Y87.626 E68.34625 F1800.000
G1 X101.943 Y87.743 E68.41301
G1 X103.017 Y87.962 E68.48626
G1 X104.044 Y88.270 E68.55787
G1 X104.909 Y88.602 E68.61978
G1 X105.724 Y88.989 E68.68007
G1 X106.674 Y89.537 E68.75332
G1 X107.417 Y90.050 E68.81360
G1 X108.193 Y90.679 E68.88037
G1 X108.984 Y91.438 E68.95362
G1 X109.582 Y92.114 E69.01390
G1 X109.860 Y92.477 E69.04446
G1 X110.086 Y92.590 E69.06134
G1 X116.998 Y92.590 E69.52310
G1 X118.410 Y94.002 E69.65650
G1 X118.410 Y105.998 E70.45794
G1 X116.998 Y107.410 E70.59134
G1 X110.086 Y107.410 E71.05311
G1 X109.860 Y107.523 E71.06998
G1 X109.582 Y107.886 E71.10053
G1 X108.984 Y108.562 E71.16082
G1 X108.193 Y109.321 E71.23407
G1 X107.417 Y109.950 E71.30084
G1 X106.674 Y110.463 E71.36112
G1 X105.724 Y111.011 E71.43437
G1 X104.909 Y111.398 E71.49466
