; generated by Slic3r 1.2.9 on 2019-05-28 at 19:59:53

; external perimeters extrusion width = 0.50mm
; perimeters extrusion width = 0.58mm
; infill extrusion width = 0.58mm
; solid infill extrusion width = 0.58mm
; top infill extrusion width = 0.58mm

M107
M190 S65 ; set bed temperature
M104 S205 ; set temperature
G28 ; home all axes
G1 Z5 F5000 ; lift nozzle

M109 S205 ; wait for temperature to be reached
G21 ; set units to millimeters
G90 ; use absolute coordinates
M82 ; use absolute distances for extrusion
G92 E0
G1 Z0.500 F7800.000
G1 E-2.00000 F2400.00000
G92 E0
G1 X71.514 Y79.337 F7800.000
G1 E2.00000 F2400.00000
G1 X71.853 Y79.047 E2.02816 F1800.000
G1 X72.448 Y78.589 E2.07560
G1 X73.072 Y78.171 E2.12302
G1 X73.462 Y77.936 E2.15179
G1 X94.613 Y65.737 E3.69360
G1 X95.288 Y65.410 E3.74100
G1 X95.985 Y65.126 E3.78846
G1 X96.697 Y64.889 E3.83587
G1 X97.424 Y64.699 E3.88329
G1 X98.161 Y64.556 E3.93070
G1 X98.905 Y64.461 E3.97812
G1 X99.655 Y64.414 E4.02554
G1 X100.405 Y64.416 E4.07290
G1 X101.458 Y64.501 E4.13958 F1800.000
G1 X102.199 Y64.619 E4.18700
G1 X102.931 Y64.786 E4.23441
G1 X103.372 Y64.910 E4.26336
G1 X104.072 Y65.148 E4.31002
G1 X104.766 Y65.434 E4.35743
G1 X105.441 Y65.765 E4.40486
G1 X126.666 Y78.011 E5.95223
G1 X127.235 Y78.369 E5.99468
G1 X127.601 Y78.625 E6.02285
G1 X128.425 Y79.284 E6.08951
G1 X128.974 Y79.797 E6.13692
G1 X129.488 Y80.344 E6.18434
G1 X129.776 Y80.685 E6.21254
G1 X130.231 Y81.282 E6.25993
G1 X130.646 Y81.908 E6.30737
G1 X131.019 Y82.559 E6.35473
G1 X131.472 Y83.513 E6.42141
G1 X131.740 Y84.214 E6.46883
G1 X131.881 Y84.650 E6.49777
G1 X132.072 Y85.363 E6.54436
G1 X132.219 Y86.099 E6.59177
G1 X132.345 Y87.148 E6.65849
G1 X132.377 Y88.050 E6.71544
G1 X132.366 Y112.466 E8.25723
G1 X132.312 Y113.216 E8.30468
G1 X132.209 Y113.959 E8.35210
G1 X132.058 Y114.695 E8.39952
G1 X131.860 Y115.419 E8.44689
G1 X131.615 Y116.129 E8.49435
G1 X131.326 Y116.821 E8.54173
G1 X130.843 Y117.760 E8.60838
G1 X130.449 Y118.400 E8.65582
G1 X130.014 Y119.012 E8.70322
G1 X129.730 Y119.372 E8.73220
G1 X129.242 Y119.926 E8.77884
G1 X128.711 Y120.457 E8.82625
G1 X128.147 Y120.953 E8.87367
G1 X127.552 Y121.410 E8.92104
G1 X126.929 Y121.829 E8.96843
G1 X105.387 Y134.264 E10.53910
G1 X104.711 Y134.591 E10.58651
G1 X104.016 Y134.873 E10.63387
G1 X103.010 Y135.194 E10.70055
G1 X102.279 Y135.365 E10.74797
G1 X101.839 Y135.444 E10.77617
G1 X101.095 Y135.539 E10.82358
G1 X100.345 Y135.586 E10.87100
G1 X99.594 Y135.584 E10.91842
G1 X98.846 Y135.534 E10.96577
G1 X97.801 Y135.381 E11.03246
G1 X97.069 Y135.214 E11.07987
G1 X96.627 Y135.089 E11.10888
G1 X95.928 Y134.852 E11.15549
G1 X95.234 Y134.566 E11.20290
G1 X94.560 Y134.235 E11.25029
G1 X94.161 Y134.015 E11.27909
G1 X73.021 Y121.797 E12.82090
G1 X72.399 Y121.375 E12.86834
G1 X71.807 Y120.914 E12.91573
G1 X71.026 Y120.203 E12.98238
G1 X70.512 Y119.656 E13.02980
G1 X70.216 Y119.306 E13.05875
G1 X69.769 Y118.718 E13.10541
G1 X69.354 Y118.092 E13.15281
G1 X68.980 Y117.441 E13.20024
G1 X68.650 Y116.767 E13.24763
G1 X68.260 Y115.786 E13.31429
G1 X68.038 Y115.069 E13.36170
G1 X67.862 Y114.338 E13.40912
G1 X67.735 Y113.598 E13.45653
G1 X67.655 Y112.852 E13.50395
G1 X67.623 Y111.950 E13.56091
G1 X67.624 Y87.901 E15.07952
G1 X67.650 Y87.229 E15.12197
G1 X67.688 Y86.785 E15.15013
G1 X67.791 Y86.041 E15.19756
G1 X68.016 Y85.010 E15.26421
G1 X68.140 Y84.581 E15.29240
G1 X68.385 Y83.871 E15.33982
G1 X68.805 Y82.903 E15.40645
G1 X69.009 Y82.506 E15.43462
G1 X69.386 Y81.857 E15.48204
G1 X69.986 Y80.988 E15.54869
G1 X70.262 Y80.638 E15.57688
G1 X70.758 Y80.074 E15.62429
G1 X71.458 Y79.388 E15.68620
G1 E13.68620 F2400.00000
G92 E0
G1 X74.656 Y82.780 F7800.000
G1 E2.00000 F2400.00000
G1 X75.032 Y82.473 E2.03063 F1800.000
G1 X75.399 Y82.214 E2.05899
G1 X75.781 Y81.979 E2.08735
G1 X76.178 Y81.769 E2.11570
G1 X76.588 Y81.585 E2.14406
G1 X77.009 Y81.429 E2.17241
G1 X77.439 Y81.300 E2.20077
G1 X77.877 Y81.199 E2.22913
G1 X78.320 Y81.126 E2.25748
G1 X78.767 Y81.083 E2.28584
G1 X79.288 Y81.069 E2.31876
G1 X79.737 Y81.088 E2.34712
G1 X80.183 Y81.136 E2.37547
G1 X80.625 Y81.213 E2.40382
G1 X81.207 Y81.358 E2.44167
G1 X81.662 Y81.241 E2.47136
G1 X82.356 Y80.589 E2.53146
G1 X82.915 Y80.095 E2.57862
G1 X84.101 Y79.135 E2.67495
G1 X84.702 Y78.691 E2.72211
G1 X85.913 Y77.872 E2.81442
G1 X87.195 Y77.106 E2.90874
G1 X88.547 Y76.400 E3.00506
G1 X89.909 Y75.787 E3.09938
G1 X91.304 Y75.252 E3.19369
G1 X92.012 Y75.014 E3.24086
G1 X92.926 Y74.739 E3.30115
G1 X93.255 Y74.402 E3.33087
G1 X93.489 Y73.621 E3.38235
G1 X93.686 Y73.139 E3.41527
G1 X94.071 Y72.409 E3.46740
G1 X94.358 Y71.973 E3.50032
G1 X94.876 Y71.331 E3.55244
G1 X95.242 Y70.959 E3.58536
G1 X95.617 Y70.631 E3.61679
G1 X96.244 Y70.174 E3.66584
G1 X96.693 Y69.908 E3.69875
G1 X97.094 Y69.707 E3.72711
G1 X97.508 Y69.532 E3.75548
G1 X97.932 Y69.384 E3.78383
G1 X98.364 Y69.264 E3.81219
G1 X99.177 Y69.117 E3.86431
G1 X99.624 Y69.078 E3.89266
G1 X100.145 Y69.070 E3.92557
G1 X100.594 Y69.094 E3.95393 F1800.000
G1 X101.040 Y69.147 E3.98230
G1 X101.481 Y69.228 E4.01064
G1 X101.963 Y69.353 E4.04208
G1 X102.695 Y69.613 E4.09113
G1 X103.103 Y69.801 E4.11949
G1 X103.498 Y70.015 E4.14784
G1 X103.878 Y70.254 E4.17620
G1 X104.299 Y70.562 E4.20911
G1 X104.677 Y70.885 E4.24055
G1 X105.221 Y71.440 E4.28960
G1 X105.549 Y71.845 E4.32251
G1 X106.003 Y72.534 E4.37464
G1 X106.247 Y72.995 E4.40757
G1 X106.560 Y73.759 E4.45969
G1 X106.748 Y74.404 E4.50209
G1 X107.077 Y74.740 E4.53178
G1 X107.988 Y75.014 E4.59188
G1 X108.696 Y75.252 E4.63904
G1 X110.120 Y75.799 E4.73537
G1 X111.481 Y76.414 E4.82968
G1 X112.148 Y76.751 E4.87685
G1 X113.424 Y77.464 E4.96916
G1 X114.685 Y78.264 E5.06348
G1 X115.924 Y79.155 E5.15980
G1 X117.084 Y80.095 E5.25411
G1 X117.644 Y80.589 E5.30127
G1 X118.340 Y81.243 E5.36157
G1 X118.796 Y81.360 E5.39129
G1 X119.220 Y81.247 E5.41901
G1 X119.660 Y81.160 E5.44735
G1 X120.481 Y81.075 E5.49949
G1 X121.051 Y81.074 E5.53548
G1 X121.451 Y81.100 E5.56075
G1 X121.896 Y81.158 E5.58911
G1 X122.702 Y81.339 E5.64123
G1 X123.197 Y81.502 E5.67417
G1 X123.613 Y81.671 E5.70252
G1 X124.016 Y81.868 E5.73086
G1 X124.722 Y82.295 E5.78299
G1 X125.140 Y82.607 E5.81592
G1 X125.480 Y82.901 E5.84427
G1 X125.800 Y83.215 E5.87262
G1 X126.100 Y83.550 E5.90098
G1 X126.377 Y83.904 E5.92933
G1 X126.630 Y84.275 E5.95771
G1 X126.859 Y84.661 E5.98604
G1 X127.213 Y85.407 E6.03817
G1 X127.367 Y85.828 E6.06653
G1 X127.494 Y86.259 E6.09488
G1 X127.613 Y86.816 E6.13088
G1 X127.672 Y87.212 E6.15613
G1 X127.708 Y87.660 E6.18452
G1 X127.716 Y88.109 E6.21287
G1 X127.694 Y88.558 E6.24123
G1 X127.579 Y89.375 E6.29335
G1 X127.456 Y89.882 E6.32628
G1 X127.185 Y90.661 E6.37839
G1 X126.967 Y91.135 E6.41133
G1 X126.751 Y91.529 E6.43966
G1 X126.510 Y91.907 E6.46802
G1 X126.005 Y92.560 E6.52015
G1 X125.542 Y93.045 E6.56248
G1 X125.414 Y93.492 E6.59186
G1 X125.752 Y95.005 E6.68971
G1 X125.990 Y96.447 E6.78202
G1 X126.077 Y97.158 E6.82723
G1 X126.192 Y98.554 E6.91569
G1 X126.232 Y100.015 E7.00800
G1 X126.189 Y101.488 E7.10107
G1 X126.077 Y102.842 E7.18685
G1 X125.990 Y103.553 E7.23205
G1 X125.752 Y104.995 E7.32435
G1 X125.413 Y106.511 E7.42240
G1 X125.542 Y106.958 E7.45182
G1 X126.100 Y107.551 E7.50322
G1 X126.419 Y107.963 E7.53615
G1 X126.859 Y108.661 E7.58827
G1 X127.093 Y109.127 E7.62120
G1 X127.390 Y109.897 E7.67331
G1 X127.529 Y110.400 E7.70623
G1 X127.626 Y110.888 E7.73766
G1 X127.708 Y111.661 E7.78671
G1 X127.716 Y112.109 E7.81506
G1 X127.694 Y112.558 E7.84342
G1 X127.632 Y113.076 E7.87634
G1 X127.548 Y113.517 E7.90471
G1 X127.436 Y113.951 E7.93304
G1 X127.296 Y114.378 E7.96143
G1 X126.967 Y115.135 E8.01353
G1 X126.751 Y115.529 E8.04189
G1 X126.510 Y115.908 E8.07025
G1 X126.200 Y116.327 E8.10316
G1 X125.908 Y116.669 E8.13153
G1 X125.595 Y116.991 E8.15988
G1 X125.262 Y117.292 E8.18824
G1 X124.870 Y117.598 E8.21967
G1 X124.219 Y118.021 E8.26871
G1 X123.822 Y118.231 E8.29707
G1 X123.345 Y118.442 E8.32998
G1 X122.561 Y118.700 E8.38211
G1 X122.123 Y118.801 E8.41047
G1 X121.608 Y118.883 E8.44339
G1 X120.784 Y118.932 E8.49551
G1 X120.263 Y118.912 E8.52843
G1 X119.446 Y118.801 E8.58055
G1 X118.793 Y118.642 E8.62296
G1 X118.338 Y118.759 E8.65265
G1 X117.644 Y119.411 E8.71275
G1 X117.084 Y119.905 E8.75992
G1 X115.899 Y120.865 E8.85624
G1 X115.298 Y121.309 E8.90340
G1 X114.087 Y122.128 E8.99571
G1 X112.805 Y122.894 E9.09003
G1 X111.481 Y123.586 E9.18435
G1 X110.091 Y124.213 E9.28068
G1 X108.696 Y124.748 E9.37499
G1 X107.988 Y124.986 E9.42215
G1 X107.074 Y125.261 E9.48244
G1 X106.745 Y125.598 E9.51216
G1 X106.631 Y126.021 E9.53988
G1 X106.486 Y126.446 E9.56823
G1 X106.149 Y127.200 E9.62036
G1 X105.891 Y127.653 E9.65328
G1 X105.415 Y128.328 E9.70541
G1 X105.123 Y128.669 E9.73376
G1 X104.811 Y128.991 E9.76211
G1 X104.422 Y129.338 E9.79503
G1 X103.756 Y129.826 E9.84716
G1 X103.307 Y130.092 E9.88008
G1 X102.906 Y130.293 E9.90843
G1 X102.493 Y130.468 E9.93678
G1 X101.706 Y130.719 E9.98892
G1 X101.267 Y130.815 E10.01727
G1 X100.823 Y130.883 E10.04563
G1 X100.376 Y130.922 E10.07398
G1 X99.927 Y130.931 E10.10234
G1 X99.358 Y130.901 E10.13832
G1 X98.960 Y130.853 E10.16362
G1 X98.519 Y130.772 E10.19198
G1 X97.724 Y130.548 E10.24409
G1 X97.305 Y130.387 E10.27245
G1 X96.897 Y130.199 E10.30080
G1 X96.440 Y129.948 E10.33372
G1 X96.062 Y129.705 E10.36208
G1 X95.701 Y129.438 E10.39043
G1 X95.085 Y128.889 E10.44256
G1 X94.779 Y128.560 E10.47092
G1 X94.495 Y128.212 E10.49927
G1 X94.194 Y127.787 E10.53219
G1 X93.961 Y127.403 E10.56054
G1 X93.753 Y127.005 E10.58890
G1 X93.440 Y126.241 E10.64103
G1 X93.252 Y125.596 E10.68343
G1 X92.923 Y125.260 E10.71312
G1 X92.012 Y124.986 E10.77322
G1 X91.304 Y124.748 E10.82039
G1 X89.880 Y124.201 E10.91670
G1 X88.479 Y123.566 E11.01382
G1 X87.223 Y122.910 E11.10334
G1 X86.576 Y122.536 E11.15050
G1 X85.288 Y121.718 E11.24682
G1 X84.076 Y120.845 E11.34114
G1 X82.915 Y119.905 E11.43545
G1 X82.356 Y119.411 E11.48262
G1 X81.660 Y118.757 E11.54291
G1 X81.204 Y118.640 E11.57263
G1 X80.411 Y118.828 E11.62412
G1 X79.895 Y118.898 E11.65703
G1 X79.070 Y118.930 E11.70916
G1 X78.549 Y118.900 E11.74210
G1 X77.734 Y118.772 E11.79421
G1 X77.229 Y118.641 E11.82712
G1 X76.454 Y118.358 E11.87924
G1 X76.048 Y118.166 E11.90760
G1 X75.655 Y117.948 E11.93596
G1 X75.277 Y117.705 E11.96432
G1 X74.860 Y117.393 E11.99723
G1 X74.520 Y117.099 E12.02559
G1 X74.199 Y116.784 E12.05396
G1 X73.900 Y116.450 E12.08230
G1 X73.623 Y116.096 E12.11067
G1 X73.370 Y115.726 E12.13901
G1 X73.141 Y115.339 E12.16738
G1 X72.918 Y114.894 E12.19880
G1 X72.633 Y114.172 E12.24785
G1 X72.506 Y113.741 E12.27621
G1 X72.407 Y113.303 E12.30457
G1 X72.328 Y112.788 E12.33748
G1 X72.291 Y112.291 E12.36892
G1 X72.301 Y111.515 E12.41796
G1 X72.357 Y110.996 E12.45088
G1 X72.525 Y110.188 E12.50301
G1 X72.656 Y109.759 E12.53136
G1 X72.843 Y109.272 E12.56427
G1 X73.212 Y108.534 E12.61641
G1 X73.490 Y108.093 E12.64932
G1 X73.995 Y107.440 E12.70145
G1 X74.459 Y106.954 E12.74385
G1 X74.586 Y106.501 E12.77354
G1 X74.368 Y105.575 E12.83365
G1 X74.219 Y104.843 E12.88081
G1 X73.981 Y103.336 E12.97713
G1 X73.834 Y101.850 E13.07145
G1 X73.791 Y101.104 E13.11861
G1 X73.771 Y99.642 E13.21092
G1 X73.834 Y98.150 E13.30524
G1 X73.985 Y96.632 E13.40157
G1 X74.219 Y95.157 E13.49588
G1 X74.367 Y94.425 E13.54304
G1 X74.586 Y93.496 E13.60334
G1 X74.459 Y93.043 E13.63305
G1 X74.149 Y92.731 E13.66078
G1 X73.854 Y92.394 E13.68913
G1 X73.370 Y91.725 E13.74125
G1 X73.106 Y91.275 E13.77417
G1 X72.760 Y90.526 E13.82630
G1 X72.589 Y90.034 E13.85921
G1 X72.394 Y89.231 E13.91134
G1 X72.321 Y88.715 E13.94426
G1 X72.289 Y88.267 E13.97261
G1 X72.286 Y87.818 E14.00096
G1 X72.357 Y86.996 E14.05309
G1 X72.452 Y86.483 E14.08601
G1 X72.680 Y85.690 E14.13814
G1 X72.872 Y85.205 E14.17106
G1 X73.249 Y84.471 E14.22318
G1 X73.531 Y84.033 E14.25610
G1 X74.043 Y83.385 E14.30823
G1 X74.601 Y82.830 E14.35790
G1 X75.258 Y83.439 F7800.000
G1 X75.579 Y83.179 E14.38397 F1800.000
G1 X75.898 Y82.953 E14.40867
G1 X76.232 Y82.749 E14.43338
G1 X76.578 Y82.567 E14.45808
G1 X76.936 Y82.408 E14.48279
G1 X77.302 Y82.272 E14.50749
G1 X77.677 Y82.160 E14.53220
G1 X78.101 Y82.065 E14.55964
G1 X78.834 Y81.973 E14.60629
G1 X79.225 Y81.961 E14.63099
G1 X79.616 Y81.974 E14.65569
G1 X80.006 Y82.013 E14.68040
G1 X80.434 Y82.085 E14.70784
G1 X80.815 Y82.177 E14.73255
G1 X81.415 Y82.370 E14.77235
G1 X81.910 Y82.256 E14.80444
G1 X82.975 Y81.233 E14.89767
G1 X83.545 Y80.732 E14.94563
G1 X84.623 Y79.860 E15.03313
G1 X85.810 Y79.007 E15.12544
G1 X86.445 Y78.592 E15.17340
G1 X87.636 Y77.882 E15.26091
G1 X88.932 Y77.206 E15.35321
G1 X89.585 Y76.900 E15.39877
G1 X90.899 Y76.352 E15.48868
G1 X92.278 Y75.866 E15.58099
G1 X93.681 Y75.461 E15.67321
G1 X94.027 Y75.088 E15.70532
G1 X94.119 Y74.626 E15.73507
G1 X94.221 Y74.248 E15.75977
G1 X94.346 Y73.878 E15.78447
G1 X94.647 Y73.203 E15.83112
G1 X94.840 Y72.863 E15.85583
G1 X95.054 Y72.535 E15.88053
G1 X95.316 Y72.188 E15.90798
G1 X95.816 Y71.645 E15.95462
G1 X96.140 Y71.355 E15.98206
G1 X96.736 Y70.919 E16.02871
G1 X97.110 Y70.697 E16.05615
G1 X97.459 Y70.521 E16.08085
G1 X97.820 Y70.368 E16.10557
G1 X98.189 Y70.239 E16.13027
G1 X98.566 Y70.134 E16.15497
G1 X98.948 Y70.053 E16.17968
G1 X99.336 Y69.998 E16.20438
G1 X100.073 Y69.961 E16.25102
G1 X100.507 Y69.982 E16.27846 F1800.000
G1 X100.896 Y70.028 E16.30317
G1 X101.619 Y70.182 E16.34982
G1 X102.033 Y70.313 E16.37726
G1 X102.712 Y70.604 E16.42391
G1 X103.056 Y70.791 E16.44862
G1 X103.422 Y71.024 E16.47605
G1 X104.004 Y71.479 E16.52270
G1 X104.289 Y71.748 E16.54741
G1 X104.583 Y72.068 E16.57485
G1 X104.848 Y72.401 E16.60172
G1 X105.235 Y72.989 E16.64620
G1 X105.438 Y73.373 E16.67365
G1 X105.718 Y74.057 E16.72029
G1 X105.843 Y74.473 E16.74773
G1 X105.976 Y75.090 E16.78754
G1 X106.322 Y75.462 E16.81963
G1 X107.740 Y75.872 E16.91286
G1 X109.083 Y76.345 E17.00276
G1 X109.753 Y76.613 E17.04832
G1 X111.085 Y77.214 E17.14063
G1 X111.729 Y77.539 E17.18619
G1 X112.972 Y78.233 E17.27610
G1 X114.206 Y79.018 E17.36841
G1 X114.798 Y79.431 E17.41397
G1 X115.930 Y80.294 E17.50387
G1 X117.040 Y81.246 E17.59618
G1 X118.092 Y82.258 E17.68840
G1 X118.588 Y82.372 E17.72051
G1 X118.992 Y82.233 E17.74752
G1 X119.370 Y82.129 E17.77223
G1 X119.753 Y82.050 E17.79692
G1 X120.140 Y81.995 E17.82163
G1 X120.530 Y81.966 E17.84634
G1 X120.921 Y81.962 E17.87104
G1 X121.312 Y81.984 E17.89574
G1 X121.701 Y82.031 E17.92045
G1 X122.085 Y82.103 E17.94515
G1 X122.464 Y82.199 E17.96985
G1 X122.877 Y82.335 E17.99731
G1 X123.240 Y82.482 E18.02201
G1 X123.591 Y82.653 E18.04670
G1 X124.223 Y83.036 E18.09335
G1 X124.538 Y83.269 E18.11806
G1 X124.836 Y83.522 E18.14276
G1 X125.171 Y83.850 E18.17237
G1 X125.651 Y84.423 E18.21958
G1 X125.872 Y84.746 E18.24430
G1 X126.072 Y85.082 E18.26898
G1 X126.389 Y85.750 E18.31564
G1 X126.523 Y86.117 E18.34034
G1 X126.633 Y86.493 E18.36504
G1 X126.731 Y86.951 E18.39465
G1 X126.816 Y87.694 E18.44187
G1 X126.808 Y88.433 E18.48852
G1 X126.768 Y88.822 E18.51322
G1 X126.702 Y89.207 E18.53793
G1 X126.600 Y89.630 E18.56537
G1 X126.482 Y90.003 E18.59008
G1 X126.340 Y90.368 E18.61478
G1 X126.175 Y90.722 E18.63949
G1 X125.988 Y91.066 E18.66418
G1 X125.574 Y91.678 E18.71083
G1 X125.326 Y91.980 E18.73554
G1 X125.059 Y92.266 E18.76024
G1 X124.560 Y92.720 E18.80283
G1 X124.411 Y93.208 E18.83501
G1 X124.736 Y94.503 E18.91935
G1 X124.876 Y95.180 E18.96301
G1 X125.105 Y96.563 E19.05148
G1 X125.189 Y97.249 E19.09515
G1 X125.301 Y98.609 E19.18130
G1 X125.339 Y100.009 E19.26976
G1 X125.298 Y101.428 E19.35937
G1 X125.189 Y102.751 E19.44323
G1 X125.105 Y103.437 E19.48689
G1 X124.876 Y104.820 E19.57535
G1 X124.736 Y105.497 E19.61902
G1 X124.411 Y106.795 E19.70355
G1 X124.560 Y107.283 E19.73575
G1 X124.915 Y107.594 E19.76554
G1 X125.191 Y107.871 E19.79026
G1 X125.449 Y108.165 E19.81496
G1 X125.688 Y108.475 E19.83966
G1 X125.906 Y108.800 E19.86436
G1 X126.258 Y109.449 E19.91101
G1 X126.428 Y109.849 E19.93845
G1 X126.648 Y110.554 E19.98510
G1 X126.737 Y110.979 E20.01254
G1 X126.817 Y111.714 E20.05919
G1 X126.823 Y112.105 E20.08389
G1 X126.803 Y112.496 E20.10860
G1 X126.752 Y112.927 E20.13604
G1 X126.679 Y113.312 E20.16075
G1 X126.582 Y113.691 E20.18544
